/* XPM */
static const char * freespace_img_xpm[] = {
"495 154 33 1",
" 	g None",
".	g #000000",
"+	g #525252",
"@	g #737373",
"#	g #7B7B7B",
"$	g #6A6A6A",
"%	g #626262",
"&	g #4A4A4A",
"*	g #313131",
"=	g #101010",
"-	g #5A5A5A",
";	g #414141",
">	g #202020",
",	g #181818",
"'	g #393939",
")	g #949494",
"!	g #8B8B8B",
"~	g #838383",
"{	g #9C9C9C",
"]	g #292929",
"^	g #080808",
"/	g #A4A4A4",
"(	g #B4B4B4",
"_	g #ACACAC",
":	g #CDCDCD",
"<	g #FFFFFF",
"[	g #C5C5C5",
"}	g #D5D5D5",
"|	g #DEDEDE",
"1	g #EEEEEE",
"2	g #BDBDBD",
"3	g #E6E6E6",
"4	g #F6F6F6",
"...............................................................................................................................................................................................................................................................................................................................................................................................................................................................................................................",
"...............................................................................................................................................................................................................................................................................................................................................................................................................................................................................................................",
"...............................................................................................................................................................................................................................................................................................................................................................................................................................................................................................................",
"...............................................................................................................................................................................................................................................................................................................................................................................................................................................................................................................",
"...............................................................................................................................................................................................................................................................................................................................................................................................................................................................................................................",
"...............................................................................................................................................................................................................................................................................................................................................................................................................................................................................................................",
"...............................................................................................................................................................................................................................................................................................................................................................................................................................................................................................................",
"...............................................................................................................................................................................................................................................................................................................................................................................................................................................................................................................",
"...............................................................................................................................................................................................................................................................................................................................................................................................................................................................................................................",
"...............................................................................................................................................................................................................................................................................................................................................................................................................................................................................................................",
"...............................................................................................................................................................................................................................................................................................................................................................................................................................................................................................................",
"...............................................................................................................................................................................................................................................................................................................................................................................................................................................................................................................",
"...............................................................................................................................................................................................................................................................................................................................................................................................................................................................................................................",
"......................+@@@@###@$%+&*=............-@@@@########;.............*&%@###$-&>.............,'+%@###$%&'=..........-@@@@########;..........&#@@@@%,......>#@@$.......&#####@@@@#####%..................................................................................................................................................................................................................................................................................................................",
"......................$)))!###~!){{)!%=..........$)))!########&...........=#)))~@@#))$=...........,@!){)~@@#!{{~'..........@)))!#######~&..........-))))))!>.....]{))!.......;@@@@@!)))#@@@@-......,'..........................................................................................................................................................................................................................................................................................................",
"......................@{){@....^>+~{{/)].........@{){%....................#{))%....>]............*){{{%>....^&*............@)))+...................%{))!{{{{;....]/){)............^!)){'...........)(;.........................................................................................................................................................................................................................................................................................................",
"......................#//_#........#_/__.........~_/_~********............@(__!+]=..............^/_/_'.....................~///#*******'...........$_/_#]/___%...](///............^)///;...........-{,.........................................................................................................................................................................................................................................................................................................",
"......................~(((~........,(((('........!((((((((((((>............%_((((({~$>..........>((((......................!((((((((((((...........@(((!.>{((()^.*((((............^/(((;.......................................................................................................................................................................................................................................................................................................................",
"......................!(((!........&((((>........)(((_#~~~~~~#=.............^*&%#{((((%.........,((((......................)(((/~~~~~~~~...........#((()..=!(((_]'((((............=_(((&.......................................................................................................................................................................................................................................................................................................................",
"......................)((().......;(((({.........{(((~............................'((((........../((({=......=,............{(((@...................~((({....@((((#((((............=((((+...........,'..........................................................................................................................................................................................................................................................................................................",
"....................../((((;&&+%#(((((~^........./(((/;&&&&&&&+...........,#(!&'*&!(((_..........=/((((#&'';@(()&.........._((({&&&&&&&&;..........!(((/.....%((((((((............=((((+...........)(;.........................................................................................................................................................................................................................................................................................................",
"......................_(((((((((((((#]..........._(((((((((((((,.........^_((((((((((#.............&/(((((((((((@..........((((((((((((((=.........)((((......*(((((((............=((((-...........-{,.........................................................................................................................................................................................................................................................................................................",
"......................$)))))))!#$&]..............${)))))))))))/=...........*+@!))~%&=................,;%#!)!#-'=...........@))))))))))))!^.........-{))@.......=!)))))............^~)))'.......................................................................................................................................................................................................................................................................................................................",
"...............................................................................................................................................................................................................................................................................................................................................................................................................................................................................................................",
"...............................................................................................................................................................................................................................................................................................................................................................................................................................................................................................................",
"...............................................................................................................................................................................................................................................................................................................................................................................................................................................................................................................",
"...............................................................................................................................................................................................................................................................................................................................................................................................................................................................................................................",
"...............................................................................................................................................................................................................................................................................................................................................................................................................................................................................................................",
"...............................................................................................................................................................................................................................................................................................................................................................................................................................................................................................................",
"...............................................................................................................................................................................................................................................................................................................................................................................................................................................................................................................",
"......................................................^>..................................................=....................................................^>..................................................>$=....................................................,$*......................................................>$..........................]...........................................................................];...................................................^*^............",
".....................................................*{(................................................^')=..................................................]{!.................................................;:<...................................................^-[<,.....................................................=)<.........................,)+........................................................................^-}!..................................................])|.............",
"...................................................^%|<@................................................]/1,.................................................+[<@...............................................=@1<2..................................................]{<<).....................................................=~<<.........................-:}.......................................................................,)<<^.................................................':<_.............",
"..................................................;(<<<................................................'(<<=...............................................,@<<<,..............................................*/<<<;................................................>~3<<<.....................................................,!<<<........................;(1<>.....................................................................-[<<2................................................,#1<<,.............",
"................................................>~<<<<&...............................................;:<<<=..............................................'2<<<1.............................................^$|<<<<^..............................................^+:<<<<~....................................................,~<<<<.......................*{314~...................................................................]~<<<<>...............................................'(<<<<..............",
"..............................................^+:<<<<1...............................................&[<<<<^............................................=%|<<<<'...................^=======================,*)<<<<</...........................^=================,*{<<<<<<....................................................,~<<<<<......................=~}111[.................................................................=-:<<<<4..............................................=%3<<<<{..............",
".........................,'-@########~~~~~~~~~_<<<<<<'..................,]'+-%$$$$$$$$$$$$$$->^.....&}<<<<4^................^>'+$$$$$$$$$$$$$$$$$$$$$$$$_<<<<<<.................*%!{{)))))))))))))))))))))){:<<<<<<].......................,&#!{{)))))))))))))))){|<<<<<<%.....................,;%~!!!!!!!!!!!!!!!!!!#+,^....>)<<<<<<...................@@-#:3111|>....................................^]+$~~~~~~~~~~~~~~~~~~~~~~~~_<<<<<<#..................='-@~~~~~~~~~~~~~~~~~~~~~~~~(<<<<<<'..............",
"......................^'!:|}2/{{{{{{{/(_/{{{{{|<<<<<4.................;)2[[(__/{{{{{{{{{{{{)~-]=..^-}<<<<<3^...............;_}}2_{{{{{{{{{{{{{{{{{{{{{{_<<<<<<{................%1<4:/!!!!!!!!!!!!!!!!!!!!!!)[<<<<<<.......................$[<<12{!!!!!!!!!!!!!!!~!|<<<<<<.....................+[41:({))))))))))))))))~%*,^..,!<<<<<<<..................-_!@/<41114-...................................*/31}(/{{{{{{{{{{{{{{{{{{{{{/|<<<<<<..................+[13:(/{{{{{{{{{{{{{{{{{{{{{/|<<<<<4...............",
".....................*/4<<<|(!~~~~~~~!))~~~~~$)<<<<<&................]3<<12{){)~~~~~~~~~~~~~$;>^..;|<<<<<<3...............>3<<12)~~~~~~~~~~~~~~~~~~~~~~!2<<<<<'................2<<4:/!~~~~~~~~~~~~~~~~~~~~~~)|<<<<!......................><<<<1[{~~~~~~~~~~~~~~~~$)<<<<<-.....................:<<4:/!~~~~~~~~~~~~~~~~$&]=...~<<<<<<<<.................@2/@&;(<1114[...................................(<<<}/!~~~~~~~~~~~~~~~~~~~~~~{4<<<<)..................|<<4[{~~~~~~~~~~~~~~~~~~~~~~~{4<<<<#...............",
"....................^[<<<<<12)~~~~~~~~))!~~~#%-3<<<1.................%<<<4[{!{)~~~~~~~~~~~~#%*=...]<<<<<<<|...............-<<<4[{~~~~~~~~~~~~~~~~~~~~~~~!}<<<4................,<<<<3_!~~~~~~~~~~~~~~~~~~~~~~~{<<<<=......................]<<<<<:{~~~~~~~~~~~~~~~#--4<<<1.....................><<<<}_!~~~~~~~~~~~~~~~~%'=....)<<<<<<<<................%43_@'=*[4111<=.................................^4<<<3_!~~~~~~~~~~~~~~~~~~~~~~#_<<<<..................]<<<<}/!~~~~~~~~~~~~~~~~~~~~~~~_<<<<................",
".....................3<<<<<<:)~~~~~~~~){!~~~#&*(<<<]................._<<<<|/!))~~~~~~~~~~~~#+>....=<<<<<<<:.............../<<<<|/~~~~~~~~~~~~~~~~~~~~~~~~!<<<!................+<<<<<(!~~~~~~~~~~~~~~~~~~~~~~~@_<<|.......................]<<<<<1_~~~~~~~~~~~~~~~#&*:<<<;.....................%<<<<12!~~~~~~~~~~~~~~~#-].....{<<<<<<<<...............><<<($>..-3111<#.................................;<<<<<2)~~~~~~~~~~~~~~~~~~~~~~$$1<<}..................@<<<<1_!~~~~~~~~~~~~~~~~~~~~~~~#:<<4................",
".....................|<<<<<<4_!~~~~~~!)/)!!!#].!<<}.................^1<<<<<(!))!~~~~~~~~~~~@'.....]<<<<<<<:...............3<<<<<2!~~~~~~~~~~~~~~~~~~~~~~#-/<<.................!<<<<<|/!!!!!!!!!!!!!!!!!!!!!!~--<<$.......................,<<<<<<}{!!!!!!!!!!!!!!@>./<<|......................(<<<<<|)~~~~~~~~~~~~~~~#;^.....:<<<<<<<<.............../<<<}%....}1111}.................................!<<<<<3/~~~~~~~~~~~~~~~~~~~~~~-*_<<&..................(<<<<<})~~~~~~~~~~~~~~~~~~~~~~~-#<<%................",
".....................1<<<<<<<:!#~#@@@$@~@$$%;..~<<&.................,<<<<<<3)){!~~~~~~~~~~~-^.....-<<<<<<<:...............<<<<<<3)~~~~~~~~~~~~~~~~~~~~~~$]+<<................./<<<<<<-+&&&&&&&&&&&&&&&&&&&&&&>,|<,........................<<<<<<[-&&&&&&&&&&&&&&'.._<<=......................4<<<<<</~~~~~~~~~~~~~~~%=.....]<<<<<<<<<..............^3<<<<+....{31113]................................_<<<<<<_~~~~~~~~~~~~~~~~~~~~~@*.~<<..................^[<<<<<</~~~~~~~~~~~~~~~~~~~~~~@]*<<,................",
".....................4<<<<<<<;.................(<3..................,<<<<<<(,>>,,,,=======^.......(<<<<<<<&...............<<<<<<$^^^^^^^^^^^^^^^^^^^^^^^..]<@................./<<<<<<.........................^31.........................}<<<<<}..................|<_.......................<<<<<<<===============^.......!<<<<<<<4]..............,<<<<<]....>11111$................................(<<<<<<]........................!<$..................^[<<<<<3.........................,<[.................",
".....................4<<<<<<<*.................<<,..................,<<<<<<!.....................'<<<<<<<%................<<<<<<&.........................;<,................./<<<<<<.........................,<%.........................)413|}3;................^<<,.......................<<<<<<3......................=1<<<<<<<,...............%<<<<|......:11112................................_<<<<<<,........................2<...................^[<<<<<}.........................*<+.................",
".....................1<<<<<<<'................><[...................,<<<<<<!....................^2<<<<<<).................<<<<<<&.........................@2................../<<<<<<.........................'<..........................;|}}}}}/................'<2........................<<<<<<3......................!<<<<<<<]................[<<<<_......~1111<=..............................._<<<<<<,........................4_...................^[<<<<<}.........................+<..................",
".....................1<<<<<<<'................%<'...................><<<<<<!....................(<<<<<<(..................<<<<<<&........................./-................../<<<<<<.........................$!...........................{}}}}}}]...............#<.........................<<<<<<3...................../<<<<<<<,.................<<<<<$......;3111<#..............................._<<<<<<,.......................><]...................^[<<<<<}.........................!~..................",
".....................1<<<<<<<;................/|....................'<<<<<<!...................)<<<<<<|...................<<<<<<&........................=2.................../<<<<<<.........................!*...........................+:}}|||)...............:~.........................<<<<<<3....................~<<<<<<<].................;<<<<<*......>21114|..............................._<<<<<<,.......................-(....................^[<<<<<}........................./=..................",
".....................1<<<<<<<;...............=:=....................&<<<<<<!..................~<<<<<<3=...................<<<<<<&........................&#.................../<<<<<<........................=/.............................:}||}}3>.............>[..........................<<<<<<3...................)<<<<<<<*..................!<<<<<........_11114*.............................._<<<<<<,.......................!;....................^[<<<<<}........................=~...................",
".....................1<<<<<<<;...............;@.....................&<<<<<<!.................~<<<<<<<^....................<<<<<<&......................../>.................../<<<<<<........................&!.............................#|}}}}|/.............+-..........................4<<<<<3..................{<<<<<<<>...................[<<<<<........@|1111).............................._<<<<<<,......................>).....................^[<<<<<}........................*$...................",
".....................3<<<<<<<+...............$,.....................&<<<<<<!................%<<<<<<<'.....................<<<<<<&........................{..................../<<<<<<........................#,.............................=:}}}}}},............#...........................4<<<<<3................._<<<<<<<]...................=1<<<<}.........31111[^............................._<<<<<<=......................-*.....................^[<<<<<}........................-;...................",
".....................|<<<<<<<+...............$......................&<<<<<<!...............&<<<<<<<-......................<<<<<<&........................'..................../<<<<<<........................*...............................#:}}}||@............;...........................1<<<<<3................_<<<<<<<'....................*<<<<<!.........211114>............................._<<<<<<=......................;......................^[<<<<<}........................+....................",
".....................|<<<<<<<-......................................&<<<<<<!..............]<<<<<<<~.......................<<<<<<&............................................./<<<<<<........................................................]2||||}|^.......................................1<<<<<3..............._<<<<<<<].....................#<<<<<'.........%1111<@............................._<<<<<<=.............................................^[<<<<<}.............................................",
".....................|<<<<<<<%......................................&<<<<<<!.............]3<<<<<<_........................<<<<<<&............................................./<<<<<<........................................................._}|}}}|#.......................................1<<<<<3.............._<<<<<<<'......................}<<<<<..........>31114}............................._<<<<<<=.............................................^[<<<<<}.............................................",
".....................3<<<<<<<%......................................&<<<<<<!............=3<<<<<<}.........................<<<<<<&............................................./<<<<<<.........................................................>}}}}}}}=......................................1<<<<<3............./<<<<<<<]......................=<<<<<<..........^(1111<>............................_<<<<<<=.............................................^[<<<<<}.............................................",
".....................3<<<<<<<$......................................&<<<<<<!...........=:<<<<<<<..........................<<<<<<&............................................./<<<<<<..........................................................)}}}}}|!......................................1<<<<<3............/<<<<<<<'.......................%<<<<<2...........)31114{............................_<<<<<<=.............................................^[<<<<<}.............................................",
".....................3<<<<<<<@......................................&<<<<<<!...........:<<<<<<<>..........................<<<<<<&............................................./<<<<<<..........................................................;[}}|||:^.....................................1<<<<<3.........../<<<<<<<'........................_<<<<<~...........-|1111}............................_<<<<<<^.............................................^[<<<<<}.............................................",
".....................3<<<<<<<@......................................&<<<<<<!.........^2<<<<<<<>...........................<<<<<<&............................................./<<<<<<..........................................................^(}||}}|-.....................................1<<<<<3.........._<<<<<<<;.........................3<<<<<+............|11111*...........................(<<<<<<^.............................................^[<<<<<}.............................................",
".....................3<<<<<<<#......................................&<<<<<<!.........{<<<<<<<&............................<<<<<<&.............................................{<<<<<<...........................................................#}}}}}}:.....................................4<<<<<3........._<<<<<<<'.........................><<<<<<>............!11114$...........................(<<<<<<^.............................................^[<<<<<:.............................................",
".....................|<<<<<<<$......................................&<<<<<<@........~<<<<<<<#.............................<<<<<<&.............................................{<<<<<[..............,.............................................[}}}}}|$....................................1<<<<<[.......^(<<<<<<<'..........................*<<<<<4.............*31114[...........................(<<<<<<^.............................................^2<<<<<_..............^..............................",
".....................}<<<<<<:+^..........^**........................'<<<<<|&.......#<<<<<<<)..............................<<<<4[-^...........^*#^.............................@<<<32+=............,{,............................................%}}}}||[^...................................:<<<<|@.......(<<<<<<<;...........................;<<<<|#^............=}1111<^..........................(<<<<<<^.............................................._<<<12%=............,~>.............................",
"...................../<<<4|($,...........>)@........................=3<43[~=......&<<<<<<<}...............................241}($>............>!}^.............................'}|:/@>............^#<>............................................,2}|||}|&...................................~44|[~].....^(<<<<<<<'............................;31|2#>.............^211114!..........................(<<<<<<...............................................#13:_$>............^$4*.............................",
".....................-13}[/@*...........>/<~.........................{}[_~;......><<<<<<<|................................$:2{@'^...........,{<4^..............................{({@;=...........=#<<>.............................................)}|}}}}(...................................][[_!&=.....(<<<<<<<'.............................*2[/#&^.............^2311113..........................(<<<<<<...............................................*[2{#;^...........^$4<*.............................",
".....................>[[({#+>..........>/<<!.........................-_{~-]......_<<<<<<<^................................]{)#+>...........>{<<<^..............................-)#+]^..........=~<<<>.............................................*}}}}}}3'...................................!/~%*^...=(<<<<<<<'..............................*2(!-]..............>}111113'.........................(<<<<<4................................................!)#+]...........,#1<<*.............................",
"......................{2_{@+]^........;(<<<!.........................'22/#&]....&<<<<<<<'.................................^!_)$;],,,,,,,,,;(<<<<^..............................;[2/#-+++++++++-_<<<<>.............................................._}}}}}|[...................................;#$&>...>[<<<<<<<;...............................#<4[~&],,>]]]]>,^^^.-1<11111#.........................(<<<<<4................................................@(/~-']]]]]]]]]'/<<<<*.............................",
"......................:<<<1:{~#######~|<<<<!.........................+<<<4[/'^..[<<<<<<%..................................=:<<1(_/////////:<<<<<^..............................%<<<3({))))))))(<<<<<>..............................................*}}}|||};..................................^++'>,*~4<<<<<<<&...............................*|<1}2///((((((_)$%&**{<111112.........................(<<<<<4................................................_<<<}((((((((((2<<<<<*.............................",
"......................3<<<<4:/{{{{{{{/3<<<<!.........................~<<<4[~+]..#<<<<<4@..................................*<<<1[{!~~~~~~~!(<<<<<^.............................._<<<|/!~~~~~~~~!2<<<<>..............................................._}||}}})...................................]$@~_4<<<<<<<<&................................:<4}_)!!!{)~~~~~~~@+]=>2411114^........................(<<<<<4................................................3<<<}/!~~~~~~~~)|<<<<*.............................",
".....................,<<<<<4[)~~~~~~~~)}<<<!.........................|<<<<:~;=..,:13|:[[>.................................~<<<4[)~~~~~~~~~!(<<<<^.............................=<<<<1_!~~~~~~~~~~(<<<>...............................................$:}}}}}|>..................................+1<<<<<<<<<<<*................................~<<<1(!~~!{)~~~~~~~$;=..*11111<~........................(<<<<<4...............................................'<<<<|/!~~~~~~~~~)}<<<*.............................",
".....................&<<<<<<}{~~~~~~~~~!|<<!........................,<<<<<3~>....)}}:[[}~.................................:<<<<|{~~~~~~~~~~~(<<<^.............................&<<<<<2!~~~~~~~~~~!(<<>...............................................^2}}}}}|(..................................~<<<<<<<<<<<;................................,<<<<<[)~~~))~~~~~~~%]....(111111........................(<<<<<4...............................................~<<<<4(!~~~~~~~~~~!:<<*.............................",
".....................!<<<<<<<(!~~~~~~~~~)3<)........................&<<<<<<!.....]}[[:::}=................................<<<<<<2!!!!!!!!!!!!2<<=.............................~<<<<<4_!!!!!!!!!!!![<>................................................$:}}}||3*................................=}<<<<<<<<<<;.................................-<<<<<1/!!!{{)!!!!!~+^....+311114'.......................(<<<<<4...............................................2<<<<<3/!!!!!!!!!!!{|<'.............................",
".....................(<<<<<<<}~##########![@........................$<<<<<<$......~::::[:)................................<<<<<<(%-----------%~{..............................)<<<<<<**]]]]]]]]]]]*&..................................................}}|||}})................................%<<<<<<<<<<&..................................[<<<<<<~%-%$$-----+&>.....>[11111!.......................(<<<<<4..............................................^[<<<<<<%++++++++++++-!,.............................",
".....................2<<<<<<<@......................................$<<<<<<;......^2:[[:::*..............................=<<<<<<'.............................................{<<<<<3.................................................................@}|}}}}:=...............................(<<<<<<<<<;...................................<<<<<<<....................(11111:^......................(<<<<<4..............................................^[<<<<<}.............................................",
".....................2<<<<<<<%......................................$<<<<<<;.......$2:::::{..............................,<<<<<<*.............................................)<<<<<|.................................................................>2}}}}}|!..............................^<<<<<<<<<;...................................$<<<<<<_....................#31111<'......................(<<<<<1..............................................^2<<<<<:.............................................",
".....................2<<<<<<<%......................................$<<<<<<;.......^::::[[|].............................,<<<<<<*.............................................)<<<<<|..................................................................{:}}}}|1=.............................]<<<<<<<<+....................................[<<<<<<&....................]311114{......................(<<<<<1...............................................[<<<<<:.............................................",
".....................2<<<<<<<%......................................$<<<<<<;........-}:[[:}_.............................,<<<<<<*.............................................)<<<<<|..................................................................*}}}||||~.............................$<<<<<<<+....................................,3<<<<<<>.....................|111114......................(<<<<<1...............................................[<<<<<:.............................................",
".....................2<<<<<<<%......................................$<<<<<<;........._::::[:+............................,<<<<<<*.............................................)<<<<<|...................................................................(}||}}}:>............................~<<<<<<#.....................................;<<<<<<1......................$11111<*.....................(<<<<<1...............................................[<<<<<:.............................................",
".....................2<<<<<<<%......................................$<<<<<<;.........&[::[[:(............................,<<<<<<*.............................................)<<<<<|...................................................................'}}}}}}|#............................~<<<<<<-.....................................!<<<<<<(......................,|11114).....................(<<<<<1...............................................[<<<<<:.............................................",
".....................2<<<<<<<-......................................$<<<<<<;..........([[:::};...........................,<<<<<<*.............................................)<<<<<|..................................................................../}}}}}}3............................~<<<<<<-.....................................3<<<<<<'......................^(11111}^....................(<<<<<1...............................................[<<<<<:.............................................",
".....................2<<<<<<<+......................................$<<<<<<;..........'}:::[:[...........................,<<<<<<*.............................................)<<<<<|....................................................................$[}}|||3$...........................~<<<<<<-....................................^<<<<<<<........................!111111;....................(<<<<<1...............................................[<<<<<:.............................................",
".....................2<<<<<<<+......................................$<<<<<<;...........)::[::|$..........................,<<<<<<*.............................................)<<<<<|....................................................................^:}|||}}:^..........................~<<<<<<-....................................)<<<<<<:........................+}41114)....................(<<<<<1...............................................[<<<<<:.............................................",
".....................2<<<<<<<+......................................$<<<<<<;...........>2:::::2=.........................,<<<<<<*........................=....................)<<<<<|........................,,.......................,...................#|}}}}}}$..........................~<<<<<<-....................................3<<<<<<+........................^|111113....................(<<<<<1...............................................[<<<<<:.........................=...................",
".....................2<<<<<<<+......................................$<<<<<<;............#:}:[[:@.........................,<<<<<<*........................#....................)<<<<<|........................=)......................=-...................^[}}}}}}[..........................~<<<<<<-...................................]<<<<<<<^.........................(31111<]...................2<<<<<1...............................................[<<<<<:.........................+...................",
".....................2<<<<<<<+......................................$<<<<<<;............^}[[:::|,........................,<<<<<<*........................{]...................)<<<<<|.........................[......................&&....................#:}}}}|1+.........................~<<<<<<-...................................%<<<<<<4..........................*111114)...................[<<<<<4.......................,.......................[<<<<<:.........................#...................",
".....................:<<<<<<<+......................................$<<<<<<;.............@::::[:{........................,<<<<<<*........................+$...................)<<<<<|.........................!=.....................+*....................'2}|||||:.........................~<<<<<<-..................................._<<<<<<(...........................:11111|..................^:<<<<<1.......................-=......................[<<<<<:.........................@...................",
".....................|<<<<<<<&......................................$<<<<<<;.............^(::[[::].......................,<<<<<<*........................=!...................)<<<<<|.........................+'.....................-;.....................2}||}}}|-........................~<<<<<<-...................................4<<<<<<-...........................)111113&.................^:<<<<<3.......................>+......................[<<<<<:.........................$^..................",
".....................|<<<<<<<;......................................$<<<<<<;..............-[:::::).......................,<<<<<<*.........................@]..................)<<<<<|.........................]!.....................~&.....................*|}}}}}}(........................~<<<<<<-..................................;<<<<<<<............................-|11111).................^:<<<<<3........................->.....................[<<<<<:.........................&%..................",
".....................:<<<<<<<;......................................$<<<<<<;...............2::::[|*......................,<<<<<<*.........................;$..................)<<<<<|.........................^2^....................(+....................../:}}}}|3*.......................~<<<<<<-..................................:<<<<<<|............................][11111}.................^:<<<<<3........................]@.....................[<<<<<:.........................]2..................",
".....................2<<<<<<<;......................................$<<<<<<;...............&|:[[:}2......................,<<<<<<*.........................>_..................)<<<<<|..........................{@...................^1+......................'[}|||||(.......................~<<<<<<-.................................^<<<<<<<%.............................231111<]................^:<<<<<3........................./>....................[<<<<<:.........................=2*.................",
".....................2<<<<<<<;......................................$<<<<<<;................_::::::'.....................,<<<<<<*.........................^|].................)<<<<<}..........................#[...................]<+......................^/|||}}}3*......................~<<<<<<-.................................+<<<<<<<..............................@31111<!................^:<<<<<|.........................!!....................[<<<<<[........................../~.................",
".....................2<<<<<<<&......................................$<<<<<<;................'[:::[:_.....................=<<<<<<'..........................:~.................!<<<<</^.........................-|,..................*2&.......................@}}}}}}}_......................~<<<<<<-.................................{<<<<<<4...............................3111113................^[<<<<</.........................-|^...................[<<<<<{^.........................~[.................",
".....................2<<<<<<<;......................................$<<<<<<;................._[[:::|+.....................4<<4}!]..........................[3.................$4<4}_&^.........................-|-..................^+>.......................&:}}}}}}}*.....................~<<<<<<-................................=3<<<<<<#..............................._111114;................/<<4|_;^.....^..................;:~.................../<<43_+^.........................#1*................",
".....................2<<<<<<<'......................................$<<<<<<;.................*}:::::[....................._3}2!;^.........................]:<,................]:|[{%,..........................!3/...................=........................][}}}}|||/.....................~<<<<<<-................................'<<<<<<<'...............................$311111{................$3|[{-=.........................&[[=..................-3|[/%,.........................^{4!................",
".....................2<<<<<<<'......................................$<<<<<<;..................~}:[[:|%....................-2/~-]..........................@34~.................!()$;^.........................&21<^...........................................&}|}|||}}3*....................~<<<<<<-................................{<<<<<<<^...............................*:11111}=...............](()$'^.........................#[|@..................=(()@'^.........................&:41................",
".....................2<<<<<<<'......................................$<<<<<<;..................,([::::(=...................>)~$;,.........................;211[.................%{#+]^........................>{31<%...........................................#4<3|}}}}}_....................~<<<<<<-................................4<<<<<<1.................................(111114*................#)@&].........................*/}||...................@)@+]^........................]/14<,...............",
".....................{<<<<<<<'......................................%<<<<<<;...................#::::[:@...................,{{$'=........................]{3111*................$2{%*^.......................,#|114:........................................=*%~(3<4|}}}}}]...................@<<<<<<-...............................=<<<<<<<~.................................$44111<~................#(~+]........................,#:||3-..................@_#&>........................=#|144~...............",
"....................>)<<<<<<<'......................................-<<<<<<;....................[|:[::}...................*/:_~%-+&+++++++++++++++++++++{31114#...............=$(2_)~#@@@@@@@@@@@@@@@@@@@@@#)141114^...................&#@@@@@@@@@@@@@@-';-@~~~~)[<<1|}||~...................@<<<<<<-...............................-<<<<<<<,.................................><<41143...............^#[[_~@$$$$$$$%%%%%%%%%%%%%%%%~}|}}}[..................#[2)$-+&++++++++++++++++++++-~|1111:...............",
"...................,$!2<<<<<<'......................................#1<<<<<;....................$<4}:::).................,$~)//{)!!))))))))))))))))))))/1<<414:..............=-~~!){{{{{{{{{{{{{{{{{{{{{{{{{(<<<411-.................^&~{{{{{{{{{{{{{{))~~~~~~~~~!/3<<3|}|,.................]~}<<<<<-..............................&~}<<<<<<..................................'[<<<11<*.............^+~!/(/{{{{{{{{{)))))))))))))){[<<3}}}%................&~){/{{)!))))))))))))))))))))/|<<4113'..............",
"..................,$~~!(<<<<<*....................................^+~{1<<<<;...................^%(4<1:::*...............>%~~~~~~~~~~~~~~~~~~~~~~~~~~~~~!{|<<<1<,............=%~~~~~~~~~~~~~~~~~~~~~~~~~~~~~~~/3<<41_................>%~~~~~~~~~~~~~~~~~~~~~~~~~~~~~!2<<4}|)................]@~!:<<<<-............................>-~~{3<<<<!.................................]$!_4<<44_.............+~~~!{!~~~~~~~~~~~~~~~~~~~~~~~~!_3<<3|2...............+#~~~~~~~~~~~~~~~~~~~~~~~~~~~~~)[<<<14~..............",
".................,%~~~~!(<<<<]....................................-#~~/4<<<;...................*@~{}<<3}!..............=$~~~~~~~~~~~~~~~~~~~~~~~~~~~~~~~~!2<<<4/...........=-~~~~~~~~~~~~~~~~~~~~~~~~~~~~~~~~~)[<<<3=..............'@~~~~~~~~~~~~~~~~~~~~~~~~~~~~~~~~{|<<3|^..............]@~~~!}<<<-...........................*@~~~~/<<<<]................................=%~~~{|<<4|=..........^+~~~~!{!~~~~~~~~~~~~~~~~~~~~~~~~~~)2<<13*.............&#~~~~~~~~~~~~~~~~~~~~~~~~~~~~~~~!(4<<4}..............",
"................=%~~~~~~!(<<<]...................................&~~~~~{4<<;..................=%~~~!_4<4|,............=%~~~~~~~~~~~~~~~~~~~~~~~~~~~~~~~~~~!_4<<3..........^-~~~~~~~~~~~~~~~~~~~~~~~~~~~~~~~~~~~~_<<<+............=+#~~~~~~~~~~~~~~~~~~~~~~~~~~~~~~~~~~!(4<<#.............>$~~~~~)}<<-.........................^&#~~~~~~(<<<=................................+#~~~~![<<<'..........&#~~~~!{)~~~~~~~~~~~~~~~~~~~~~~~~~~~~_3<<2............;#~~~~~~~~~~~~~~~~~~~~~~~~~~~~~~~~~~{|<<<^.............",
"...............,%~~~~~~~~!2<<]..................................+#~~~~~~{4<;..................&#~~~~~)[<<}...........,%~~~~~~~~~~~~~~~~~~~~~~~~~~~~~~~~~~~~~)|<<;........=-~!!!!!!!!!!!!!!!!!!!!!!!!!!!!!!!!!~~~!/|<}...........'@~!!!!!!!!!!!!!!!!!!!!!!!!!!!!!!!!!!!~!{|<<,...........]@~!!!!!!)3<%........................]$~~~~~~~~!:<|................................'#~~~~~~!_4</........^+~~~~~~!{{!!!!!!!!!!!!!!!!!!!!!!!!!!!~!):<<+..........;#~~~~~~~~~~~~~~~~~~~~~~~~~~~~~~~~~~~~)2<<#.............",
"..............>$~!~~~~~~~~![<]................................=;#~~~~~~~~{4'.................*@~~~~~~~!/|<&.........>$~!~~~~~~~~~~~~~~~~~~~~~~~~~~~~~~~~~~~~~)2<~.......,;$@@@@@@@@@@@@@@@@@@@@@@@@@@@@@@@@@@@@@$$#/}.........,*%$$$$$$$$$$$$$$$$$$$$$$$$$$$$$$$$$$$$$$$$@![;..........>-@@@$$$$$$#2;......................,'@~~~~~~~~#~)}#...............................]$#~~~~~~#~)}1.......='$@@@@@@@~~@@@@@@@@@@@@@@@@@@@@@@@@$$$$$$$~(!........=;#~~~~~~~~~~~~~~~~~~~~~~~~~~~~~~~~~~~~~~~_3}.............",
"..............=>>>>>>>>>>>>>*...................................^^^^^^^^^.^..................=>>>>>>>>>>>*>.........=>>>>>>>>>>>>>>>>>>>>>>>>>>>>>>>>>>>>>>>>>>]>.....................................................................................................................................................................................................................................................................................^=^^^^^^^^^^^^^^^^^^^^^^^^^^^^^^^^^^^^^^^^=,.............",
"...............................................................................................................................................................................................................................................................................................................................................................................................................................................................................................................",
"...............................................................................................................................................................................................................................................................................................................................................................................................................................................................................................................",
"...............................................................................................................................................................................................................................................................................................................................................................................................................................................................................................................",
"...............................................................................................................................................................................................................................................................................................................................................................................................................................................................................................................",
"...............................................................................................................................................................................................................................................................................................................................................................................................................................................................................................................",
"...............................................................................................................................................................................................................................................................................................................................................................................................................................................................................................................",
".................................=.............,....................................................................................................................................................................................................^.....................................................^.............=......................................................................................................................................................................................",
"................................./$$$$$$$$$$$$#%..................&@$@;......,$$$%^...................;$$$$$$$$$$$$~>..............................................*-@~!!#$&]^.....................]$$$$$$$$$$%-'.....................]$$$$$$$$$$$$#;........................+@$$@=.......................#$$$$$$$$$$$$#$........................................]$$$$,....&$$$$+....]@$$$>.......................%$$$%.........................'@$$$$$$$$$%+]......;$'>#=,~...................................",
".................................[22222(((2222[%..................>2(:,.......{22@....................]2((2222222222>............................................*)(2[(((2[2(_]....................^(((2222222[2(!^....................(((2222222222;........................%22(2........................)22222(((22222#.........................................$2(2.....+(((2%....,[(2-........................)2(2).........................^:((222222[[2($......2.^(##2...................................",
".................................@]]]]%(_(]]]]&+..................,(_2^.......!(($....................>(_(+]]]]]]]]+,...........................................+((2!-*,>*-!2~.....................^__(@>]]]]'%_(2%....................__($>]]]]]]];'........................(((_(-.......................-]]]]-(__;]]]'+.........................................._((%....!_(((_....@(_/........................>2((_(*.........................2_(;]]]]];@((('.....!..-&]@...................................",
"......................................'(_(........................,(_2^.......!(($....................>(_(]....................................................](((-........;......................^__(+.......)_(!....................__(&.................................~(2$(__,...........................'(__,...............................................'2__=..&2_/__2-..,/_2;.......................^{(_~(_{^........................2_2,.......2_(-...............................................",
"......................................'(_(........................,(_(@$$$$$$$/_($....................>(_(#----+)............................................../(_~....=...........................^__(~;;;;;&@_([&....................__(~----+~=.........................&((!.#((/...........................'(__,................................................{_(%..(((;%(__^.%(()........................$((%^/_(~........................2_(%&;;;;&~(((]...............................................",
"......................................'(_(........................,(__22222222(_($....................>(__2[[[[[2..............................................2__%....*!#~~##~*...................^___2[[[2(2(({-.....................___2[[[[[:,........................^_({=.=/_(@..........................'(__,................................................&(_(^-((/..(_(%=2__].......................>2(!..]__2&.......................2__[[[[2(2(_);................................................",
"......................................'(_(........................,(_2&'''''''{_($....................>(_(%;;;;;~..............................................((_@....*)!!!_([....................^__(!%%%_(_/'.......................__(@;;;;;#,........................~((#]*]$(_(*.........................'(__,.................................................{(({{_(>..-(_/)((!......................../((-]*>)(__,......................2_(@%%%((({,..................................................",
"......................................'(_(........................,(_2^.......!(($....................>(_(]....................................................+2__]...=....~_2....................^__(+...*_(_$.......................__(&..............................&(((_(((_(((_^........................'(__,.................................................*2_(((~...^/_((_2,.......................$(((_(((_(((!......................2_2,...&((_&..................................................",
"......................................'(_(........................,(_2^.......!(($....................>(_(;^^^^^^^^,*...........................................~((_$>....=;{(2=...................^__(-....]__2~......................__(-^^^^^^^^^;...................^__/*]]]]]]/_(!........................'(__,..................................................#(___]....+(__($.......................*(_)]]]]]]'__2@.....................2_2,....&2((+.................................................",
"......................................;2(2........................,2([^.......)(2$....................>2(((________(%...........................................^@(22(/)){_22(/&...................^((2-.....'2(2#.....................((((_________!...................~2(+.......>[(2%.......................'2(_>..................................................]((({......((((,......................=((2*.......-2(2*....................[(2,.....-((2-................................................",
"......................................$!!!*.......................+!!!&......,~!!@^...................&!!!!!!!!!!!!)%.............................................]%~{___/!@+].....................]~!!$.....^)!!)%^..................]~!!!!!!!!!!!!!..................;)!!+.......>)!!!'......................-!!~;..................................................;~!!#^....=~!!~'......................$!!!*.......;!!!#]..................;)!!+.....]~!!!+...............................................",
"....................................................................................................................,..................................................=............................................................................]..........................................................................................................................................................................................................................................................",
"...............................................................................................................................................................................................................................................................................................................................................................................................................................................................................................................",
"...............................................................................................................................................................................................................................................................................................................................................................................................................................................................................................................",
"...............................................................................................................................................................................................................................................................................................................................................................................................................................................................................................................",
"...............................................................................................................................................................................................................................................................................................................................................................................................................................................................................................................",
"...............................................................................................................................................................................................................................................................................................................................................................................................................................................................................................................",
"...............................................................................................................................................................................................................................................................................................................................................................................................................................................................................................................",
"...............................................................................................................................................................................................................................................................................................................................................................................................................................................................................................................",
"...............................................................................................................................................................................................................................................................................................................................................................................................................................................................................................................",
"...............................................................................................................................................................................................................................................................................................................................................................................................................................................................................................................",
"...............................................................................................................................................................................................................................................................................................................................................................................................................................................................................................................",
"...............................................................................................................................................................................................................................................................................................................................................................................................................................................................................................................",
"...............................................................................................................................................................................................................................................................................................................................................................................................................................................................................................................",
"...............................................................................................................................................................................................................................................................................................................................................................................................................................................................................................................",
"...............................................................................................................................................................................................................................................................................................................................................................................................................................................................................................................",
"...............................................................................................................................................................................................................................................................................................................................................................................................................................................................................................................",
"...............................................................................................................................................................................................................................................................................................................................................................................................................................................................................................................",
"...............................................................................................................................................................................................................................................................................................................................................................................................................................................................................................................",
"...............................................................................................................................................................................................................................................................................................................................................................................................................................................................................................................",
"...............................................................................................................................................................................................................................................................................................................................................................................................................................................................................................................",
"...............................................................................................................................................................................................................................................................................................................................................................................................................................................................................................................",
"...............................................................................................................................................................................................................................................................................................................................................................................................................................................................................................................",
"...............................................................................................................................................................................................................................................................................................................................................................................................................................................................................................................",
"...............................................................................................................................................................................................................................................................................................................................................................................................................................................................................................................",
"...............................................................................................................................................................................................................................................................................................................................................................................................................................................................................................................",
"...............................................................................................................................................................................................................................................................................................................................................................................................................................................................................................................",
"...............................................................................................................................................................................................................................................................................................................................................................................................................................................................................................................",
"...............................................................................................................................................................................................................................................................................................................................................................................................................................................................................................................",
"...............................................................................................................................................................................................................................................................................................................................................................................................................................................................................................................",
"...............................................................................................................................................................................................................................................................................................................................................................................................................................................................................................................",
"...............................................................................................................................................................................................................................................................................................................................................................................................................................................................................................................",
"...............................................................................................................................................................................................................................................................................................................................................................................................................................................................................................................",
"..............................................................................................................................................................................................................................................................................................................................................................................................................................................................................................................."};
