/* XPM */
static const char * fs2_btn_quit_click_xpm[] = {
"131 58 256 2",
"  	c #CCCFD3",
". 	c #9EB2C3",
"+ 	c #C9DEEC",
"@ 	c #D2F6FC",
"# 	c #DAFEFF",
"$ 	c #DFFDFE",
"% 	c #E3FFFF",
"& 	c #E6FFFF",
"* 	c #EFFFFF",
"= 	c #BDDFDA",
"- 	c #E7F9F6",
"; 	c #B5D0C9",
"> 	c #F4FCF9",
", 	c #010E08",
"' 	c #98C3AF",
") 	c #081F13",
"! 	c #5BA47E",
"~ 	c #568C6F",
"{ 	c #5C9476",
"] 	c #729A84",
"^ 	c #2F3833",
"/ 	c #4B8162",
"( 	c #EAF1ED",
"_ 	c #53986E",
": 	c #7AC498",
"< 	c #75AB8B",
"[ 	c #8FA698",
"} 	c #B2BAB5",
"| 	c #000B04",
"1 	c #020D06",
"2 	c #071E0F",
"3 	c #5B7A66",
"4 	c #000903",
"5 	c #000602",
"6 	c #142018",
"7 	c #6A9378",
"8 	c #F0F6F2",
"9 	c #071A0D",
"0 	c #509364",
"a 	c #578766",
"b 	c #334A3A",
"c 	c #092110",
"d 	c #081D0E",
"e 	c #223728",
"f 	c #4B7758",
"g 	c #618B6D",
"h 	c #72A380",
"i 	c #6B8B74",
"j 	c #1F2621",
"k 	c #081F0E",
"l 	c #0A2411",
"m 	c #345A3E",
"n 	c #416C4C",
"o 	c #020A04",
"p 	c #010502",
"q 	c #061B0B",
"r 	c #051509",
"s 	c #041107",
"t 	c #071D0C",
"u 	c #081E0D",
"v 	c #537B5D",
"w 	c #425B48",
"x 	c #62856A",
"y 	c #536D59",
"z 	c #071E0C",
"A 	c #06190A",
"B 	c #36553D",
"C 	c #3C5D43",
"D 	c #44644B",
"E 	c #4B6C52",
"F 	c #55765C",
"G 	c #081D0C",
"H 	c #040E06",
"I 	c #020703",
"J 	c #305437",
"K 	c #56835F",
"L 	c #2F4533",
"M 	c #000601",
"N 	c #0A1E0D",
"O 	c #0B1F0E",
"P 	c #345138",
"Q 	c #000801",
"R 	c #0A1B0C",
"S 	c #1F3121",
"T 	c #273829",
"U 	c #728D75",
"V 	c #6A826D",
"W 	c #384139",
"X 	c #68966D",
"Y 	c #759778",
"Z 	c #4C714F",
"` 	c #527B54",
" .	c #648965",
"..	c #6A8C6B",
"+.	c #628163",
"@.	c #000400",
"#.	c #000200",
"$.	c #010301",
"%.	c #0F190F",
"&.	c #476747",
"*.	c #4B6A4B",
"=.	c #131A13",
"-.	c #547254",
";.	c #425742",
">.	c #3D5A3C",
",.	c #4B644A",
"'.	c #456143",
").	c #3C543A",
"!.	c #5F7A5D",
"~.	c #5C755A",
"{.	c #40573E",
"].	c #384B36",
"^.	c #2B342A",
"/.	c #354B32",
"(.	c #384F35",
"_.	c #2C3B2A",
":.	c #455C42",
"<.	c #3D4E3B",
"[.	c #556C51",
"}.	c #536650",
"|.	c #677964",
"1.	c #10150F",
"2.	c #6D8A67",
"3.	c #5B6F57",
"4.	c #4C5D49",
"5.	c #516A4B",
"6.	c #65895B",
"7.	c #5C7A54",
"8.	c #344430",
"9.	c #313D2E",
"0.	c #3D5336",
"a.	c #253221",
"b.	c #56724E",
"c.	c #43503F",
"d.	c #4C6145",
"e.	c #5B7353",
"f.	c #42533C",
"g.	c #354B2D",
"h.	c #394E31",
"i.	c #455B3D",
"j.	c #2F4127",
"k.	c #415638",
"l.	c #384931",
"m.	c #020401",
"n.	c #030502",
"o.	c #050704",
"p.	c #0D110B",
"q.	c #181E15",
"r.	c #45563D",
"s.	c #53634B",
"t.	c #759465",
"u.	c #6C7F62",
"v.	c #2C3B23",
"w.	c #0F140C",
"x.	c #3E4E35",
"y.	c #415038",
"z.	c #4B5B42",
"A.	c #516246",
"B.	c #596A4E",
"C.	c #5D6C53",
"D.	c #1C1F1A",
"E.	c #4F693D",
"F.	c #1C2416",
"G.	c #35442A",
"H.	c #46563A",
"I.	c #3F4B36",
"J.	c #272B24",
"K.	c #3A4A2D",
"L.	c #232C1C",
"M.	c #4A5A3D",
"N.	c #597145",
"O.	c #3F4E32",
"P.	c #3C4A30",
"Q.	c #3B4433",
"R.	c #435136",
"S.	c #515D46",
"T.	c #192012",
"U.	c #344027",
"V.	c #49553C",
"W.	c #4C5642",
"X.	c #57624C",
"Y.	c #5C6652",
"Z.	c #78846C",
"`.	c #141612",
" +	c #2A341E",
".+	c #202817",
"++	c #2C3423",
"@+	c #3A452C",
"#+	c #475239",
"$+	c #687459",
"%+	c #323B25",
"&+	c #596943",
"*+	c #0C0E09",
"=+	c #161A0F",
"-+	c #404A2F",
";+	c #586147",
">+	c #384126",
",+	c #080906",
"'+	c #383E2A",
")+	c #0A0B07",
"!+	c #464C34",
"~+	c #32342C",
"{+	c #23241C",
"]+	c #060604",
"^+	c #11110D",
"/+	c #EAEAE5",
"(+	c #232116",
"_+	c #1E1C15",
":+	c #2B281E",
"<+	c #1F1C13",
"[+	c #16140E",
"}+	c #1A1812",
"|+	c #343025",
"1+	c #5E5B53",
"2+	c #E5E3DD",
"3+	c #12100B",
"4+	c #3B3934",
"5+	c #8D877A",
"6+	c #14110B",
"7+	c #18150F",
"8+	c #484642",
"9+	c #524E47",
"0+	c #211C14",
"a+	c #2A241A",
"b+	c #312A1F",
"c+	c #1A1610",
"d+	c #282219",
"e+	c #100D09",
"f+	c #1E1912",
"g+	c #362D21",
"h+	c #251F17",
"i+	c #1D1A16",
"j+	c #16120D",
"k+	c #463A2B",
"l+	c #3F3427",
"m+	c #423729",
"n+	c #715E47",
"o+	c #201A13",
"p+	c #211B14",
"q+	c #3B3024",
"r+	c #5E4D3A",
"s+	c #4C3E2F",
"t+	c #554635",
"u+	c #231D16",
"v+	c #806A51",
"w+	c #241C14",
"x+	c #66533F",
"y+	c #1C1814",
"z+	c #463D34",
"A+	c #221E1A",
"B+	c #3C352E",
"C+	c #291F16",
"D+	c #E1DAD4",
"E+	c #271B14",
"F+	c #040404",
"G+	c #000000",
"#.#.#.#.#.G+G+G+G+#.@.M 4 4 | 4 Q @.@.@.#.#.#.#.#.#.#.@.@.@.M 5 5 @.#.G+#.G+G+G+G+G+#.#.#.G+G+s l l l l l l l l l r #.G+G+#.@.M @.G+#.@.@.@.#.#.@.@.#.#.#.#.#.#.#.#.G+G+G+G+G+G+G+G+G+G+G+G+#.#.#.#.#.#.#.#.#.@.M Q @.M M Q M Q 4 M $.#.#.#.M M M @.#.#.#.@.@.M 4 4 M ",
"#.#.#.#.#.#.G+G+G+#.@.M 4 4 | 4 4 Q @.@.G+$.@.#.#.#.#.#.#.@.5 5 5 @.#.#.#.G+G+G+G+G+#.#.G+G+s l l l l l l l l l A #.G+G+G+G+#.#.G+#.G+#.#.#.#.#.@.#.#.#.#.#.#.#.#.#.G+G+G+G+G+G+G+#.#.G+G+G+#.#.#.#.#.#.#.G+G+#.@.@.@.@.@.M @.M M @.#.G+G+G+#.@.#.#.#.#.#.#.@.@.@.@.#.",
"@.#.#.#.#.#.G+G+G+@.@.M 4 | | 4 4 4 @.#.#.#.M @.@.#.@.#.#.@.5 5 M @.#.G+#.G+G+G+G+G+G+G+#.r l l l l l l l l l A #.G+G+G+G+G+G+G+G+#.#.G+#.#.#.#.@.#.#.#.#.#.#.#.#.G+#.G+G+G+G+G+G+#.#.G+G+G+#.#.#.#.@.@.#.G+G+#.@.@.@.@.#.@.M @.@.M @.#.G+G+#.#.#.#.#.#.#.#.@.@.@.@.#.",
"@.#.#.#.#.#.#.G+#.@.@.M 4 | | | 4 M @.#.G+#.#.@.M @.#.#.#.#.@.@.@.#.G+G+G+G+G+G+G+G+G+p A l l l l l l l l l 9 p #.#.#.G+G+G+G+G+G+G+G+G+#.#.#.#.@.#.#.#.#.#.#.@.@.G+G+#.G+G+G+G+G+#.#.G+G+#.#.G+#.@.M M #.G+G+#.#.@.#.#.#.G+$.@.#.@.M @.G+G+#.#.#.#.#.@.M M M @.@.#.#.",
"M @.@.@.#.#.#.#.#.@.M M 4 | | | 4 M @.#.G+G+#.#.@.@.#.#.#.#.@.@.@.#.G+G+G+G+G+G+G+G+o t l l c l l c l l l A p *+`.}+A+J.9+1+8+1+9+1+$+Z.5+5+5+Z.|.$+$+1+|.9+z+B+B+|+|+m+q+7+#.G+G+G+#.G+#.@.#.G+G+@.M M #.G+G+#.#.#.#.G+G+#.G+#.#.#.@.M @.#.#.#.#.#.@.5 4 Q M @.@.#.#.",
"4 @.M 4 @.#.G+#.#.@.M Q 4 | , | 4 Q M #.G+G+#.#.#.@.#.#.#.#.@.@.@.@.1 #.G+G+G+G+$.s c l c c c l c l l l A o.u+b+B+9+n+5+  D+2+/+( 8 8 > > > > > > - ( ( /+D+} [ 5+1+q+b+a+b+u+G+G+G+#.G+@.M @.G+G+#.@.@.#.G+G+#.#.#.G+G+G+G+G+G+#.#.@.M M #.#.#.#.@.@.5 4 5 M @.#.#.G+",
"| @.@.4 M #.G+#.#.@.5 4 | , , | 4 4 M #.G+G+G+#.@.#.#.#.#.#.#.#.$.r ) H G+G+G+I 9 c c c c c c c c c l r $.}+s+m+z+5+/+( - $ % * * * * * * * * & & % $ # # # $ % $ ( 2+5+B+a+h+G+G+#.#.G+#.@.M #.G+#.#.#.#.#.#.#.#.#.G+G+G+G+#.#.G+G+#.M M @.@.@.#.@.@.@.M M M @.#.#.G+",
"| @.M Q @.#.G+#.#.M M 4 | 1 | 4 4 M @.#.G+G+#.#.@.@.#.#.#.#.#.#.#.s ) ) o $.s k c c c c c c c c c c s #.G+e+m+l+z+[ @ @ @ $ # # # # # $ % % % $ # # # @ @ @ # # @ @ @   1+b+d+#.G+#.#.G+#.@.M #.G+G+#.#.#.#.#.#.G+G+G+G+G+G+G+G+#.G+#.@.M @.#.#.@.@.@.@.@.@.@.@.#.#.#.",
"| @.M 5 @.#.#.#.#.@.M Q 4 4 | 4 @.@.#.#.G+#.#.M M @.#.G+#.]+7+7+7+h+b+.+F.F.F.F..+F.%.%.%.%.=.%.%.^+f+d+d+0+d+b+k+9+[ = + + @ @ @ @ @ @ # @ @ @ @ @ @ # @ @ @ + + . 3 u+p+b+d+a+o+d+h+c+e+)+)+)+,+,+,+,+j+}+[+7+7+[+c+a+h+7+7+7+]+G+G+#.@.@.#.#.@.@.@.@.@.@.@.@.@.#.#.",
"5 @.M M @.@.#.#.#.@.@.@.M M M @.@.@.#.#.#.@.M 4 4 @.#.#.i+q+q+b+m+r+s+g+b+a+b+s+m+u+[+[+[+e+j+c+o+h+s+x+t+t+a+g+k+r+t+t+5+[ } }   + + + + + + + + + +   . [ |.8+:+E+c+a+b+g+m+r+t+s+r+k+p+c+7+e+e+6+j+[+u+m+s+b+a+b+b+k+r+m+b+q+q+i+#.G+#.#.#.#.@.@.#.#.@.@.@.@.M @.@.",
"@.@.@.@.@.@.@.#.#.@.@.@.#.#.@.#.#.@.@.#.#.#.@.M 5 @.e+q+s+g+g+g+k+t+r+s+q+d+m+m+a+d+u+p+0+f+p+:+q+t+x+t+r+x+g+l+t+t+|+B+B+4+B+4+8+8+8+9+9+1+9+9+8+8+4+~+~+J.{+A+y+i+f+h+w+}+q+r+x+t+t+x+t+g+d+f+c+f+o+u+d+a+m+m+d+q+s+t+t+k+g+b+g+s+q+e+#.@.@.@.@.@.#.#.@.@.@.M | M @.",
"#.#.@.#.@.@.@.#.#.@.@.#.#.#.#.#.#.@.5 @.#.#.@.@.)+l+r+m+x+q+b+m+g+d+d+:+u+j+0+c+j+7+(+_+_+[+0+0+u+:+a+w+g+b+d+d+h+a+B+|+~+B+z+9+9+1+9+1+1+Y.1+9+9+8+8+4+B+4+B+b+d+u+a+b+<+[+E+C+:+:+f+d+a+u+_+f+j+}+_+<+[+j+c+0+j+u+:+d+d+g+m+b+q+x+l+r+l+,+M 4 Q M @.@.@.@.@.Q 4 5 @.",
"#.#.#.#.@.@.#.#.#.#.@.#.#.#.#.#.#.@.M @.G+G+o.b+s+n+r+m+t+q+a+<+*+n.m.m.n.,+*+p.p.*+p.1.=.%.w.w.w.*+*+*+e+,+,+*+1.*+w.=.j j j J.J.^.W W W W ^ ^ ^ ^.J.J.D.D.=.1.=.`.p.p.*+p.e+o.o.)+*+*+)+w.w.p.1.%.w.p.)+*+*+)+,+n.m.m.n.*+<+a+q+t+m+r+n+s+b+H | | Q M M M @.M 4 @.#.",
"5 p #.#.#.#.#.#.#.@.@.#.#.#.#.G+G+#.@.#.#.3+t+r+r+v+t+l+g+(+w.)+)+)+*+*+p.1.=+T.T.T.T.S S a.L.F.T.=+=+F..+(+.+F.S S _._.e T ++9._.8.W c.c.<.<.c.<.b 9.++++++L.L.a.S a._.S L..+F.T.T.T.=+=+T.T.L.a.S S T.T.T.T.=+w.*+)+*+)+)+)+w.(+g+l+t+v+r+r+t+w.| | Q 5 @.@.@.@.#.#.",
"q r r s H 1 4 5 M @.@.#.#.@.p p 4 1 s r |+l+l+t+x+x+k+:+3+,+)+)+*+w.[+=+T.F..+.+.+L.v.v._.v.a.F..+v._.j.j.G.P.8./.P (.P P l.<.).(.<.<.4.c.8.9.<.<.{.].I.'+%+U./.8.P P (.P l.8./.j.v.v._. +.+F.a.v._.v.++L..+.+.+F.T.[+1.p.*+)+)+,+3+:+k+x+x+t+l+l+b+s | M @.#.#.#.#.#.",
"z k k k z t q q A A A r A A A q q z k !+x+q+q+s+t+l+[+o.o.)+w.=+=+F.L.L. +%+%+v.U.G.P.G.j.v.v.L L G.h.j.v.j.x./.].D *.*.;.].{.0.G.].k.d.;.{.;.l.x.;.R.H.R.R.@+P 8.;.*.&.,.]././.j.v.j.g.j.L L v.v.j.G.K.G.U.v.%+%+ +L.L.F.=+=+w.)+o.o.[+l+t+s+q+q+x+s+| @.@.@.#.#.#.#.",
"t t z z t t z z z k z z k k z z z z z n+x+x+k+g+3+n.o.*+=+L..+T..+++ + + +v.U.U.U.U.G./.(.G.J m B ).k.>.).x.h.B ).v a a D B C x.r.'.*.}.,.D D ).O.{.y.P.P.@+K.m J D a g v P J /.x.).>.k.).B B J G././.G.U.U.U.U.v. + + +++.+T..+L.=+)+o.n.3+g+k+x+x+n+4 M @.@.@.#.#.#.",
"t t t t t t t t t t t t t t t z z z t m+9+v+a+p m.,+p.F.v.j.j.%+ +U.%+++v.v.v.j. +@+k.n n 0.Z ~.-.>.n &.}.y r.w E n ` n n E ;.4.y -.-.v &.+.+.n i.Z n H.G.U.l.;.D n Z ` n E w r.[.,.&.n >.-.~.Z 0.n n k.@+ +j.v.v.v.++%+U. +%+j.j.v.F.p.,+m.p a+v+9+m+o 5 5 5 5 @.#.#.",
"t t t t t t t t t t t t t t t t t t t r+5+v+0+o.)+w.F. +U.O.O.>+@+P.@+K.P.h.&.'.l.i.*.f Z C D R.R.0.5.i.z.+.}.4.a K '.Z a v 4.!.~.d.s.~.k.V.i.E :.` f 5.k.0.*.4.F 6.Z '.K a 4.}.!.z.H.5.0.R.R.D C *.f *.i.l.'.&.h.P.K.@+P.@+>+O.O.U. +F.w.)+o.0+v+5+r+1 @.5 4 5 @.#.#.",
"t t t t t t t t t t t t t t t t t t t n+v+v+a+*+T..+ +>+U. +%+%+++L. +%+G.I.z.k.l.y.f / *.E / n '.e.u.#+x.r.;+S.K K M.[.g -.;+&+V.#+;+Z.e.&.f K ,.-.a Z y.x.z.;+3.a *.i.K K S.A.r.x.R.u.e.'.n / E *./ f y.l.k.z.I.G.%+ +L.++%+%+ +U.>+ +.+T.*+a+v+v+x+1 @.#.p 5 #.#.#.",
"A q t z z z z z z u u u u u z z z z z n+v+n+b+T.L.v.v.-+R.G.>+-+K.G.G.v.l.f.H.y.8.%+D y H.*.K v b.E.O.G.R.R.y.r.[.e.w 5.$+B.H.y.H.V.#+A.N.~.K v 5.d.F :.'+#+S.#+s.~.,.w e.[.f.y.x.x.G.O.E.[.v K *.H.y D %+8.y.H.f.l.v.G.G.K.-+>+G.R.-+v.v.L.T.b+n+v+n+o @.#.#.@.#.G+G+",
"s I I 1 s s r r r r r r r r r r s s s x+n+n+|+F. +K.K.O.R.x.P.K.O.0.@+@+@+@+I.Q.'+@+f.f.'.5.Z 0.h.G.].{.R.i.~.,.:.i.5.d.i.4.[.B.V.z.[.z.h.k.i.v 5.A.z.#+!+!+#+[.'.i.d.5.i.;.,.~.r.0.{.l.G.h.0.Z 5.'.f.f.@+'+Q.I.@+@+@+@+0.O.K.P.x.R.O.K.K. +F.|+n+n+x+| @.G+G+G+G+G+G+",
"k A o G+G+G+G+G+G+G+G+G+G+G+G+G+G+G+#.r+v+v+b+.+U.0.j.>+H.i.H.R.k.K.U.%+%+O.P.'+R.P.j.l.0.(.&.;.{.l.).{.{.f.,.,.r.{.<.).{.:.5.d.i.z.B.z.!+A.A.N.!+d.@+G.R.H.P.5.:.{.).<.{.{.,.,.).{.k.).l.{.;.&.(.0.l.j.P.R.'+P.O.%+%+U.K.k.R.H.i.H.>+j.0.U..+b+v+v+r+Q @.G+G+G+G+G+#.",
"k k u r I G+G+G+G+G+G+#.#.G+G+G+G+G+#.t+n+n+a+F.M.H.O.@+M.M.M.R.i.O.G.>+@+O.@+P.R.:.B (.&.!.' ; ; ; ; ; ; ; ; ; } Y ,.'.y.x.'.; ; ] r.y.(.,.{.k.] ; ; D M.!+O.'.x.; ; [ {.x.k.; ; ; ; ; ; ; ; ; ; ; ; ] :.R.P.@+O.@+>+G.O.i.R.M.M.M.@+O.H.M.F.a+n+n+t+5 #.G+G+G+G+G+G+",
"k k k k d s 5 G+G+G+G+G+#.G+G+G+G+G+G+t+x+x+a+T.K.O.d.#+H.M.R.R.H.O.G.-+-+O.k.y.V.#+<.{.&.= % % % % % % % % % % % % y D {.k.k.% % [ z.;.l.:.f :.[ % % r.M.M.r.k.k.% % [ :.x.k.% % % % % % % % % % % % [ #+V.y.k.O.-+-+G.O.H.R.R.M.H.#+d.O.K.T.a+x+x+t+M #.G+G+G+G+G+G+",
"z k u z k k 9 s p G+G+G+G+#.#.G+G+G+G+t+r+x+b+L.@+&+5.M.O.0.H.i.l.G.@+-+M.'.H.y.V.z.,.E &.% % ' |.V |.V V U V [ % % i :.:.P.R.% % [ 4.<.R.k.E d.[ % % d.z.M.#+R.K.% % [ ,.x.P.V i V V |.% % ' U U U Y 3 z.V.y.H.'.M.-+@+G.l.i.H.0.O.M.5.&+@+L.b+x+r+t+@.@.#.G+G+#.@.@.",
"z u k u z u k k q H p G+G+G+#.G+G+G+G+s+r+r+b+L.@+-+G.M.z.d.e.b.A.R.R.V.A.d.V.R.k.d.A.).).% % [ 8.].].{.<.:.{.V % % ] E ;.<.i.% % [ 4.k.&+O.y.H.[ % % B.M.R.V.>.<.% % [ D <.).).:.<.{.].% % [ y.'.).).A.d.k.R.V.d.A.V.R.R.A.b.e.d.z.M.G.-+@+L.b+r+r+s+@.@.#.@.#.@.Q Q ",
"u z z z z u u u z k A H p G+G+#.G+G+G+k+t+r+:+a.z.u.Z.Z.} [ h 2.B.z.R.R.y.0.l.r.i.i.y.y.:.% % [ i.0.<.x.>.(.(.i % % U &.D w {.% % [ f.k.i.d.d.z.[ % % y.d.z.H.).w % % [ D w ;.(.(.>.x.<.% % [ :.z.:.y.y.r.i.r.l.0.y.R.R.z.B.2.h [ } Z.Z.u.z.a.:+r+t+k+M @.@.@.@.@.Q Q ",
"u z z z u u z u u u k k A H p G+G+G+G+k+t+t+|+Q.C.$+u.3.4.7.6.Z (.i.R.!+M.*.i.e.5.*.i.M.M.% % [ P.0.8.8.h.>.C U % % ] f Z w &.% % [ l.h.x.P.r.-.[ % % i.5.B.5.'.w % % ' f D '.C >.h.8.8.% % [ ,.}.r.V.i.*.s.e.i.*.M.!+R.i.(.Z 6.7.4.3.u.$+C.Q.|+t+t+s+4 @.@.@.@.@.Q Q ",
"z u z z z u z z u z u z k u 9 s p #.G+q+s+s+:+^.y.P.K.>.&.` N.E.` ` s.z.e.E '.B.M.A.z.S.5.% % [ f.;.] = U n f ] % % < { ~ F ~.% % [ '.'.{.<.;.4.[ % % z.z.A.5.F F % % ' { v F f n '.i.:.% % [ z.[.5.S.z.A.V.B.'.E e.z.s.` ` E.N.` &.>.K.P.y.^.:+s+s+l+| @.#.@.#.@.Q M ",
"z z z z u u z u u z z u z u z k t r o g+s+k+(+a.:.}.e...g  .6.b.Z X K -.v K -.M.#+S.~.C.[.% % [ ;.,.[ % ; n K U % % : ! a ,.*.% % [ n *.,.:.'.r.[ % % ~.M.V.d.*.d.% % ' ! Z :.K n k.D n % % [ r.f.[.C.~.S.#+M.-.K v -.K X Z b.6. .g ..e.}.:.a.(+k+s+g+4 @.#.#.#.M | s ",
"z z z z z z z z z u z u z z u z u k t m+t+s+:+8.!.+.+.s.+.+.t.X *.X { K v ~ 3 V.@+A.~.z.d.% % [ *.` g @ % ] v i % % : 0 d.'.&.% % [ n K ` D D B [ % % !.V.-+,.&.:.% % ' Z :.'.v Z h.C K % % [ C {.d.z.~.A.@+r.3 ~ v K { X *.X t.+.+.s.+.+.!.8.:+s+t+l+M #.G+#.5 s 9 k ",
"u z z u z z z u z u z z z z z u u z z m+t+s+++9.}.|.|.~.7 x 2.< X 6.h g ~.3.!.X.[.i ~.z.,.@ % % % % % % % % % % % % 7 K -.Z f @ % % % % % % % % % % @ +...s.[.f *.% % ' v *.Z / n {.Z E % % ' ~ E ,.z.~.i [.s.!.3.F g h 6.X < 2.x 7 ~.|.|.}.9.++s+t+l+#.$.o r u c c c ",
"u z z z z z z z z u z z z z z z u u z l+t+s+:+++z.z.s.[.3.s.6.X 6.X X ..C.u.;+C.x Y !.|.< ' @ % % % % % % % % % @ ' n &.Z 7.a ' + % % % % % % % % @ [ x h +.s.a 7.% % [ &.-.K a / E 5.;.% % ' < ! < |.~.7 x Y.;+u.Y...X X 6.X 6.s.3.[.s.z.z.++:+s+t+q+s A k c c c c k ",
"z z u z u z z z u z z u z z u z z z u g+m+m+(+++S.S.Y.-.s.X.S.~.!.+.!.C.V.#+V.}.~.!.~.Y.3 ! : : K H.E d.; % ; b.*.).~.,.>.b.b.~ ~ ,.5.*.k.X ' : { |.Y.!.~.!.,.b.5.>.,.~.).*.b./ ~ ,.d.E H.K : : ! 3 Y.~.~.~.}.#+#+V.C.!.+.!.~.S.X.s.-.Y.S.S.++(+m+m+g+c c k k k k k k ",
"t t t z z z u z z z z t z z z u u z z g+l+m+:+++y.V.C.C.[.z.B.C. .!.A.;+$+S.S.d.7.B.3 V 3.X < :  .B.X -.U % % 7 n m [.'.m f { ! v z.+...s.h : < a 3.i y B.b.,.{ f m '.[.m n a ! ~ z.-.X B. .: < X 3.V 3 B.7.d.S.S.$+;+A.!. .C.B.z.[.C.C.V.y.++{+m+l+g+k k k k k k k k ",
"t z z t t t z z d d z t t d u z z u z m+l+q+<+++I.y.s.A.,.W.V.S. .d.W.C.Y u.A.s.$+u.U ] x 7 7 7 !.!.+.+.+.= = [ n / f / / ,.Z ! _ +.x ..!.+.7 7 i ..h V u.e.[.Z ,./ / f / n &._ ! +.+.+.!.!.7 7 7 x ] U u.$+s.A.u.Y Y.W.d. .S.V.W.,.A.s.y.I.++<+q+l+m+k k k k k k k k ",
"t t d t z t t z t t t d t z t z z z u |+q+k+y+{+r.4.[.-.-.S.W.X.S.u.u.u.Y +.z.z.$+U x ] ] ] 7 7 ..3.[.3.!._ / M.w ! a _ / y.A.0 a !.e.3.x i ] 7 ] ] 7 x U C.d.A.y./ _ a ! w M./ _ !.3.[.3...7 7 ] ] ] x U $+z.z.+.Y |.u.u.S.X.W.S.-.-.[.4.r.{+y+k+q+|+u k k k k k k k ",
"z t t z t t t u t t z z t t z t z z z q+k+k+y+j z.!.~...-.W.S.A.S.A.z.5.[.u.~.3.A.V i ] < U |.|.7 U U 3.,._ _ A.f ! / ! ! d.b._ a 4.!.U Y ..|.|.Y < 7 i ~.s.~.b.d.! ! / ! f A._ _ ,.3.U U 7 |.|.U < ] i V A.3.~.|.[.5.z.S.S.A.S.W.-...~.!.z.j y+k+k+q+k k k k k k u k ",
"z t t t t t t t z t t t z t t t t z t b+q+g+}+F.5. .!.Y [.s.;+#+S.S.y ~.d.S.~.!.:.[...< 7 i +.e.+.|.4.#+}.{ a 5.K : ~ ! ! Z -.{ { S.#+X.u.+.!.V i ] h u.,.d.x -.Z ! ! ~ : K 5.a { }.#+4.|.+.e.+.i 7 < ..[.:.!.~.z.z.3.y S.S.#+;+s.[.Y !. .5.F.}+g+q+b+k u u k k k k k ",
"t t t d t t t t t t z t z t t z d t t d+a+u+7+F.i.e.Y h a *.W.!+;+;+|.!.}.;.z.z.F +.U < x 3  .+.-.y.,.r.3.{ a b.v ! ~ { { f 7.{ g s.z.z.0.K  ...3 7 < 2.x -.,.7.f { { ~ ! v b.a { 3.r.,.y.-.+. .3 x < U +.F z.z.c.}.!.|.s.;+!+W.*.a h Y e.i.F.7+u+a+d+z u k u u k u u ",
"t t t t t t t t t t t t t t t z t t t _+u+o+{+{+P.5.C.2.x 5.;+W.C.C.Y.C.C.X.W.y 3 !.2.] U 7.!.!.A.S.B.M.-.! { Z a _ ~ ~ { v -.! { 5.z.B.S.B.+.7.!.Y Y  .!.3 [.-.v { ~ ~ _ a Z { ! -.M.B.S.A.!.!.7.U ] 2.!.3 y W.X.C.C.Y.C.C.V.;+5.x 2.C.5.P.{+{+o+u+_+u k u z z u u u ",
"z t t t t t t t t t t t t t t t t t t }+c+f+(+J.'+b.e.Z.h a C.3.$+C.X.W.W.4.Z.|.3 +...i u. .v 3 3.X.V.y.E ~ 3 -.~ ~ v / { K -.3 / ,.y.z.;+!.3 K  .V U  .3 +.V -.K { / v ~ ~ -.3 ~ E y.V.X.3.3 v  .u.i ..+.3 |.Z.4.W.W.X.C.~.3.C.a h Z.e.b.'+J.(+f+c+}+z u z z u u z u ",
"A t z t t t t t t t t t t t t t t t t _+0+f+{+J.<.Z.2.u.Y x e.2...h 3 X.+.i V Y < < h +.E -.3 3 F z.:.5.-.f ~.F { ! f / ! a ~.+.v e.*.:.A.3 3 v -.-. .h < ] V ~.a ! / f ! { F ~.f -.5.:.z.F 3 3 -.E +.h < < Y V i +.s.3 h ..2.e.x Y u.2.Z.<.J.{+f+0+_+u z u z u z u u ",
"p H A t z t t t t t t t t t t t t t t b+u+o+:+J.Q.5+u.A.u.2.....+.] 7 $+V < Y 7 : : < !.*.v ] g a D {.A.S.f b.|.F / D n f y }.Z -.;+,.'.f { 7 ~ >.].w f ~ a ;.}.y f n D / F |.b.f S.A.{.D a g ] v *.!.< : : 7 Y < V $+7 ] +.....2.u.A.u.5+Q.J.:+o+u+b+z z z z z u u u ",
"G+#.p H A t z z t t t t t t t t t t t :+g+k+{+q.J.Q.d.R.B.B.+.!.S.}.y W.3.2.Y X h : < x K { 3 y 3 y 4.{.y.r.I.c.W m n n D W.I.].y.I.;.4.y x 3 f B _.L b L L _.I.W.D n n m W c.I.r.y.{.4.y 3 y 3 { K x < : h X Y 2.3.W.y }.S.!.+.B.B.R.d.Q.J.q.{+k+g+:+u z z u u z z u ",
"#.#.G+G+$.1 r t u t t t t t t t t t t m+s+r+:+p.`.T.a.a.a.9.;.w 8.~+4+~+Q.c.;.{.C E E C w w W 9.9.^.~+9._._.a.{+D.e L m b ++++_.a.++9.~+Q.9._._.^.S S S S T T ++++b m L e D.{+a._.^.9.~+^.9.9.W w w C E E C {.;.c.Q.~+4+~+8.w ;.9.a.a.a.T.`.p.:+r+s+m+u z z z z z z z ",
"#.#.#.G+G+G+$.o r q z z t t t t t t t m+m+t+:+p #.$.o.I o.)+1.1.*+*+p.1.^+1.1.=.6 6 6 6 =.^+1.=.1.w.`.`.p.*+*+*+p.=.1.6 6 ^+p.)+)+)+1.q.q.w.*+*+*+p.w.p.w.%.=.p.^+6 6 1.%.p.*+*+*+p.`.`.w.1.=.1.^+=.6 6 6 6 =.1.1.^+^+p.*+)+1.1.,+o.I o.$.#.p :+t+m+m+z z u z u z z u ",
"#.#.#.G+G+G+#.#.#.I s A z u z t t t t k+k+k+g+o+7+p+p+p+f+j+6+3+3+3+e+e+e+e+e+e+3+6+6+j+j+f+f+j+j+6+j+j+j+j+6+6+3+e+e+e+e+e+e+e+e+e+)+)+)+,+,+,+)+)+)+)+)+)+6+e+e+e+e+e+e+3+6+6+6+6+6+j+6+j+j+c+f+j+j+6+6+3+e+e+e+e+e+e+3+e+e+3+j+c+p+p+p+7+o+g+k+k+k+z z z u z z z z ",
"#.#.#.G+G+G+#.#.G+G+G+$.1 r q u z t t s+s+s+s+t+l+k+m+k+q+g+b+b+d+a+h+h+u+u+u+h+u+u+h+d+a+d+u+p+p+p+u+h+h+h+0+0+o+f+f+f+c+[+[+7+7+[+[+[+[+6+*+e+3+6+j+3+j+6+f+[+[+c+f+f+f+f+o+0+h+u+u+0+p+p+p+u+d+a+d+h+u+u+h+u+u+u+h+h+a+d+:+b+g+q+k+m+k+l+t+s+s+s+s+d z z z z z t z ",
"G+#.#.G+G+G+#.#.#.#.G+G+G+$.4 s A t z l+k+k+t+s+l+m+g+m+q+b+d+a+d+d+u+d+u+p+h+h+:+u+p+f+f+f+c+f+f+}+f+u+0+f+f+7+7+c+c+7+[+7+j+j+6+j+j+j+j+j+6+e+e+e+3+6+6+6+[+j+7+[+7+c+c+7+[+}+}+p+0+f+}+f+f+c+f+f+f+p+u+:+h+h+p+u+d+u+d+d+a+d+b+q+m+g+m+l+s+t+k+k+l+u z z t z z z k ",
"#.#.#.G+G+G+#.#.#.#.#.G+#.#.G+#.$.o r b+l+m+m+g+b+m+l+g+b+d+d+a+a+d+0+f+<+f+d+h+d+f+f+7+c+}+7+7+c+c+}+f+}+7+[+[+[+[+[+6+6+[+[+6+3+6+j+j+6+[+7+3+e+e+e+3+3+3+e+[+[+3+6+[+[+[+[+j+7+}+}+}+7+c+7+7+}+c+7+f+f+d+h+d+f+<+f+<+h+a+a+d+d+b+g+l+m+b+g+m+m+l+b+z z z z z q r s ",
"#.#.#.#.G+G+#.#.#.#.#.G+G+#.#.#.G+G+G+o.H r R N N O O N d d d u u d d G G G G G G G G G G G G G G G G ,+F+]+w.G G G G G G G G =.,+,+)+)+e+^+3+)+,+,+*+^+,+F+H G G G G G G G G G G G G G G G G G G G G G G G G G u G G u d ) ) ) d u u O O N O O O N N z z q A r , M M ",
"#.#.#.#.G+G+#.#.#.#.#.#.#.G+#.#.#.#.#.G+G+#.p 1 r q t z z z t t t t t t t t t t t t t t t t t t t t t ,+]+)+r t t t t t t t t D.]+,+e+^+7+}+^+^+e+^+e+`.*+F+H t t t t t t t t t t t t t t t t t t t t t t t t t t t t t t 2 ) ) t t z G t 2 2 z u z q r s o 4 5 M #.#.",
"#.#.#.#.G+G+#.#.#.#.#.#.#.#.G+#.#.#.#.#.G+G+G+G+#.p 1 s A 9 z u z t t t t t t t t t t t t t t t t t t ,+)+e+r t t t t t t t t q.)+*+[+}+i+}+[+y+y+i+}+`.`.]+H t t t t t t t t t t t t t t t t t t t t t t t t t t t t t t t ) ) t t t z 2 ) 2 A r s 4 @.@.@.M @.#.#.G+",
"#.G+G+#.G+G+#.#.#.G+#.#.#.#.G+G+#.#.#.#.G+G+G+G+G+G+#.G+$.I H r q t z z z t t t t t t t t t t t t t t )+)+*+%.t t t t t t t t D.*+j+i+i+A+A+i+A+:+A+:+_+`.,+*+t t t t t t t t t t t t t t t t t t t t t t t t t t t t t t t ) ) d z u A A ) 2 5 #.@.$.@.@.M @.@.#.G+G+",
"#.#.#.#.G+G+#.#.#.#.G+#.#.#.#.#.G+#.#.#.G+G+G+G+G+#.#.#.#.G+#.@.5 o s r 9 t z u u z t t t t t t t t t *+^+7+=.t t t t t t t t {+^+y+{+|+:+|+d+|+B+|+|+:+D.*+p.t t t t t t t t t t t t t t t t t t t t t t t t t t t z z u z ) ) 9 s o p p ) ) o #.@.@.@.M 4 | 4 M @.#.",
"#.#.#.#.G+#.#.#.#.#.#.#.#.#.#.#.#.G+#.#.G+G+G+G+G+#.#.#.#.#.@.#.#.#.#.#.$.o H r A q t z u z t t t t t p.j+i+q.t t t t t t t t {+`._+b+z+k+z+z+8+8+z+z+4+J.p.p.t t t t t t t t t t t t t t t t t t t t t t t z z z t q A r H 9 ) s G+G+G+G+r ) r #.@.@.@.4 , , , | Q M "};
