/* XPM */
static const char * fs2_btn_readme_hover_xpm[] = {
"131 58 256 2",
"  	c #565054",
". 	c #251D23",
"+ 	c #332B37",
"@ 	c #4C4550",
"# 	c #433D47",
"$ 	c #0F1112",
"% 	c #0D1719",
"& 	c #2D3739",
"* 	c #0F1B1D",
"= 	c #1E2A2C",
"- 	c #0F1D1F",
"; 	c #5B6263",
"> 	c #4C5556",
", 	c #010303",
"' 	c #464F4F",
") 	c #3D4745",
"! 	c #788280",
"~ 	c #ADB2B1",
"{ 	c #6B7472",
"] 	c #8C9492",
"^ 	c #868D8B",
"/ 	c #37433F",
"( 	c #666E6B",
"_ 	c #EDF7F3",
": 	c #939A97",
"< 	c #011009",
"[ 	c #03140C",
"} 	c #010503",
"| 	c #9CCFB5",
"1 	c #F7F9F8",
"2 	c #010E07",
"3 	c #07180F",
"4 	c #97B6A6",
"5 	c #AECBBC",
"6 	c #091F13",
"7 	c #1D5235",
"8 	c #19422B",
"9 	c #153624",
"0 	c #0F1A14",
"a 	c #71A588",
"b 	c #88B89E",
"c 	c #DEE9E3",
"d 	c #102E1D",
"e 	c #354C3F",
"f 	c #010B05",
"g 	c #0D2316",
"h 	c #030805",
"i 	c #0A0F0C",
"j 	c #679379",
"k 	c #111613",
"l 	c #698775",
"m 	c #9DC5AD",
"n 	c #C0D4C8",
"o 	c #17271D",
"p 	c #4D7B5E",
"q 	c #23352A",
"r 	c #545C57",
"s 	c #131E17",
"t 	c #5F896E",
"u 	c #799B85",
"v 	c #010703",
"w 	c #30553C",
"x 	c #8BA794",
"y 	c #509C68",
"z 	c #CEDED3",
"A 	c #4B905F",
"B 	c #A8BEAE",
"C 	c #010903",
"D 	c #060E08",
"E 	c #5B7E63",
"F 	c #96AE9C",
"G 	c #010B03",
"H 	c #0F1410",
"I 	c #84A28A",
"J 	c #9BA69D",
"K 	c #010D03",
"L 	c #2B3E2E",
"M 	c #4E6D53",
"N 	c #BACDBD",
"O 	c #DAE0DB",
"P 	c #45744C",
"Q 	c #2E4B32",
"R 	c #3D5841",
"S 	c #77947B",
"T 	c #8FAD93",
"U 	c #AFC3B2",
"V 	c #495C4B",
"W 	c #3F6542",
"X 	c #A4B5A5",
"Y 	c #486649",
"Z 	c #010901",
"` 	c #010701",
" .	c #010501",
"..	c #030B03",
"+.	c #010301",
"@.	c #030703",
"#.	c #060A06",
"$.	c #030503",
"%.	c #1E2C1E",
"&.	c #233323",
"*.	c #5B745B",
"=.	c #0D100D",
"-.	c #CAD3CA",
";.	c #B6BCB6",
">.	c #E7EBE7",
",.	c #ECEFEC",
"'.	c #F1F3F1",
").	c #6E8E6D",
"!.	c #334532",
"~.	c #698168",
"{.	c #162415",
"].	c #3B5837",
"^.	c #BCC4BB",
"/.	c #0C120B",
"(.	c #3D4F3A",
"_.	c #1D241C",
":.	c #C6CCC5",
"<.	c #374B33",
"[.	c #485945",
"}.	c #D6DBD5",
"|.	c #2F4A29",
"1.	c #B9C2B7",
"2.	c #283E22",
"3.	c #385331",
"4.	c #192117",
"5.	c #597252",
"6.	c #677762",
"7.	c #353C33",
"8.	c #ACB6A9",
"9.	c #C1C8BF",
"0.	c #2E4227",
"a.	c #10160E",
"b.	c #445B3C",
"c.	c #2C3529",
"d.	c #A8AEA6",
"e.	c #E1E4E0",
"f.	c #272F24",
"g.	c #889583",
"h.	c #95A091",
"i.	c #4A5E41",
"j.	c #768470",
"k.	c #050903",
"l.	c #203118",
"m.	c #1E2A18",
"n.	c #364B2C",
"o.	c #161E12",
"p.	c #44553C",
"q.	c #313D2B",
"r.	c #54644C",
"s.	c #5B6954",
"t.	c #8F9A8A",
"u.	c #D1D5CF",
"v.	c #34452B",
"w.	c #3D4E34",
"x.	c #9BA496",
"y.	c #182610",
"z.	c #324328",
"A.	c #B2B9AE",
"B.	c #435E31",
"C.	c #26341D",
"D.	c #1B2415",
"E.	c #141A10",
"F.	c #0A0D08",
"G.	c #415335",
"H.	c #A4AD9E",
"I.	c #2D3B23",
"J.	c #2A3621",
"K.	c #3B4B2F",
"L.	c #6A8755",
"M.	c #232B1D",
"N.	c #505E46",
"O.	c #495640",
"P.	c #3C4635",
"Q.	c #808A79",
"R.	c #4C623B",
"S.	c #345418",
"T.	c #192013",
"U.	c #030501",
"V.	c #313D25",
"W.	c #36412B",
"X.	c #0A0B09",
"Y.	c #737D69",
"Z.	c #181A16",
"`.	c #3A452D",
" +	c #597D2B",
".+	c #414D31",
"++	c #656D59",
"@+	c #374027",
"#+	c #86A057",
"$+	c #050603",
"%+	c #10120C",
"&+	c #6F9220",
"*+	c #212518",
"=+	c #9CAC31",
"-+	c #32332C",
";+	c #ABB369",
">+	c #15160E",
",+	c #030301",
"'+	c #1F1F16",
")+	c #070705",
"!+	c #22221C",
"~+	c #2D2C21",
"{+	c #1A1914",
"]+	c #29271F",
"^+	c #1F1E1A",
"/+	c #322E25",
"(+	c #13110D",
"_+	c #0A0907",
":+	c #2B251B",
"<+	c #0F0D0A",
"[+	c #1F1B15",
"}+	c #251F17",
"|+	c #61584C",
"1+	c #585045",
"2+	c #2D251B",
"3+	c #3F3427",
"4+	c #1E1913",
"5+	c #191510",
"6+	c #443D34",
"7+	c #4D463D",
"8+	c #372D22",
"9+	c #32291F",
"0+	c #423629",
"a+	c #534434",
"b+	c #4B3E2F",
"c+	c #715E49",
"d+	c #7C6953",
"e+	c #3C352D",
"f+	c #221A12",
"g+	c #2F261D",
"h+	c #66533F",
"i+	c #2A221A",
"j+	c #46392C",
"k+	c #3B3025",
"l+	c #5C4B3A",
"m+	c #211B15",
"n+	c #16120E",
"o+	c #272019",
"p+	c #1C1712",
"q+	c #231D17",
"r+	c #120F0C",
"s+	c #0D0B09",
"t+	c #28231E",
"u+	c #726D68",
"v+	c #271D14",
"w+	c #160E07",
"x+	c #2D1D0F",
"y+	c #2B1F17",
"z+	c #2D231D",
"A+	c #0D0501",
"B+	c #221712",
"C+	c #797271",
"D+	c #030101",
"E+	c #060303",
"F+	c #030303",
"G+	c #010101",
"h +.+.G+G+G++.+.+. .Z Z Z C C ` +.G+G+G+G+G++.+.+.` v  .+.+.G+G+G+G+G++.+.+.+. .` } `  .+.+.+.+.+. . .+. .v v C v G+ .C C Z C f f f C C C f 2 2 C v `  .G+G+G+G+G+G+G+G+G++.G+G++.` C +.+.+.G+G+G++.+. .v f 2 2 f 2 2 v +.+.G++.+.G+G+G+G++.+.+.+.G+G+G+G+G+G+G+G+G+G+",
"+. .+.G+G+G+G++.+. .Z Z Z C C ` +.G+G+G+G+G+G++.+. .} } +.G+G+G+G+G++.+.+.+. . .` } `  .+.+.+.G++. .` +.` C C C C +.+.C G f f 2 2 2 2 2 2 2 < 2 2 f Z `  .+.G+G+G+G+G+G+G+G++.G+G+ .C +.+.+.G+G+G++.+. .` C 2 f f f C  .+.+.+. .+.G+G+G++.+.+.+.G+G+G+G+G+G+G+G+G+G+G+",
"G+ .+.G+G+G+G++.+. .Z C C C Z  .G+G+G+G+G+G+G++.+. . . .+.G+G+G+G+G+G+G++.+.+. .` } `  .+.+.G+G++. . .+.} f f f C +.+. .G 2 2 2 2 2 2 < 2 2 2 2 2 f C `  .+.G+G+G+G+G+G++.G+G++.G++.` +.+.G+G+G+G+G++.+. .v v v v v `  .+.+. .`  . .+.+.+.+.G++.G+G+G++.G+G+G+G+G+G+G+",
"G++.+.+.G+G+G++.+. .Z Z Z Z ` +.G+G+G++.+.+. .+.+. . . .+.G+G+G++.G+G++.+.+. . . . . . .+.+.+.+. . . .+.+. .v ` +.G+G++. .v }  .} v v v  . .v v }  .+.+.G+G+G+G+G+G+G+G+G+G+G+G++.+.+.+.+.G+G+G++.+.+. . . . . .+.+.+.+.+.+.+.+.+.+.+.G+G+G+G+G++.+.G+G+G+G+G+G+G+G+G+",
"G++.+.+.G+G+G++.+.+. . . .+.+.+.G+G+G+ . . . .+.+.` `  . .+.G+G++.+.G++.+.+.+. . . . .+.+.+.+.+.+. .+.+.+.+.+.G+G+G+G++.+.G++.+.+.+.+.G+G+G++.+.+.G+G+G+G+G+G+G+G+G+G+G+G++.G+G+G+ .+.+.+.G+G+G++.+.+.+.+. .+.+.+.+.+.+.+.+.+.G+G+G+G+G+G+G++.+.+.+.G+G+G+G+G+G+G+G+G+",
"G++.+.G+G+G+G+G+<+n+5+4+q+|+Q.3+v+f+B+B+5+g+3+B+y+9+8+3+k+; e+z+2+9+o+o+g+2+5+ . .` }  .+.+.+. . . .+.G++.G+G+G+G+G++. .` } ` f C ` +.G+G++.+. . .+.G+G+G++.+.+.G++.G+G+ . .G+G+G++. .+.G++.G+G++.+.+.+.+.+.+.+.+.+.+.+.+.+.G++.+.+.+.G+G++. . .+.G++.Z  .G+G+G+G+G++.",
"G++.+.+.G+G+_+[+}+:+3+6+j+C+u+    ( C+u+C+j.j.Y.Y.Y.Y.u+u+u+r @ # + . q+o+m+}+q+` v v } +.+.+. . . .+.+.+.+.+.+.` Z C f f 2 2 < < < v G+G++.+.v C v `  . .Z Z Z ` ` +.G+ . .G+G++.+.+. .G+G+G+G++.+.+.+.+.+.+.+.+.+.+.G++.+. . . . .G+G++.+.+.+.+.G+ .C  .G+G+G+G+G+G+",
"G++.+.+.G+G+t+0+8+8+@ C+^ t.;+;+;+H.;+;+;+;+=+=+=+=+=+=+=+=+;+;+;+g.Q.( # /+}+o+C C v }  .+. . . .+.+.+.+.+.+. .C f C v v f < < < < f +.G++.+.v f Z  . . .` ` ` `  .+.G++.+.G+G++.+.+.+.+.G+G++.+.+. . . .+.+.+.+.+.+.G+G++. . .+.+.G++.+.+.G+G+G++.+.+.+.G+G+G+G+G+G+",
"G+G++.G+G+G+(+8+9+8+@ Q.#+#+;+#+=+=+=+=+=+=+=+=+=+=+=+=+=+=+=+=+;+=+#+#+r 6+2+i+q+~+4+n+[+k+k+3+0+b+k+j+0+0+j+j+0+0+j+b+b+b+b+a+a+a+b+b+b+b+b+a+a+a+l+b+3+9+9+8+l+j+j+3+0+b+0+0+k+[+n+k+i+8+9+}+r+<+<+r+<+<+s+s+4+t+m+q+}+m+}+3+8+}+m+o+s+G+G++.+.+.+.G+G++.+.G+G+G+G+",
"G+G++.+.G+G+)+p+i+k+9+f.0.S.B. + + +&+&+&+&+&+&+&+&+&+#+#+#+#+L. +S.2.o (+5+i+9+b+k+}+[+9+8+g+9+k+1+8+3+0+j+b+0+0+b+a+l+a+a+l+h+l+l+a+l+h+h+h+c+c+d+d+d+l+3+a+l+l+l+l+j+0+b+3+a+Q.u+g+l+a+b+l+0+4+5+n+<+<+(+(+n+m+3+b+9+:+g+9+j+l+0+9+8+0+~++.+. .+.G++.+.+.+.G+G+G++.",
"G++. .` `  ._+q+:+3+a+0+x+v+{+$ % - o 9 9 l.l.l.l.l.l.l.y.o.0 $ $ n+w+w+m+i+g+b+k+i+i+o+o+o+k+3+0+3+3+k+0+b+a+b+b+a+l+l+l+l+l+h+h+l+l+l+l+h+l+c+c+h+h+d+d+l+h+h+d+1+h+h+l+l+a+l+d+l+0+a+h+a+b+l+a+9+o+p+5+p+4+q+o+i+0+0+i+k+b+l+a+j+9+9+8+b+j+p++.+.+. . .G+G++.+.G++.",
"G++.` f G Z /.:+8+b+j+o+}+m+p+n+<+s+A+A+A+A+w+A+A+A+A+E+E+A+A+_+s+_+<+n+[+p+n+[+r+r+n+n+5+p+5+p+4+4+[+p+{+4+}+[+p+4+o+i+:+i+i+i+i+o+:+g+i+o+q+i+}+q+o+9+k+g+}+o+6+/+9+:+q+p+i+/+m+p+[+4+:+:+p+}+i+[+4+4+(+{+[+[+n+(+5+[+n+q+]+o+o+8+0+g+k+|+3+l+a+r+Z C Z +.G+G+G+G+G+",
"+.+. .C v  ._+p+}+i+)+G+} f } +., , h h $.#.} $++.+.} $.#.F.F.F.F.#.@.} +.} $.} h h h #.#.h } @.h h #.F.#.k.} @.h @. .$.@.$.+.+., #.F.F.#.$+#.h h h h } } @.#.#.} } v h i i D #.#.D @.} } h #.#.#./././.a.a.%+/.F.F.F.F.#., +.+., F.4+i+8+a+0+l+c+a+b+/.` G+G+G+G+G+G+",
"G++.+.+.G+G+$+n+5+$.G+$+i g 0 /.F./.a.{.{.s E.o.E.o.D.T.o.D.m.D.m.l.l.y.T.o.o.&.%.%.m.D.M.D.D.T.o.E.T.D.D.D.T.T.T.T.m.m.T.o.o.>+>+o.T.D.*+D.T.o %.%.%.T.o.T.o.T.{.o.D.{.o o %.&.o o {.4.o.o.o.a.>+o.T.%.&.&.%.T.o.T.o.>+%+F.F.F.#.#.F./.'+8+3+a+d+l+l+h+p+G+G+G+G+G+G+",
"+.+. . .+.+.$+n+5+$+, X.%+{.m.M.J.c.J.v.I.&.q.C.J.V.I.C.D.m.C.m.l.l.C.C.C.m.C.].].z.n.z.I.M.C.C.C.C.C.C.C.C.v.v.J.I.@+M.l.M.I.~+q.W.W.W.q.I.W.I.2.C.C.D.D.C.I.J.J.2.<.!.L Q Q Q Q Q L !.0.I.I.2.C.m.{.C.2.2.I.J.M.D.*+m.D.o.>+a./.F._+F.#.r+:+j+h+h+l+3+0+j+)+G+G+G+G+",
"G++. .C C ` )+(+5+)+$.F./.E.m.m.l.m.%.C.l.l.m.E.o.y.l.y.y.m.l.l.l.l.l.l.0.C.z.b.b.G.G.b.K.C.J.`.@+@+I.C.I.v.V.z.I.I.V.V.`.`.O.O.N.s.s.r.r.i.b.<.v.V.z.(.R <.w.v.0.v.[.Y [.V Y Y V <.Q Q 2.J.0.n.0.L L J.J.0.v.K.v.V.I.I.q.J.M.M.D.E.E.%+#.$+@.(+3+a+j+8+k+h+l+G+G+G+G+",
"G++. .` ` +.$.<+(+#.$.F.E.{.D.C.3.C.C.2.C.C.2.|.C.l.C.2.Q w 3.2.C.|.|.0.G.p.i.G.].<.n.G..+@+V..+r.O.`.`.[.s.N.G.`.i.O.P.O.++Y.Y.Q.g.t.t.Q.j.++[.(.p.s.l l *.r.M Y s.Y.u l ~.j t E R W (.(.(.].].(.w w Q z.<.<.z.z.V.V.q.I.J.C.C.J.*+T.*+m.E.X.$+} %+8+j+h+h+d+G+G+G++.",
"G++.+.+.+.+.$+r+n+F.$./.o L 0.w.].3.|.z.z.v.W A 3.2.|.3.P W |.2.2.n.].i.6.Y.++N.G.p.i.r.r.N.++Y.g.g.6.j.x.H.h.6.5.5.s.Y.g.d.;.1.9.:.-.:.9.A.x.S E 6.F ^.;.t.S l j.h.A.9.1.F j ).t S j.Y.~.M Y W ].M *.P ].Y P ].v.J.0.I.I.I.J.I.z.J.I.I.0.I.D.F.)+ ., i+d+1+b+G+G+G+G+",
"G++.+.+.+.G+$+(+r+#.$+a.o.J.Y Y n.z.0.n.w.K.K.W |.|.W P Y R ].].2.2.|.s.) / / Q.6.6.6.).~.~.t.{ ) r h.A.' ' ^ H.j.6.Q.H.) ' ' ' > > > > ' ' ) F S g.; ' { ;.H.t.t.1.r ' }.n F g.F ( ) ( J 6.i.Y 3..+G.Y R P p P b.!.W Y K.K.`.W.K.W.@+K.w.@+C.D./.F.h [+d+Q.c+G+G+G+G+",
"+.+. .+.+.+.$.n+n+F.#.E.T.J.b.b.w.v.n.n.0.J.3.W W |.Y p R G.K.z.0.2.z.s.j.* * r J g.g.Q.g.h.^ * * : d.-.* * ^ :.x.Q.h.9.* * * * * * * * * * * 4 S h.! * * u.-.A.;.: * * ^ c ^.d.N = * : H.6.N.L.5.W P p M Y p p (.<.G.[.w.W.V.C.M.J.I.I.C.V.@+C.m.o.F.i+d+d+d+G+G+G+G+",
"+. . . .+.G+$.r+n+_+F.4.J.G.K.0.I.0.2.0.V.v.P P ].].5.5.b.V.J.C.I.J.C.O.h.> * * 1.^.8.8.8.9.' * ' 9.;.O * * ] e.1.H.A.u.* * { ~ ~ ~ ~ d.J ] ! I 6.h.^.* * ^ O -.}.; * * & ,.}.:.: * & u.d.6.P.w.R.M *.E M p.M Y V.!.(.p.p.`.I.W.z.n.K.@+v.G..+I.I.M.o.~+c+d+d+G+G+G+G+",
"7+6+7+6+/+q+5+5+p+s+i M.`.p.0.2.3.W W 3.b.b.*.Y A A b.G.G.I.V.V.J.C.2.<.Q.A.* * > e.u.-.u.d.* * ;.A.1.>.* * ] ,.-.;.^.O * * ] '.'.,.>.e.-.A.g.Y.6.h.}.> * & ,.e.u.* = * * d.>.O r * ^ u.x.++[.<.z.3.w.M M i.p.p.`.W.`.w.`.`.W.v.w.w.`.K.w.G..+`.K.C.D./+c+c+d+G+G+G+G+",
"c+|+1+1+e+!+{+8+0+^+F.T.J.0.0.K.P y P ].P G.R.v.W 0.I.G.B.v.J.z.2.J.W W 6.1.^ * * ;.,.>.,.) * ( :.h.8.,.* * ] '.}.9.:.e.* * & > > > > : }.A.Q.s.*.j.:.: * * -.,.] * ! ; * ; '.O * * :.9.Q.r.b.(.!.p.R Y w.(.<.V.K.G.W.`..+V.V.@+n.p.G.p.b.p.@+0.G.@+D.~+d+c+c+G+G+G+G+",
"c+|+7+6+/+!+5+0+a+5+F.{.q <.<.].p y A A P G.G.`.].W z.K.R.z.V.K.0.V.].].r.h.-.& * & 1 '.J * = :.A.t.A.,.* * ] '.}.:.-.O * * * * * * * ^ }.A.g.*.E ~.A.>.= * { '.& * O ~ * * }.: * ; }.d.6.[.!.L v.b.R (.R Y <.w b.G.K.`..+`.@+v.w.b..+b.i.b.W.w.p.b.D.:+c+c+h+G+G+G+G+",
"u+|+1+7+/+{+n+9+3+5+i q L 2.<.W A y A P P b..+K.b.y W K.w.z.z.n.z.W.3.3.i.6.;.: * * ] 1 & * ^ -.h.Q.^.'.* * ] '.u.9.:.}.* * { ;.;.;.~ :.:.H.Q.*.*.s.h.O { * = ~ * ; 1 '.& * ] ) * ] :.t.s.(.!.<.!.(.M Y w.Y R (.p.O.(.p.G..+.+W.w.p.G.G.O.p.p.i..+`.o.:+h+h+h+G+G+G+G+",
"1+|+|+6+-+{+5+k+a+5+F.o 9 2.<.K.Y Y b.B.G.K.G.K.n.3.n.w.b.3.0.3.z.I.G.w.v.N.g.}.> * = ] * = -.8.Q.g.:.'.* * ] ,.:.A.^.}.* * ^ ,.>.e.}.:.A.x.g.l 6.s.Q.9.9.* * = * ~ '.e.^ * & * = O 8.j.r.R e !.<.<.Y Y b.Y M Y i.O.O.i.Y i..+`.v.<.b.b.(.K.b.r.r.`.M.~+h+l+h+G+G+G+G+",
"1+|+d+1+/+!+n+3+g+r+#.s &.&.!.K.i.Y G.b..+v..+.+G.P ].w.Y 3.z.n.v.n.z.J.V.G.6.1.^.* * * * : 9.g.Y.Q.^.,.* * ] O A.J 1.}.* * ^ ,.>.e.}.:.A.d.H.t.Y.*.++x.}.) * * & '.e.-.^.* * * ! -.h.*.Y (.(.<.(.<.(.p.i.].(.r.r.i.N.r.s.r.O.p.G.N.5.5.i.i.O.@+.+`.%.~+l+l+l+Z Z Z Z ",
"|+1+d+c+6+^+n+g+6+f.@.H %.%.!.p.b.i.R.R.G.v.v.w.G.i.G.b.].0.K.n.0.K.b.<.K.G.s.h.-.( * * & u.x.++N.6.d.e.* * ^ u.9.N 1.}.* * * * * * * * * * * H.g.6.s.Q.1.] * * ^ e.9.8.^.r * * 9.;.j.[.<.R w.(.b.r.s.r.N.V p.p.r.s.s.s.s.s.N.O.N.s.).u T 8.j.Y.Y.O.&.:+l+a+a+Z C Z ` ",
"7+7+1+|+6+t+n+8+a+^+h /.o.M.<.v.w.p.b.R.p.b.p.b.M b.K.Y A R K.b.0.v.G.z.v.i.s.j.X ^.= * J 8.Q.s.s.s.h.u.* * ! 8.6.~.I U * * * * * * * * * * * d.t.j.~.6.g.8.* * ;.1.h.h.J ^ * / n x.~.Y R <.P.p.s.s.s.~.6.N.N.r.6.j.g.Q.S Y.++r.r.R M L.5.N.s.6.++++!./+a+l+a++.+.+.+.",
"1+|+1+6+6+t+s+k+3+>+h i a.m.q.J.z.i.s.~.).6.j.Y.u j.6.6.~.N.O.b.v.w.Y p.N.++~.S h.H.^.:.A.t.j.++++++Y.H.9.9.x.~.M E L.j.X ^.:.u.O e.O O -.9.A.H.h.g.j.~.j.g.x.J x.S j u F 5 n n 5 x l p P Y 5.6.j.Q.Q.Q.j.6.++6.Q.g.x.J H.x.g.Q.S t 5.5.5.Y ].n.<.w.c.~+b+b+j+G+G+G+G+",
"d+|+7+/+!+{+^+3+3+(+X./.T.m.m.J.i.6.Q.x.H.x.8.A.^.^.8.H.h.Q.Y.*.w.i.6.j.Q.g.x.B 8.A.^.9.d.Q.Y.++r.`.P.++t.x.t.F T I ).).E T T x X U 1.A.;.A.;.A.8.H.J x.t.g.S l *.M j ~.h.N z n 5 I 6.t P N.E u H.8.A.J Q.S Q.h.x.8.1.:.n N U U U x g.g.S j ).5.M b.M.'+j+j+k+G+G+G+G+",
"|+d+|+e+^+/+!+8+8+(+F.E.E.a./.f.s.g.H.9.u.}.O e.e.e.O u.9.A.x.x *.6.t.d.A.^.^.:.}.u.u.-.;.h.Y.s.5.r.p.6.g.h.8.1.-.N H.T E ).a t ).u 4 A.^.:.-.:.:.:.:.:.^.U F l Y M t S d.-.c O N h.~.t p r.S B -.O O 9.J g.g.8.9.-.}.c c O O O z ^.N B T u s.~.E 6.!.]+b+a+b+G+G+G+G+",
"C+|+7+7+7.7.^+9+b+{+F.4.s o q c.r g.;.' > > > > > > > > ' ( 8.m S Q.8.' ' ' ' ' ' ' ' ' ' ) H.t.~.E M 6.Q.8.:.' > ! -.N b ).a a E S ;.' ' > ' ' ' ' ' ( ] :.1.F ~.*.j F -.> > :.e.1.I j E 6.F -.9.> > c 1.h.h.:.' > > > > > > > ' ' ' 1.X T ~.6.~.r.q.~+b+a+b++. . .} ",
"d+++^ u+7.7.Z.9+b+[+i &.9 L W (.s.t.^.* * * * * * * * * * * ; 5 H.x.9.* * * * * * * * * * * 1.F j.++r.6.x.-.( * * * ~ z X I u ).6.h.u.* * * * * * * * * * = : 1.F u x N e.* * = e.O U I u I ^.}.& * * _ z n 1.O * * * * * * * * * * * B g.Q.6.r.[.[.c.]+b+a+0+Z C f < ",
"++u+r ) -+^+H 2+9+%+0 L w W *.j Y.g.9.* * { ~ x.x g.x F & * ' }.:.d.u.* * ( ~ ;.~ ~ d.d.J : ;.T Y.++s.Q.9.u.* * > * & >.-.H.I 6.++h.e.* * { ~ : ] ] 4 ^ = * * ~ 8.4 b 9.>.* * * > ,.-.4 4 8.O ; * * * 1 O ;.9.>.* * { ;.~ d.d.J J ] Q.Q.Y.*.*.s.N.N.f.}+0+0+k+2 < [ [ ",
"-+]+!+Z.(+s+X.g+9+a.k L R *.Y.x Q.g.:.* * ^ }.1.H.x.B n ' * ' u.8.d.O * * ] '.'.'.,.>.O ^.H.x.S s.++Q.d.O > * { O * * ] >.-.x.Y.Q.A.>.* * ] O N h.x | z :.= * r 1.F | n ,.* * & * ! >.z 5 u.] * = * * 1 O ;.u.,.* * ] '.,.>.O :.U F Q.6.r.s.s.s.p.(.f.t+0+3+k+[ [ [ 3 ",
"k i =.i )++.>+k+0+5+X.f.q.V Y.Q.j.x u.* * ] e.9.1.^.N z / * ' ;.H.J :.* * & > > > > J >.9.x.Y.++r.Y.h.u.;.* = O 1 { * = >.e.A.g.h.:.,.* * ] O 5 x u I 4 -.( * = :.m | 9.,.* * ~ * * d.c c :.* = J * * '.}.^.z '.* * & > > > > ^ ;.F 6.N.[.N.N.r.w.w.c.[+k+3+b+[ [ 3 3 ",
" . . . . .Z i j+3+n+=.Z._.) j.g.6.x z * * * * * * * * * * * > d.g.g.9.* * * * * * * ] >.9.h.j.|+|+j.A.>.& * ] 1 '.}.* * ! '.O d.X -.>.* * ] z B T I u F n ^ * * 9.T b 9.>.* * 1 ! * = :.c & * J ^.* * '.O n z '.* * * * * * * ! -.h.Y.r.N.M 5.M N.p.*+4+j+8+3+f f 2 < ",
"+. .+.+. .C ..a+b+(+k Z.s ' j.Q.( x z * * * * * * * * * * / d.H.j.h.:.* * { ;.;.;.;.u.O 1.h.j.Y.|+g.u.] * * ~ ^.;.;.; * * O e.;.h.9.,.* * ^ z B 4 I S h.-.! * = A.x b 9.>.* * 1 1 ) * ) ; * { 1 ^.* * '.}.n z ,.* * { ;.~ J ] J 8.h.j.++r.*.l *.E [.M.p+j+j+3+G++.+.v ",
"+.+.+.+. .C C 0+0+r+0 o q V j.6.6.m O * * ^ ,.,.{ * * ] ,.O :.h.Y.g.:.* * ^ '.>.>.e.c n X g.j.g.x A.}.= * * * * * * * * * > ,.u.J A.e.* * ^ -.N B X 8.^.:.= * > x.x b 1.>.* * 1 _ u.= * * ) '.,.;.* * ,.u.5 z >.* * ] >.}.^.A.X H.x.Q.Y.++5.S *.~.r._.{+8+k+8+G+G++. .",
"+.+.+.+.+.v C i+9+<+0 &.q [.~.s.++T -.* * ^ }.}.e.^ * * ; O }.H.j.g.-.* * ^ '.,.>.O z N 8.h.t.g.F 9.{ * = > > > > > > ) * * d.O d.d.}.* * ^ }.z z -.^.] / * * ! Q.S a B e.* * ,.c z J * = }.e.}.~ * * ,.-.8.n e.* * ^ e.}.:.9.^.8.d.t.j.6.t u S 5.b.*+5+q+i+i+G++.+. .",
"+.+.+.+.+. .Z i+i+s+H &.L O.N.r.s.g.A.* * ! ^.U 1.u.: * * ) ;.A.8.u.;.* * * * * * * * * * * X t.t.8.* * : e.O O c O e.u.& * & }.8.h.^.* * * * * * * * * * * ( Y.*.j a F u.* * c n U 1.! J u.;.9.d.* * e.^.X U -.* * * * * * * * * * * g.~.l ).5.r.K.!+!+[+q+m++.+. . .",
"+.+.+.+.+.+.+.p+q+s+X.%.7.W.f.c.P.6.x.* * { t.g.g.X n ] * * = { 6.s.g.* * * * * * * * * * * 8.h.g.) * ' ;.d.H.H.1.B 8.;.! * * { t.Y.X * * * * * * * * & r { 6.[.r.E l S U * * -.B x u x 4 x Q.h.: * * z U t.x B * * * * * * * * * * * t.S I j.5.5.@+~+'+4+p+p+C C C f ",
"+.+.+.+.+.+.G+p+[+_+X.Z.M.&.o.Z.f.r g.H.A.x.j.).r.).| A.u.}.:.x.*.p.Y.d.^.-.}.e.>.>.>.O -.z X Q.! g.h.h.Q.j.Y.Y.g.~.6.j.g.X B t.j.S S T B 5 5 U 8.X X F u *.[.Y 5.p ~.j.T 5 5 X b a ~.~.t ~.6.~.t.;.N B I ~.).b 5 -.z }.O O }.u.z N X Q.j S ~.~.j.(.f.!+4+m+m+f 2 2 2 ",
"+.+.+.+.+.+.G+p+5+_+F.k %+/.i a._.(.6.Q.g.j.~.M V.w.~.Y.g.h.g.g.~.5.~.t.H.H.A.9.z u.A.d.x.I I j.( V O.r.O.++O.c.P.[.P.(.[.*.l ++V M [.V l a l ~.*.*.u u j M b.Y N.M M s.l u u l j E 6.5.p r.r.M ~.I x b l *.E a b | 4 U N U 8.U m t.I S ).Y.N.6.Q.P.M.]+[+m+9+` C f v ",
"+.+.+.+.+.+.G+m+m+_+#.k =.D a.D.%.L V r ++r.b.W Q I.z.w.p.p.P.s.~ 9.g.F B x g.j.j.6.++[.O.[.P.p.V c.4.4.f.*+4.E._.f.c.!.c.f./ P.7.q.f.c.!.e e / !.R p E t M [.R P.(.P.(.r M p p W / (.P.p.(.p.V *.l 6.t j E t a b a S I g.Y.++~.*.s.~.~.s.r.G.i.`.f.T.*+j+8+9++.+. .+.",
" . .+.+. .+.+.i+2+r+, i a.a./.i /.4._.c.q.f.%.q %.o.D.&.f.&.m.M.1+N.O.5.~.] J ] x ^ ! ~.[.7.%.%._.H i /.a.X.F.%+=.=.k _._.Z._.M._._.%.q q %.%.o %.q c.c.L 7.-+q.f.&.c.f.c.e R e q _._.f.c.c.7.c.c.7.7./ V V R M M R R R p.P.7.7.-+P.V R q.f.C.C.T.>+/.~+l+b+b+G+G++.+.",
" . . . . .+. .m+m+[+r+$+)+#.X.X.#.#.#.=.H F.k.)+@.$+#.#.)+h @.$. . .k.%+%+4.f._._.^+$ =.)+G+, , $+$.+.$.$., +.G+G+, $+F.X.h $+)+)+X.=.0 H =.i i i X.X.X.=.Z.Z.H #.#.#.i $ s s k 0 i X.X.X.i k k =.H k H %+k s s 4.s 0 H H =.%+=.X.X.H H #.k.@.@., G+, ]+a+0+b+G+G+G++.",
" . . . . .+.F.q+p+2+9+5+r+(+(+(+(+r+<+(+r+n+(+5+p+(+r+<+s+s+s+_+_+<+<+_+)+$+,+E+,+E+)+)+_+s+s+s+_+)+)+$+$+)+$.$.)++._+)+E+E+G+G+_+s+$+r+_+)+)+)+)+)+)+$+)+_+_+)+_+_+_+s+_+s+<+<+s+<+r+r+r+r+r+(+r+(+(+5+p+n+n+r+r+r+<+<+<+<+<+<+r+<+<+r+n+p+m+m+m+5+[+8+j+j+b++.+.+.+.",
" . . .+.+.+.t+-+}+i+9+m+p+n+n+p+4+p+4+q+4+i+o+2+i+t+[+p+n+n+n+(+n+[+}+p+n+s+r+5+r+(+n+5+4+5+5+5+r+s+s+s+_+_+_+s+(+)+r+s+X.)+G+)+p+n+r+p+r+(+<+r+r+<+s+_+<+(+(+(+n+n+n+(+n+5+5+p+p+p+4+[+q+m+m+[+[+[+[+m+i+i+o+}+q+m+q+m+m+q+}+}+:+o+g+9+8+8+j+0+j+3+a+a+b+b+a++.+.+.+.",
"+. . .+.+.+.7+e+/+q+p+5+4+p+}+}+}+9+}+4+}+i+g+:+b+|+n+4+5+:+q+n+m+g+i+}+4+n+5+4+4+4+4+m+4+5+5+(+s+<+X._+_+_+_+s+s+s+s+s+s+)+F+r+n+s+<+n+r+r+r+<+s+s+s+r+(+r+(+r+r+r+r+(+n+(+n+n+5+n+n+5+p+[+m+p+5+p+p+5+p+p+p+[+m+2+}+}+[+q+o+q+o+o+i+i+9+k+0+8+0+3+b+a+j+j+j+G+G+G++.",
"+. .+.+.+.!+d+1+6+~+5+n+i+}+i+9+9+9+i+i+8+a+j+k+b+9+8+9+[+9+o+m+}+i+}+i+(+m+i+i+m+[+m+m+[+p+5+(+4+q+s+<+s+<+<+s+_+s+s+_+X.s+<+<+<+r+(+s+<+<+<+s+s+s+<+n+n+<+(+r+r+<+r+(+(+r+r+n+n+n+n+n+5+p+p+p+5+5+5+5+p+5+n+4+4+o+}+o+4+[+4+m+o+:+2+i+i+9+8+0+j+8+k+j+j+3+8+G++.+.+.",
"(+#.s+r+%+/+1+1+7+t+r+)+G+$.$.$+)+$+$+)+)+_+_+)+)+)+_+$+$.$+$.$.$.$.$+$+, $.$.$.$.$.$+@.@.$+@.} @.v } v v } v  .} }  . .v v } } , , , D+, , , +.+., , , , , , , , +., , , , , , , , , , , , , , , , , , ,+, ,+,+,+,+,+,+,+,+,+$.$.$+$+@.k.@.)+)+)+)+k.)+)+)+)++.+. . .",
"/+e+~+{+e+6+e+]+o+(+$++.+.+.+.+.+.+.+.G+G+G+G++.+.G+G+G+G+G+G+G+G+G+G+G+G+G+G++.+.G++. . . . . . .}  . .C f f f f f f f f 2 f C `  . . . .+.+.+.+.+.+.+.+.+. . . . . .+.G+G+G+G+G+G+G+G+G+G+G+G+G+G+G+G+G+G+G+G+G+G+G+G+G+G+G+G+G+G+G+G+ . .+.+. .+.+.+.+.+.+.+.+.+. .",
"]+]+5+r+t+]+(+,+G+F+G++.+.+.+.+.G+G+G++.+.G+G+G++.+.+.+.G+G+G+G+G+G+G+G+G+G+G+G+G++.+.+.+.+.+.+.+.+. .` v 2 2 2 2 2 2 2 2 f G C C ` ` ` `  . . .` ` `  . . . . . .+.+.+.G+G+G+G+G+G+G+G+G+G+G+G+G+G+G+G+G+G+G+G+G+G+G+G+G+G+G+G+G+G+v f +.G+G+G++.+.+.+.+.G++.+.+.+.+.",
"(+r+(+s+{+s++.+.+.+.+.+.+.+.+.+.G+G+G++.+.+.G+G+G++.+.G+G+G+G+G+G+G+G+G+G+G+G+G+G++.+. . . .+.+.+. .v f f f 2 < < < < < < 2 f C Z ` `  . .+. .` Z C D 3 g d d 9 9 9 9 9 9 d d g 3 D v , +.G+G+G+G+G+G+G+G+G+G+G+G+G+G+G+G+G+G+G+G+G+3 6 D G+G+G++.+.+.+.+.G++.+.+.+. .",
" . .} } ` ` `  . .+.+.+.+.+.+.+.+.G+G++.+.+.+.G+G+G++.G+G+G+G+G+G+G+G+G+G+G++.+.+.G+ .f f }  . . .` v f < 2 f 2 < 2 2 2 2 2 f C ` G+G+ .f 3 d 9 8 8 7 7 7 7 7 7 7 7 7 7 7 7 7 7 7 7 8 8 9 d 6 D } G+G+G+G+G+G+G+G+G+G+G+G+G+G+G+G+f 6 6 f  . . . . .+. . . . .` ` } v ",
"+. . . . . . . . .+.+.+.G+G+G+G+G++.+.G+G+G+G+G+G+G+G+G+G+G+G+G+G+G+G+G+G++.+.G+G+} 2 6 3 ` +.+.+. .` v v C v v f f C v C v `  ...3 d 9 8 7 7 7 7 7 7 7 7 7 7 7 7 7 7 7 7 7 7 7 7 7 7 7 7 7 7 8 9 d 6 D +.G+G+G+ . . . . . . .` ` 3 6 [ C f C C f f f f C C f f f C  ."};
