/* XPM */
static const char * fs2_btn_pxo_xpm[] = {
"114 113 256 2",
"  	c #353334",
". 	c #020102",
"+ 	c #090809",
"@ 	c #282728",
"# 	c #302F30",
"$ 	c #2E2D2E",
"% 	c #3A393A",
"& 	c #363536",
"* 	c #464546",
"= 	c #444344",
"- 	c #414041",
"; 	c #4A444B",
"> 	c #333234",
", 	c #3C3B3D",
"' 	c #383739",
") 	c #3D3848",
"! 	c #373340",
"~ 	c #3A3643",
"{ 	c #322E45",
"] 	c #423F4F",
"^ 	c #49475D",
"/ 	c #766EFB",
"( 	c #7A71FF",
"_ 	c #7A72FF",
": 	c #7C73FF",
"< 	c #7C74FF",
"[ 	c #655FC5",
"} 	c #5D58A9",
"| 	c #423F67",
"1 	c #4C4974",
"2 	c #36344F",
"3 	c #3C3A55",
"4 	c #3C3B4C",
"5 	c #302F3C",
"6 	c #766FFF",
"7 	c #7770FF",
"8 	c #7871FF",
"9 	c #7770FC",
"0 	c #756EF9",
"a 	c #736CF3",
"b 	c #7972FF",
"c 	c #7B74FF",
"d 	c #716BEC",
"e 	c #6D67E0",
"f 	c #6963D2",
"g 	c #605BB8",
"h 	c #595699",
"i 	c #524F8C",
"j 	c #343445",
"k 	c #070709",
"l 	c #313137",
"m 	c #1A1A1D",
"n 	c #151517",
"o 	c #28282B",
"p 	c #57575B",
"q 	c #3E3E3F",
"r 	c #DDDDDE",
"s 	c #34353E",
"t 	c #323338",
"u 	c #36373C",
"v 	c #313236",
"w 	c #3D3E42",
"x 	c #46474B",
"y 	c #4F5054",
"z 	c #292A2D",
"A 	c #2F3033",
"B 	c #2D2E31",
"C 	c #313235",
"D 	c #303134",
"E 	c #333437",
"F 	c #323336",
"G 	c #353639",
"H 	c #3B3C3F",
"I 	c #393A3D",
"J 	c #3F4043",
"K 	c #434447",
"L 	c #414245",
"M 	c #383B42",
"N 	c #0E0F11",
"O 	c #333539",
"P 	c #2B2C2E",
"Q 	c #4A4B4D",
"R 	c #242629",
"S 	c #37393C",
"T 	c #444649",
"U 	c #030405",
"V 	c #1A1C1E",
"W 	c #1C1E20",
"X 	c #212325",
"Y 	c #232527",
"Z 	c #4E4F50",
"` 	c #010304",
" .	c #17191A",
"..	c #1F2122",
"+.	c #010F08",
"@.	c #000D06",
"#.	c #031009",
"$.	c #071C11",
"%.	c #081F13",
"&.	c #020B06",
"*.	c #092114",
"=.	c #0E1913",
"-.	c #000C05",
";.	c #05130B",
">.	c #000A04",
",.	c #030D07",
"'.	c #070C09",
").	c #06190D",
"!.	c #0A2313",
"~.	c #0D2C18",
"{.	c #0B2514",
"].	c #0D2315",
"^.	c #78B58D",
"/.	c #73A785",
"(.	c #020804",
"_.	c #0D2C17",
":.	c #0C2815",
"<.	c #0C2715",
"[.	c #0D2916",
"}.	c #385B44",
"|.	c #2D4836",
"1.	c #497156",
"2.	c #609471",
"3.	c #689F7A",
"4.	c #000A03",
"5.	c #040E07",
"6.	c #0D2A16",
"7.	c #0E2B17",
"8.	c #0C2012",
"9.	c #203326",
"0.	c #375540",
"a.	c #578666",
"b.	c #000702",
"c.	c #020904",
"d.	c #16241A",
"e.	c #081F0E",
"f.	c #09200F",
"g.	c #000C03",
"h.	c #000802",
"i.	c #010E04",
"j.	c #010502",
"k.	c #081E0D",
"l.	c #09210F",
"m.	c #051208",
"n.	c #081C0D",
"o.	c #071E0C",
"p.	c #030C05",
"q.	c #0A1E0E",
"r.	c #141915",
"s.	c #000601",
"t.	c #09200D",
"u.	c #0A1C0D",
"v.	c #000801",
"w.	c #000A01",
"x.	c #040F05",
"y.	c #0A150B",
"z.	c #000400",
"A.	c #000200",
"B.	c #030703",
"C.	c #010201",
"D.	c #020700",
"E.	c #030502",
"F.	c #333532",
"G.	c #060B01",
"H.	c #232421",
"I.	c #2B2C28",
"J.	c #040500",
"K.	c #0E1001",
"L.	c #262B06",
"M.	c #2E3201",
"N.	c #1C1F01",
"O.	c #3E4300",
"P.	c #3A3D0C",
"Q.	c #4F5001",
"R.	c #4B4B27",
"S.	c #070706",
"T.	c #1D1D1A",
"U.	c #3D3D37",
"V.	c #282824",
"W.	c #2E2E2A",
"X.	c #1B1B19",
"Y.	c #1F1F1D",
"Z.	c #222220",
"`.	c #383835",
" +	c #1A1A19",
".+	c #46453F",
"++	c #12110E",
"@+	c #262522",
"#+	c #1B1914",
"$+	c #452900",
"%+	c #27231D",
"&+	c #2C2925",
"*+	c #1F1B16",
"=+	c #231F1A",
"-+	c #020100",
";+	c #030201",
">+	c #2B2621",
",+	c #0D0C0B",
"'+	c #141312",
")+	c #373533",
"!+	c #3F3D3B",
"~+	c #21201F",
"{+	c #272625",
"]+	c #484746",
"^+	c #6F3401",
"/+	c #68584A",
"(+	c #281506",
"_+	c #191512",
":+	c #58534F",
"<+	c #322B26",
"[+	c #49403A",
"}+	c #574D46",
"|+	c #252220",
"1+	c #353230",
"2+	c #3B3029",
"3+	c #3F342D",
"4+	c #433831",
"5+	c #433B36",
"6+	c #31251E",
"7+	c #302722",
"8+	c #483C35",
"9+	c #0A0807",
"0+	c #332D2A",
"a+	c #3E3835",
"b+	c #443E3B",
"c+	c #797370",
"d+	c #4D4947",
"e+	c #382B25",
"f+	c #38312E",
"g+	c #46413F",
"h+	c #68615E",
"i+	c #351104",
"j+	c #4C4441",
"k+	c #3B3533",
"l+	c #3E3A39",
"m+	c #2E2928",
"n+	c #070100",
"o+	c #3E1A14",
"p+	c #0E0100",
"q+	c #170301",
"r+	c #520301",
"s+	c #6F0502",
"t+	c #240201",
"u+	c #3A0201",
"v+	c #040303",
"w+	c #050404",
"x+	c #262424",
"y+	c #2D2C2C",
"z+	c #B7B6B6",
"A+	c #434343",
"B+	c #313131",
"C+	c #2A2A2A",
"D+	c #060606",
"E+	c #030303",
"F+	c #010101",
"G+	c #000000",
"A.G+G+G+G+G+G+G+A.G+A.z.z.s.v.v.s.A.A.z.v.s.z.A.z.z.A.A.G+A.G+G+G+A.A.A.A.G+A.G+A.s.s.z.z.s.z.z.A.A.A.G+G+G+G+G+A.G+G+A.v.4.z.A.&.).*.*.).%._._.6._._._._._._._._._._._._._.~._._._._._.;.G+z.A.A.G+G+G+A.A.z.z.z.h.h.h.z.G+A.b.v.s.",
"G+A.G+G+G+G+G+G+G+G+A.z.A.s.4.4.z.G+G+z.w.v.z.z.z.z.A.A.A.G+A.A.G+z.z.A.A.G+A.A.z.v.v.s.s.b.b.z.A.z.A.G+G+G+G+G+G+A.A.G+h.4.b.A.z.s.#.$.%.%.{.[._._.6._._.6._.6._._.6.6._._._._._.~.~.!.j.G+z.z.A.G+G+G+G+A.z.z.z.4.4.4.s.G+A.b.4.b.",
"G+G+A.G+G+G+G+G+G+G+A.z.A.b.4.4.b.G+G+z.v.v.z.z.z.s.z.A.z.A.C.0+1+E.z.A.G+G+G+A.z.s.s.s.s.s.s.z.z.s.A.G+G+G+G+G+G+G+A.A.b.g.b.z.s.z.z.5.*.%.%.%.{.6._.6._.6.6.6.6.6._.6.6._.6.6._._._.;.G+A.z.z.A.G+G+G+G+A.z.z.z.4.4.4.b.G+A.s.v.v.",
"G+G+G+A.G+G+G+G+G+G+A.z.A.v.4.4.s.G+G+z.v.v.z.z.s.s.z.z.v.z.,+h+h+@+A.A.G+G+G+A.z.z.z.s.s.z.z.z.z.s.A.G+G+G+G+A.G+G+G+A.v.4.s.z.z.z.s.n._.<.*.%.%.*.:.6.6.6.6.6.6.6.6.6.6.6._._.6.~.!.j.G+A.z.z.A.G+G+G+G+A.z.z.z.h.4.4.b.G+A.s.h.v.",
"G+G+G+G+A.G+G+G+G+G+z.z.A.s.v.h.b.G+G+z.s.s.z.z.s.s.z.z.v.z.S.a+h+@+A.G+G+G+G+A.z.s.s.s.s.s.s.s.z.s.z.A.G+A.z.A.G+G+G+A.h.4.z.A.z.A.m.6._.6.[.{.%.%.%.!.[.6.6.6.6.6.6.6._._.6.6._._.#.G+A.z.v.s.A.G+G+G+G+G+z.z.A.v.v.v.s.G+G+s.w.v.",
"G+G+G+G+G+A.G+G+G+A.z.z.A.z.v.v.b.G+G+z.s.s.z.z.s.s.z.z.v.s.C.>+#+C.A.A.G+G+G+A.z.s.s.v.v.v.s.s.z.s.z.A.G+s.v.z.G+G+G+A.v.4.s.A.A.B.!._.6.6.6.6.<.*.%.%.*.<.6.6.6.6.6.6.6.6.6.6.7.l.z.G+G+A.v.v.A.G+G+G+G+G+A.z.A.s.v.v.z.G+G+s.v.v.",
"A.A.A.A.G+G+A.G+G+G+z.z.A.z.v.v.b.G+G+z.s.s.z.z.s.s.A.z.v.z.++T.z.z.A.A.G+G+G+A.z.z.z.z.z.z.z.z.z.s.z.A.A.z.h.s.G+G+G+A.h.4.s.A.A.)._.6.[.6.6.6.6.[.{.%.%.%.!.:.6.6.6.6.6.6.6.6.:.x.G+G+G+A.z.s.A.G+G+G+G+G+A.z.A.s.v.v.z.G+G+s.v.v.",
"z.A.A.A.A.G+G+A.G+G+A.z.A.z.v.v.s.G+G+A.s.v.z.z.s.z.A.A.s.z.k+w+z.z.z.G+G+G+G+G+A.z.z.z.z.z.z.z.z.z.z.A.A.A.b.z.G+A.#.#.h.4.z.G+,.:._.6.[.6.[.6.[.[.6.:.!.%.%.%.{.6.6.[.6.6.6._.n.A.G+G+G+A.z.z.A.G+G+G+G+G+A.z.A.s.v.v.z.G+G+z.v.v.",
"s.A.A.A.A.A.G+G+A.G+A.z.A.z.4.w.z.G+G+A.v.v.z.z.s.z.A.A.s.X.`.A.z.z.z.A.G+A.G+G+A.A.A.A.A.A.A.A.A.z.A.A.A.A.z.A.G+c.%.*.;.4.A.j.8.6.[.6.[.[.[.[.[.[.[.6.[.<.*.%.%.*.<.6.6.6.6.{.c.G+G+G+G+A.z.A.G+G+G+G+G+G+A.z.z.b.v.v.z.G+G+s.v.v.",
"s.A.A.G+A.A.A.G+G+G+A.z.A.z.4.4.z.G+G+A.b.s.z.z.s.z.A.A.b.d+,+A.z.z.z.A.A.G+A.G+G+G+A.A.A.A.A.A.A.A.A.A.A.A.A.A.G+F+#.%.*.).j.).6.[.:.[.[.:.[.6.6.[.[.[.[.[.[.{.%.%.%.{.:.6.6.;.z.A.G+G+G+A.s.z.G+A.A.G+G+G+A.A.z.z.z.z.A.G+G+s.4.v.",
"v.z.G+G+G+G+G+A.G+G+A.z.z.z.v.v.z.G+G+z.s.s.z.z.s.z.A.A.'+1+A.A.z.z.z.A.G+A.G+G+G+G+G+G+G+G+G+A.A.z.z.A.A.A.A.A.A.A.G+5.%.%.$.{.[.:.:.:.[.[.:.[.:.[.[.[.[.[.[.6.<.*.%.%.*.<.8.j.z.A.A.G+G+A.z.A.G+G+A.A.G+A.A.A.A.A.G+A.G+G+G+s.4.v.",
"v.z.A.G+G+G+G+G+A.G+A.z.z.z.A.A.A.G+G+z.b.v.z.z.s.z.A.C.}+,+A.A.z.z.z.A.A.G+A.G+A.G+G+G+G+G+G+G+A.A.A.A.A.A.A.A.A.A.G+A.5.$.*.*.<.[.:.[.:.[.:.:.[.:.[.[.[.:.:.[.[.[.{.%.%.*.).j.G+G+G+G+G+A.z.A.G+G+G+A.A.A.A.A.A.G+G+A.G+G+G+z.v.b.",
"v.z.A.G+G+G+G+G+G+G+A.A.A.G+G+G+G+G+G+z.v.v.z.z.z.z.A.'+:+C.A.A.A.z.A.z.A.G+G+A.G+A.G+G+G+G+A.A.A.A.A.A.A.A.A.A.G+G+G+G+z.$.*.%.*.<.:.[.:.:.:.:.:.[.:.[.[.:.[.:.:.:.[.<.!.%.*.$.#.C.G+G+G+A.z.A.G+A.A.G+A.A.G+A.A.A.G+G+G+G+G+A.z.s.",
"v.z.A.G+G+G+G+G+G+G+A.A.G+A.G+G+G+G+G+A.b.s.z.A.G+A.-+d+'+G+G+G+A.A.A.A.A.A.A.G+A.G+A.A.G+G+A.A.A.A.G+A.A.A.A.A.G+G+G+G+m.<.{.*.%.%.{.:.:.:.:.:.:.:.:.:.:.:.:.:.:.:.[.:.!.5.).*.%.).(.G+G+A.z.z.A.G+G+A.G+G+A.G+A.G+G+G+G+G+G+G+G+z.",
"z.z.A.G+G+G+G+G+G+A.A.A.G+G+A.A.A.G+G+G+A.z.z.A.G+G+_+:+F+G+G+G+G+A.A.A.A.A.A.G+G+A.G+A.G+A.A.A.A.G+G+G+G+A.A.A.G+G+G+&.!.:.:.{.*.%.%.{.:.:.:.:.:.:.:.:.:.:.:.:.:.:.:.:.m.G+A.#.$.*.%.;.` G+z.s.z.G+G+G+G+G+G+A.G+G+G+G+G+G+G+G+G+A.",
"z.A.G+G+G+G+G+G+G+G+G+G+G+G+G+A.G+G+G+G+G+A.z.z.A.w+}+'+G+G+G+G+G+A.A.G+A.A.A.G+G+G+A.G+A.z.A.A.A.A.A.G+A.A.A.A.A.G+j.q.:.:.:.:.{.%.%.%.{.:.:.:.:.:.:.:.:.:.:.:.:.:.6.q.C.G+A.z.p.;.%.*.$.,.z.z.A.G+G+G+G+A.G+A.s.z.z.z.A.G+G+G+G+G+",
"z.A.G+G+G+G+A.G+G+G+G+A.A.A.G+A.A.G+G+G+G+G+A.A.E+j+|+A.G+G+G+G+G+z.z.A.A.A.A.A.A.A.z.z.z.s.z.z.A.A.A.A.A.z.z.z.A.A.).[.<.<.<.:.:.{.*.%.%.!.:.<.:.:.:.:.:.:.:.:.:.[.{.&.G+A.A.z.z.A.&.$.*.*.5.G+G+G+G+G+G+A.z.z.s.4.4.v.z.G+G+G+G+A.",
"z.A.A.A.G+A.A.G+G+G+A.s.b.s.s.z.A.A.G+G+G+G+G+C.f+W.G+A.G+G+G+G+G+z.z.A.A.A.A.A.A.A.A.j.j.C.E+U D+D+U U D+D+S.D+D+'.8.8.q.].].].8.8.{.*.$.%.!.:.:.:.:.:.:.:.:.<.:.:.;.G+G+A.A.A.A.G+G+C.;.).(.A.A.G+G+G+G+A.v.v.z.s.4.s.G+G+G+G+A.A.",
"A.A.G+G+A.G+G+G+G+G+s.4.h.4.v.v.A.G+A.G+G+G+G+V.&+G+G+G+G+G+G+G+G+z.z.G+E+D++ N N n V ..X R R R R R R R R R Y Y Y X X X X X X ....W W V  . .=.=.8.8.{.{.<.<.<.<.:.q.j.A.A.A.G+G+G+A.A.G+G+j.A.z.z.G+G+G+G+G+z.s.z.G+z.A.G+G+A.A.A.G+",
"A.G+G+G+G+G+G+G+G+G+s.4.z.s.v.s.A.G+G+A.G+G+~+a+F+G+G+G+G+G+G+E++ n W o A B P P P @ @ {+H.Z.~+~+Y.Y.T.T.X.X.X.X.X.X.X.X.T.T.T.T.T.T.Y.Y.~+........W V  .r.=.=.].!.c.G+A.A.A.G+G+G+A.A.G+G+G+A.A.A.G+G+G+G+G+A.z.G+A.G+A.A.A.A.A.A.A.",
"G+G+G+G+G+G+G+G+G+G+z.s.G+A.v.A.G+A.G+G+A.D+j+D+G+G+G+F+w+N X t G ' B+C+H.T.#+'+++++,+,++ 9+S.S.w+w+v+E+E+E+E+E+E+E+E+E+v+w+w+S.S.9++ ,+,+++'+#+X.Y.~+H.H.X W  .'+k U C.A.A.A.A.G+z.A.G+G+G+G+A.G+G+G+G+G+G+G+G+G+A.A.G+A.A.A.A.A.z.",
"G+G+G+G+G+G+G+G+G+G+A.A.G+A.z.A.G+G+A.G+F+d+X.A.A.j.,+X S q B+H. +'+,++ S.E+G+G+G+G+. v+w+S.S.+ ,+,+++'+++,+,+,+,+++,+,+,+,+,+k k S.w+E+F+G+G+G+G+E.9+,+'+ +~+@+@+~+m '+k E+A.A.A.A.A.G+G+G+A.A.A.G+G+G+G+G+A.A.G+G+A.A.G+A.A.A.A.v.",
"G+G+G+G+G+G+G+G+G+G+G+A.G+G+A.G+w+S.,+S.x+b+A.s.,+o & $ ~+'+++S.. G+G+G+v++ N n m m W x+&+m+{+m+0+0+0+f+<+m+m+m+m+<+<+W.$ y+y+C+C+P C+@ ..W V n N S.E+G+G+G+. + _+Z.@+@+X.'+S.A.A.A.A.G+G+G+A.A.A.G+G+G+G+G+G+G+G+A.A.A.A.A.A.A.A.z.",
"G+G+G+G+A.A.A.G+G+G+A.A.G+G+A.,+7+j+c+}+p +++ ..# {+X.++S.. G+G+9+++X.~+@ y+z y+$ @ @ m+m+m+m+m+0+0+0+0+<+m+C+C+W.<+<+0+$ $ $ $ B+B+# D D >     B+  $ ~+X.'+D+G+G+. ,+#+Z.~+n ,+E+A.A.G+G+G+G+G+G+G+G+G+G+G+G+G+G+G+G+G+A.A.A.A.A.G+",
"G+G+G+G+A.A.G+G+G+G+G+G+G+A.C.=+0+/+/+[+W.++# # X.++S.-+G+v+++*+m+m+m+$ 0+m+@ C+@ {+m+m+m+0+0+0+f+0+1+0+m+$ y+y+0+0+0+0+W.# # # # A $ B # $ y+> & % % `.& > P m ,+. G+G++ T.H. +N U A.G+G+G+G+G+G+G+G+G+G+G+G+A.A.G+G+G+G+A.A.G+A.A.",
"G+G+G+G+G+A.A.G+G+G+G+G+G+G+++7+4+/+3+_+Y., I._+,+F+G+w+_+&+1+1+0+m+m+# 1+0+$ # # f+f+f+k+f+3+4+k+)+a+f+m+m+m+m+0+<+<+<+0+)+l+l+' % % ' & > >   & & % & & q q % E @ n v+G+;+'+|+Y.'+k G+G+G+G+A.A.G+G+G+A.A.z.s.s.A.G+G+A.A.A.A.G+A.",
"G+G+A.A.A.A.A.A.A.A.G+G+A.C.%+7+4+8+2+3+1+W.'+9+G+G+'+m+f+k+1+0+<+<+k+b+b+5+a+5+a+5+k+3+f+2+e+2+2+2+3+0+m+0+<+m+0+0+0+0+f+a+, q !+q = A+= * x ]+g+- , )+1+1+, - ]+= , o N G+G+,+~+Z.n k G+G+G+A.A.G+G+G+G+A.z.s.s.A.G+G+G+A.A.A.G+G+",
"G+G+A.A.A.A.A.A.A.z.z.z.b.S.6+6+7+<+}+/+=+'+9+G+G+#+f+5+a+a+0+0+e+5+d+d+b+4+3+f+2+0+e+7+7+7+7+2+e+e+2+0+7+<+m+m+0+<+0+)+)+1+)+`.`.l+q - = * Q Q d+d+* * g+q q w , * y T w X C.G+S.=+Z.'+E+G+G+G+A.G+G+G+G+G+G+A.A.A.G+G+G+A.A.A.A.A.",
"G+A.A.A.A.A.A.A.A.A.z.z.s.'.>+%+>+4+c+d+#+,+;+G+_+f+5+b+l+1+<+f+2+5+j+[+3+e+e+7+7+7+6+%+>+7+7+7+<+6+<+7+>+>+@+@+>+%+%+&+m+m+&+$ W.0+  & % q T * * ]+* * * Q Z T & ' T Q Q J X . G+,+|+Y.,+F+G+A.G+G+G+G+G+G+G+G+G+G+G+G+G+G+A.A.A.A.",
"G+G+G+G+A.A.A.A.A.A.A.A.-+i+%+%+7+8+h+a+'+;+G+'+1+5+b+l+1+0+0+f+3+4+e+2+e+6+e+e+e+6+6+>+7+>+7+&+7+6+7+>+>+>+>+%+%+%+%+>+|+{+|+%+1 3 %+C+# > ' I , - - A+- * Q x , > # I T L L X G+G+++@+#+S.A.A.A.G+G+G+G+G+G+A.A.A.G+G+G+G+G+G+G+G+",
"s.z.z.A.A.A.A.A.A.A.A.G+u+r+*+=+7+7+>+~+9+G+,+m+b+b+5+)+<+0+f+[+[+4+2+e+e+e+e+2+e+6+e+e+e+0+0+0+0+e+<+e+<+m+<+<+&+0+m+&+&+m+x+&+2 f | %+I.$ A D B+  & % l+q q q % & $ A S L L H n G+v+=+H.'+C.A.A.G+G+G+G+G+G+A.A.A.G+G+G+G+A.G+G+G+",
"v.4.v.A.A.A.A.A.A.G+A.n+s+p+++*+_+#+++9+-+v+=+k+!+b+k+f+<+j+c+c+h+8+4+3+3+2+3+3+3+3+2+3+3+4+k+`.k+3+f+f+f+1+k+f+1+f+0+f+0+6+| e ! ) [ 1 W.A A # y+y+> > > # & & & & > # > & I E F D+G+++V.X.S.A.G+G+G+G+G+G+G+A.A.A.G+G+G+G+A.A.G+G+",
"4.v.b.z.A.A.A.A.G+G+G+A.r+r+S.#+|+Z.9+;+G+++0+a+l+a+f+f+b+/.r z+h+j+5+5+5+4+5+5+8+8+4+4+8+[+b+!+l+4+a+`.k+a+a+a+a+a+k+k+f+) ] e e ~ ) f i 1+> > # $ # B+$ y+# > > > > B+> > G A '  .G+v+=+Z.++F+G+G+G+G+A.A.A.A.A.G+G+G+G+G+A.A.A.A.",
"4.s.A.A.A.A.A.A.G+G+G+A.-+t+q+++1+V.++F+v+@+1+l+a+)+0+f+p z+z+c+}+j+[+g+b+8+8+8+b+8+[+b+5+b+!+!+l+a+a+% a+5+a+a+a+a+l+a+^ d h a+[ a 1 q [ } % ' & > E C > # B+# B+> 1+& % ' & E % # . G+_+V.r.v+G+G+G+G+A.A.A.A.A.A.G+G+G+A.A.A.z.v.",
"z.s.A.G+G+G+G+G+G+G+G+A.-+t+p+n )+T.9+G+++0+1+l+)+1+0+k+:+c+h+}+8+j+d+j+g+b+b+5+b+b+b+5+!+b+b+- !+l+l+!+l+5+a+a+a+a+a+a+[ c _ g !+[ ( 1 !+[ g q % I G G & # 1+1+B+B+& % q q - J I - '+G+,+@+X.+ G+G+G+G+z.A.A.A.A.A.G+G+G+A.z.z.s.h.",
"G+G+G+A.G+G+A.G+G+G+A.;+r+u+G+Y.# #+. G+Y.0+)+a+)+# )+!+d+:+d+j+j+j+j+b+g+b+b+b+b+g+U.= g 1 .+]+A+!+- !+5+5+a+a+a+a+- g h f _ _ g K } _ h x 1 - q q , H G > > > C u ' , = * x Z q J o G+,+<+>+*+++. G+A.z.A.A.z.A.A.G+G+G+A.A.z.z.h.",
"G+G+G+G+G+G+A.G+G+A.A.u+r+G+G+&+I.'+G+U z D ' ' B+# )+b+]+d+j+[+[+[+j+g+g+g+b+g+b+U.T [ < e y .+* = - !+a+a+a+a+k+3+g < d i f b _ g x g 9 1 .+A+J w J L G % O F O H I q Q Q Q Z Z J # G+#+}+4+6+*+9+A.A.z.A.A.z.z.A.G+G+G+A.A.z.z.4.",
"G+G+G+G+A.A.G+A.A.z.A.q+s+q+U W.@+,+G+N O A B+# y+$ )+g+d+d+j+5+5+[+g+g+[+b+g+j+4+^ e ( 6 ( f * .+]+* !+a+a+4+k+2+i b 6 8 a h [ 7 _ f ^ 1 Q = A+J w J w G I G E S I J = Q Z y p y T H D+,+}+h+0+%+++G+A.z.z.A.z.z.z.A.G+A.A.z.z.z.>.",
"G+G+G+G+G+A.A.A.A.z.z.A.p+u+,+W.~++ G+n O A W.>+>+&+f+5+.+[+[+5+8+g+g+g+[+b+.+5+^ d b 6 6 6 b } b+.+* A+!+l+a+2+| 0 7 6 6 7 / h g ( < g U.- A+- q , U.q ' ' F.F.1+1+q * Q Z y p p Q x N n+:+c+:+0+_+G+A.z.b.z.z.b.z.A.A.G+A.z.z.z.>.",
"G+G+G+G+G+A.z.A.A.s.z.A.n+t+_+W.T.S.G+W O z 3 1 1 1 1 1 1 ^ ^ ; j+[+5+b+g+8+4+1 d ( 6 6 6 6 6 8 h b+Q Q A+b+3+] d 8 6 6 6 6 7 9 } [ f ] !+- !+!+^ i } [ [ [ g } i | - .+d+d+Z p p Q x ..;+>+h+h+<+*+C.A.z.h.s.z.h.s.A.A.G+A.z.z.z.>.",
"G+A.A.A.A.A.z.A.z.z.s.n+r+t+'+I.X.D+G+R t V.i < 8 7 7 6 6 / 0 d f } i ^ 8+3+1 0 8 6 6 6 6 6 6 7 a 1 * Q T U.J f b 6 6 6 6 6 6 7 b h K !+!+U.^ g a ( _ ( b b _ : _ 6 f i Q ]+Z p p Q T P ;+*+0+[+3+=+C.z.z.4.b.z.h.z.A.G+G+A.z.s.s.-.",
"G+A.A.A.A.z.z.z.z.h.z.s+u+G+#+I.#+E+G+o A V.i : 6 6 6 6 6 7 7 7 8 b 7 0 } L 1 9 7 6 6 6 6 6 6 6 8 e ^ A+- l+[ b 6 6 6 6 6 6 6 b f ] U.!+, h / b 7 6 6 6 6 6 6 6 6 7 ( 8 f p d+p p Q J O w+#+7+[+2+,+G+A.z.4.b.s.h.z.A.G+G+A.z.z.s.>.",
"G+A.A.A.A.z.z.z.z.4.s.t+s+q+T.V._+F+F+$ # V.i : 6 6 6 6 6 8 7 6 6 6 6 7 _ d ; 1 9 7 6 6 6 6 6 6 6 _ [ J q g b 6 6 6 6 6 6 6 b e ) f+`., [ _ 7 6 6 6 6 ( _ ( 7 6 6 6 6 6 ( e p y p Q w H U v+*+H.'+#.A.z.A.b.s.s.b.z.A.A.G+A.z.A.z.b.",
"A.A.A.A.A.A.z.A.z.h.b.A.p+u+=+{+'+G+U # A I.i _ 6 6 6 6 / f a 8 7 6 6 6 6 _ [ 0+i ( 7 6 6 6 6 6 6 6 ( } h b 6 6 6 6 6 6 6 _ f ) <+0+I [ b 6 6 6 6 7 7 e g [ 0 b 6 6 6 6 6 ( [ y p Q H w D+G+*+V. +%.;.j.z.A.z.z.z.z.z.A.A.A.z.A.A.A.",
"A.A.A.A.A.A.z.z.z.b.s.A.p+u+%+@+'+G+D+> B I.i _ 6 6 6 7 a ] L h 9 6 6 6 6 7 0 ] <+i _ 6 6 6 6 6 6 6 6 / 9 6 6 6 6 6 6 6 c f ~ 7+W.&+h : 6 6 6 6 ( e 1 u B+> 3 g ( 6 6 6 6 6 7 h :+Q S J + G+#+{+X.%.*.;.b.z.z.z.z.z.z.z.A.A.z.z.A.A.",
"A.A.A.A.A.A.z.z.z.A.A.q+r+q+Z.H.'+G+k > P &+i _ 6 6 6 7 a ) f+2+} 8 6 6 6 6 b i 7+0+} b 6 6 6 6 6 6 6 6 6 6 6 6 6 6 6 _ f ! >+m+&+4 a 7 6 6 6 7 a | W.> > > W.B+[ ( 6 6 6 6 7 f p Z H L + G+_+{+T.,.%.*.).j.A.A.z.z.z.z.A.A.z.A.A.A.",
"A.z.h.h.z.z.z.z.z.A.A.s+r+` |+H.++G+k C B I.i b 6 6 6 7 a ~ f+0+] 0 7 6 6 6 b 1 6+&+1+[ : 6 6 6 6 6 6 6 6 6 6 6 6 6 : f l >+y+&+%+h < 6 6 6 6 ( i W.> E F D D I.1 7 6 6 6 6 7 a p Q w T ,+G+_+H.Y.E+,.%.*.).j.A.A.z.z.A.A.A.z.A.A.A.",
"z.4.-.-.s.z.z.z.A.A.A.n+r+u+|+Z.++G+k C B >+i b 6 6 6 7 a ! <+<+4 0 7 6 6 7 0 ) 6+&+W.u g : 6 6 6 6 6 6 6 6 6 6 6 : [ j I.C+&+I.C+f ( 6 6 6 7 0 3 B+F l t D C # 4 0 7 6 6 6 6 / i x M T N G+'+H.Y.E.G+&.$.*.).(.A.A.z.z.A.z.z.A.A.A.",
"z.-.-.-.h.z.z.z.z.A.A.A.-+q+%+Z.++G++ D P &+i b 6 6 6 7 a ! >+6+} b 6 6 6 _ f >+%+%+y+# s f b 6 6 6 6 6 6 6 6 6 8 [ A @+o |+@+%+2 0 7 6 6 6 ( e t B+D v D A v C u e 8 6 6 6 6 7 h - M T N G+'+H.Y.E.G+G+c.$.*.$.>.A.A.b.b.b.s.z.A.A.",
"z.g.-.-.4.z.z.z.z.A.A.A.t+u+|+Z.++G++ E B I.i ( 6 6 6 7 0 ! =+| / 7 6 6 6 _ 1 =+Z.@ $ v W.3 0 7 6 6 6 6 6 6 6 6 8 i =+@ {+{+@+*+1 _ 6 6 6 6 _ g # # D v A B A C F [ b 6 6 6 6 8 h % s T N G+'+@+~+E.G+G+G+(.$.*.).(.h.4.-.@.@.s.A.A.",
"z.4.@.@.>.z.s.z.z.A.A.t+s+w+~+Z.++G+k E B W.i 8 6 6 6 7 a | h 9 7 6 6 6 < g =+=+~+{+P P I.i 8 6 6 6 6 6 6 6 6 6 7 / | =+H.{+|+#+i < 6 6 6 6 b g $ A A A B+A A E E f ( 6 6 6 6 7 i F.t K N G+'+V.H.E+G+G+A.G+b.).&.z.4.b.h.>.4.s.A.A.",
"z.-.+.#.@.b.h.b.z.A.A.n+r+u+=+~+++G+k > B B+i 8 6 6 6 6 6 0 b 7 6 6 8 < g o =+Y.Y.x+P I.i 7 7 6 6 6 6 6 6 6 6 6 6 8 d 3 T.{+x+#+1 : 6 6 6 6 8 e l B A $ A D B B 5 d 7 6 6 6 7 / ^ F.O L ,+G+'+@ @+. G+G+G+G+G+A.G+A.A.A.A.G+A.A.G+G+",
"z.4.+.#.-.h.4.h.s.A.A.A.-+q+=+Z.'+G+D+# z # i 8 6 6 6 6 6 7 6 6 7 < a i |+*+~+=+=+{+V.i 7 7 6 6 6 6 6 6 6 6 6 6 6 6 _ d 2 *+x+*+3 6 7 6 6 6 7 0 3 y+B B A A B W.3 / 7 6 6 6 7 e w C O J + G+_+I.@+F+G+G+G+G+G+G+G+G+G+G+G+G+G+G+G+G+",
"A.v.g.4.b.s.b.b.z.z.A.G+G+t+=+Z.'+G+E+$ B B+i 8 6 6 6 6 6 7 b : a } { #+|+~+Y.~+~+H.1 0 8 6 6 6 6 6 6 6 6 6 6 6 6 6 6 _ e { =+~+P d 8 6 6 6 6 ( 1 V.B A A A D I.h ( 6 6 6 6 _ g ' C O w k G+_+I.H.F+G+G+G+G+G+G+G+A.z.z.A.A.G+G+G+G+",
"G+z.v.b.z.A.z.z.z.z.A.G+r+r+#+~+'+G+C.B A B+h ( 6 6 6 6 6 a f i 5 *+*+|+|+|+Z.@+=+| 9 ( 6 6 6 6 6 6 8 7 7 6 6 6 6 6 6 6 : f 5 @+I.g : 6 6 6 6 ( e ) W.# # # I.| 0 7 6 6 6 7 9 1 F.A u S U G+#+{+T.F+G+G+G+G+G+G+G+A.z.z.z.A.A.G+G+G+",
"G+z.z.A.G+A.A.z.z.z.A.G+u+r+%+&+=+++G+P t F.h 8 6 6 6 7 0 3 @+=+|+|+|+|+|+{+@ %+| a 8 6 6 6 6 6 6 _ [ 1 0 7 6 6 6 6 6 6 6 : f s V.3 d 8 6 6 6 6 ( e 1 u G 4 i d ( 6 6 6 6 _ h `.t B u v C.. ,+r.++F+G+G+G+G+G+G+G+G+A.A.A.G+G+A.G+G+",
"G+G+G+G+G+G+A.z.z.z.A.G+B.6+4+8+7+_+G+R O B+h ( 6 6 6 7 a 5 |+@ |+~+~+~+@+C+=+| d b 6 6 6 6 6 6 ( d 2 *+i _ 7 6 6 6 6 6 6 6 _ f l %+1 8 7 6 6 6 6 ( ( e e a _ 7 6 6 6 6 < [ u G t B I P G+w+,+#+*+++G+G+G+G+G+G+G+G+G+G+G+G+G+G+A.G+",
"G+G+G+G+G+G+A.z.z.A.A.&.y.=+<+}+a+_+G+X O W.h _ 6 6 6 7 0 ! |+@ |+Z.Y.=+V.I.3 d b 6 6 6 6 6 6 8 0 | V.@ @ g b 6 6 6 6 6 6 6 6 : g & F.i 0 ( 6 6 6 6 6 8 8 7 6 6 6 6 7 b [ 4 E S u l I X G+,+=+%+>+=+F+G+G+G+G+G+G+G+G+G+G+G+G+G+G+A.",
"G+G+G+G+G+G+A.A.z.c.;.f.n.#+a+c+}+>+G+V u W.h : 7 7 7 8 0 j |+{+@ {+|+{+>+4 d b 6 6 6 6 6 6 6 _ h # C D # t f : 6 6 6 6 6 6 6 6 : } !+U.1 e ( ( 7 6 6 6 6 6 6 6 7 _ 0 h P # O t O v I  .G+T.g+a+<+=+F+G+G+G+G+G+G+G+G+G+G+G+G+G+G+G+",
"A.G+G+G+G+G+A.(.m.e.l.l.q._+>+}+h+0+G+N u W.h 8 0 0 0 / a j @+x+P C+x+%+~ 1 0 7 6 6 6 6 6 6 _ } ' u G G G F.3 e ( 6 6 6 6 6 6 8 0 i A+= .+x i f 0 6 7 ( ( 8 7 / e } ^ # B l O l D A S ,+G+X.p c+3+#+G+G+G+G+G+G+G+A.A.A.A.A.A.G+G+G+",
"G+A.A.G+G+j.m.k.l.l.f.f.f.++*+7+[+8+S.D+A B ] ^ ^ ^ ^ ^ 3 D x+{+P C+@+3 d [ i a 8 6 6 6 6 b f w , H I I I I )+| 0 8 6 6 6 6 8 a 1 - K = * * .+x ^ 1 i h h h i 1 x ]+]+H C t v A A v O D+w+_+f+/+3+_+G+G+G+G+G+G+G+G+G+G+G+G+G+G+G+G+",
"G+G+s.h.m.n.l.l.f.f.l.f.f.y._+=+e+4+9+G+Y D ' - - - q `.F.y+x+C+$ V.%+g < _ g i d ( 6 6 7 d ^ q L J w H H H , `.i / 7 6 6 ( d 1 U.* x T T x x K * * .+.+- .+.+]+y c+c+T C C D C v I B G+9+*+<+/+3+,+G+G+G+G+G+G+G+G+G+G+G+G+G+G+G+G+",
"G+B.m.k.l.l.f.f.f.f.f.f.f.n.t+(+Y.X.v+G+ .E t J L J J I E C+x+C+P j 1 ! f : b [ i a 7 7 9 1 !+K L w J J w w H H U.} _ 6 b d ^ U.A+T x T K x x x Q x T x x T x y c+z+/.Q O O I u t H W G+S.X.  *+S.G+G+G+G+G+G+G+G+G+G+G+G+G+G+G+G+G+",
"m.k.f.l.f.f.f.f.f.f.f.f.f.f.q.++Y.~+,+G++ E t H K J w I E y+@ C+%+1 _ } ) g _ b [ i d _ } - - L T - - J w J J q , K f < e ^ q A+= K T T K * x x Q ]+* x T K Q h+z+r /.L u S H u A u ,+G+,+~+l+9+A.G+G+G+G+G+G+G+G+G+G+G+G+G+G+G+G+G+",
"l.l.f.f.f.f.f.f.f.f.f.f.f.f.f.++*+H.#+F+G+X E E w w H u C C+{+5 h B 1 : g w g _ _ f i } L A+K K T * L L q J J w q - ^ } ^ - T x x x T x T K K T Q x K x x K Z c+z+/.p u S I w G O R G+G+++B+`.F+A.G+G+G+G+G+G+G+G+G+G+G+G+G+G+G+G+G+",
"f.f.f.f.f.f.f.f.f.f.f.f.f.f.f.(+i+Z.Y.+ G++ D B G G G D A @ @+z } g P | / [ w g 8 < } !+q K K K K - L - w w w A+- L q - T T x x T T K T T T T T x T K K T x x p p x S G H w w E w '+G+w+#+= Y.G+A.A.G+G+G+G+G+G+G+G+G+G+G+A.A.A.A.G+",
"e.f.f.f.f.f.f.f.f.f.f.f.f.f.f.f.y.Y.H.'+G+G+X E B A B P z @ x+@ V.h [ {+3 0 [ )+} e ] q L L - L L L L - - J w - - = K T x T T T * = K T T K K T = A+T L J L H H u O G w L K I G z G+G+++V.]+S.G+A.A.G+G+G+G+A.A.A.A.A.A.z.s.s.s.s.A.",
"e.t.f.f.e.f.f.f.f.f.f.f.f.f.f.f.u.*+H.X.+ G+k P F P P o z o @ y+$ V.i [ 5 j d f j j > G I H w J H H w w w H q q - - K T * T K * g+- L K L - J L - J w % I I v A A l H K J J u B k G+S._+]+{+G+G+A.A.G+G+G+A.A.z.z.z.z.z.z.s.s.s.s.z.",
"f.e.f.f.f.f.f.f.f.f.f.f.e.f.f.f.q._+T.~+'+w+G+,+O C B A B o @ # G E B+1 f 2 j [ 2 V.z P A A F F D D F u G & ' `.a+' ' `.% w H , % % % % ' '   ' & > > # l t B P B G J T w S B ,+G+U ++B+d+v+A.A.A.A.G+G+G+G+A.A.G.K.A.A.z.z.z.z.z.z.",
"e.f.f.e.f.f.e.e.f.f.f.f.f.e.e.e.e.f.++~+Y.++. G+'+E v G , F $ # E % H )+1 f | & F v B A A z P o o @ C+P z m+W.y+&+y+y+$ B > B+B+A B $ $ C+$ # E # # E v E F B A O I q H u B N G+F+N Z.p #+z.z.z.A.G+A.G+G+G+-+N.N.A.A.G+A.z.z.A.A.A.",
"f.e.t.e.f.e.e.f.e.e.e.f.e.f.f.e.e.e.n._+~+T.N . G+N B G q q q H G E E S U.^ 1 q J J , A+- > C # y+P y+C+C+z y+P x+@ C+{+P # y+y+P P > # $ G O w % & H G E ' G E ' S G t z + G+F+N X.Z B+s.s.z.z.z.G+G+A.A.G.O.K.-+;+G+G+A.z.A.A.A.A.",
"e.e.e.e.e.e.f.e.f.f.e.e.f.f.e.f.e.e.f.)._+~+T.N E+G+U  .D ' ' J L w I G u S I L L w !+!+L , H ' & & 1+# # A > # y+B+> >   )+  > ' ' H q J L w J ' & O D A C C B # C P  .E+G+U N Y.Z `.b.v.v.s.s.z.G+A.-+M.Q.K.p+t+p+G+G+z.s.z.A.A.A.",
"e.k.e.e.e.e.e.e.e.e.e.e.e.f.e.e.e.f.e.f.).'+~+Y.'++ G+G++ m R E I H H H w w I H M H I S S S % ' u `.)+& D D & & )+`.% , % % & ' ' , ' & G > F > y+$ B P P P P P Y n D+G+G+S.n y+:+I.b.v.v.v.v.s.A.G+K.Q.M.q+r+u+n+G+G+G+z.s.z.A.A.A.",
"e.e.k.k.e.e.e.e.k.k.e.e.e.e.e.e.e.e.e.e.e.n.++T.~+ +N U G+F++  .R o P R.R.s S S I S I H H S & & G & E > > B+)+& & & & & & & ' )+# > B+$ A # $ $ @ $ # $ C+x+m ,+. G+. D+w+++B+Q T.v.v.v.v.v.v.D.K.P.Q.(+u+s+u+-+G+G+G+A.z.v.z.A.A.G+",
"k.e.e.k.k.e.e.e.e.k.k.k.e.e.e.e.e.e.e.e.).x.s.9+#+~+Y. .N . G+G+. + N P.R.X z A B B B A D C & D D B+> A A # B+A E C F F D > > > > B+> A C A # B+C+o ..'+S.F+G+G+D+N n V '+>+0+'.z.v.v.v.G.x.N.Q.Q.$+r+s+u+n+G+G+A.G+G+A.z.v.z.G+A.A.",
"k.o.k.k.k.e.e.k.k.k.e.k.e.k.e.e.e.e.n.x.s.A.z.4.,.++T.~+Z.V n ,+` G+z.i+u+` k N N n m W W W ..Z.X x+x+Y @ @ o @ P o R o o @ x+H...W m m n '+,++ w+F+G+G+U + N n W C+& % H.e+4+i+r+i+i+$+$+^+^+^+s+r+t+n+G+G+G+G+G+G+G+A.z.v.z.G+A.s.",
"k.k.o.k.o.k.e.k.k.e.o.k.k.e.e.e.n.;.i.z.A.z.h.>.g.g.B.++X.~+@+X .. .'+(+q+U C.G+G+G+G+G+G+G+G+G+G+G+F+. ;+. . E+E+. ;+D++ . F+F+G+G+G+. U U k '.N N n  .V Y B+& F.o m L.$+o+X.t+u+u+u+u+u+u+t+q+n+G+G+G+G+G+A.A.G+G+G+G+z.v.z.G+A.v.",
"k.k.o.k.k.e.k.k.k.e.k.o.e.k.).m.g.@.-.z.A.h.>.4.4.4.s.A.w+,+'+X.~+Z.H...W V  .n '+N N N N N N N N N N N N N N N N N k 9+#+'+'+n n  . .m V W ..X Y @ C+y+W.y+H.'+k N.O.^+s+p+F+A.z.v.v.v.v.v.s.s.z.G+G+G+G+A.A.A.A.G+G+G+z.v.z.A.A.z.",
"k.o.k.k.k.o.k.o.k.k.e.e.).m.4.s.>.+.-.z.z.h.4.w.4.4.s.A.A.z.s.B.'.,+'+*+T.Y.Y.V W ~+..~+Z.....Z.Z.Z.....Z...........r.++%+H.X X X Y @ @ @ @ x+H.Y. .N + ` G+J.L.O.Q.^+s+p+G+A.A.z.s.b.b.s.b.z.z.A.A.G+G+A.A.A.A.A.G+G+G+z.s.z.A.A.A.",
"k.o.k.k.o.k.o.k.e.o.).m.(.z.z.z.>.+.4.A.z.s.s.v.h.v.z.G+G+A.z.z.A.A.A.p+r+++M.P.L.#+++N N N N N N N N N N '+r.#+=+=+(+++8+o+o+P.P.L._+,+9+S.v+F+G+J.K.N.M.O.Q.O.$+s+u+J.A.A.A.A.z.z.z.z.z.z.z.A.G+A.A.A.A.A.A.A.A.G+G+G+z.s.z.A.A.A.",
"o.k.o.o.o.o.e.o.).x.j.z.z.z.z.z.h.-.b.G+A.A.A.A.z.A.A.A.G+A.A.A.G+G+G+G+u+s+r+M.O.O.Q.O.M.M.L.N.N.L.M.M.M.M.$+$+s+r+q+,+2+i+u+s+^+$+O.Q.Q.Q.Q.Q.Q.Q.Q.O.M.N.i+s+r+q+A.A.z.A.A.A.A.A.A.A.A.A.A.G+G+A.A.A.A.A.A.A.A.G+G+G+A.z.A.A.A.A.",
"k.o.o.o.e.k.;.p.j.A.A.z.z.z.z.z.s.4.s.G+G+A.A.A.A.A.A.A.A.A.A.G+A.A.A.A.A.q+r+s+u+u+i+$+$+O.O.Q.Q.^+^+^+s+s+r+u+t+J.z.B._+'.z.p+u+r+r+u+i+i+(+(+N.q+t+t+u+r+r+t+-+G+G+A.A.A.A.A.A.z.A.A.z.z.A.G+G+A.A.G+G+G+A.A.G+G+G+A.A.A.A.A.A.A.",
"o.o.o.n.m.c.A.G+A.A.A.z.z.z.z.z.z.z.A.A.A.A.A.A.A.A.A.z.A.A.A.G+A.A.A.A.A.A.G+,+i+u+u+r+r+r+r+r+r+u+u+t+q+E.h.h.h.b.b.h.b.b.b.h.b.j.q+u+u+r+r+r+r+r+r+r+u+q+A.A.G+G+z.A.A.A.A.A.z.s.s.s.s.s.z.A.G+A.A.A.G+G+A.A.G+G+G+A.A.A.G+A.A.A.",
"o.).x.h.A.G+G+A.A.A.A.z.z.z.z.z.A.A.A.A.z.A.A.A.A.A.A.A.A.A.A.A.A.A.A.A.A.A.A.A.z.A.A.A.A.A.A.A.A.A.A.A.A.s.h.h.v.b.b.b.b.b.b.b.v.b.h.h.b.b.b.b.b.s.z.z.z.z.z.z.z.z.z.z.z.A.A.z.s.b.s.s.v.v.z.A.A.A.A.A.A.A.A.A.G+G+G+A.A.A.A.G+A.A.",
"i.v.v.s.z.G+G+A.z.z.z.z.z.z.A.A.z.A.A.A.A.A.A.G+A.A.A.A.A.A.A.A.A.A.A.z.z.z.z.z.z.z.z.z.z.z.z.z.s.s.s.h.b.h.@.@.>.4.4.h.4.4.h.h.4.4.4.4.4.4.4.h.4.b.s.z.z.z.z.z.s.s.z.z.z.z.z.s.v.v.v.v.v.v.b.z.A.A.A.G+G+G+A.A.A.G+G+A.A.A.A.A.G+G+",
"v.v.v.v.z.G+G+A.z.z.z.z.z.z.z.z.z.A.A.A.z.A.A.A.A.A.A.A.A.A.A.A.A.A.z.z.s.b.v.b.s.s.s.z.z.z.s.v.h.4.4.4.@.@.-.+.+.@.@.-.-.-.-.-.>.@.@.@.@.@.-.>.>.4.v.s.z.z.z.z.s.s.v.z.z.v.v.v.v.v.v.v.v.v.v.s.A.G+G+G+G+G+A.A.A.G+G+A.A.A.A.A.A.G+",
"v.v.v.s.A.G+G+A.z.z.z.z.z.z.z.z.z.A.A.A.z.z.A.A.A.A.A.z.z.A.A.G+A.A.z.z.z.s.b.s.z.z.z.z.z.z.z.s.h.h.v.h.4.@.>.4.@.+.@.-.-.@.@.-.>.-.-.@.-.-.-.>.>.4.h.z.z.z.z.z.z.z.z.z.z.z.s.s.z.s.s.b.s.s.z.z.A.G+G+G+G+G+A.A.A.G+G+A.A.A.A.A.A.A.",
"z.A.z.A.G+G+G+A.A.z.z.z.z.z.z.z.z.A.A.A.z.z.A.A.z.z.G+A.z.z.A.G+A.A.z.z.A.z.A.z.A.A.A.A.A.A.A.z.z.z.z.z.z.s.b.z.z.s.b.b.b.b.b.b.b.h.h.b.b.b.b.h.h.s.z.z.A.A.A.A.A.A.A.A.A.A.A.z.A.A.A.A.A.A.A.A.A.G+G+G+G+A.A.A.A.G+G+A.A.A.A.A.A.A.",
"G+G+G+G+G+G+G+A.A.z.z.z.z.z.z.z.z.A.A.A.z.z.A.A.z.z.A.A.A.z.A.G+A.A.A.A.A.A.A.A.A.A.A.G+G+A.A.A.A.A.A.A.A.A.z.z.z.z.z.s.z.s.s.z.z.z.s.s.z.z.z.s.z.z.z.A.A.A.A.A.G+G+G+G+G+A.G+G+A.G+G+G+G+G+G+A.A.G+G+G+A.A.A.A.A.G+G+A.A.A.A.A.A.A.",
"G+A.G+G+G+G+A.A.A.A.A.A.z.z.z.z.z.A.A.A.A.A.A.A.A.z.A.A.A.A.A.G+G+A.A.A.A.A.A.A.A.G+G+G+G+A.A.A.A.A.A.A.A.A.A.A.z.z.z.z.z.z.z.z.z.z.z.z.z.z.z.z.z.z.A.A.z.z.A.G+G+G+G+G+G+G+A.G+G+G+G+G+G+G+G+A.A.A.A.A.A.A.G+A.A.G+G+A.A.A.A.A.A.A.",
"A.z.s.z.z.z.z.z.A.A.A.A.A.z.A.A.A.A.A.A.A.A.0.0.0.0.0.0.9.G+A.A.A.9.0.=.A.A.A.A.0.0.0.0.0.0.9.A.A.A.A.G+9.0.=.A.A.z.z.0.9.z.z.z.z.z.z.z.0.9.A.A.A.z.A.A.A.A.9.0.=.G+G+G+G+0.0.'.G+G+d.0.d.G+A.A.A.A.G+G+A.A.A.A.A.G+A.A.A.A.G+A.A.A.",
"z.z.b.v.v.v.v.z.z.A.A.A.A.A.A.A.A.A.A.A.A.A.^.3.a.a.a.3./.A.G+A.'.3.^.1.A.A.A.A.^.3.a.a.a.3./.A.A.G+G+'.3.^.1.A.A.A.z.^.0.z.A.A.A.A.A.A.^.0.A.A.A.A.A.A.A.'.3.^.1.G+G+G+G+d./.2.'.'.3.1.G+G+A.A.A.A.G+G+A.A.A.A.A.G+A.A.A.A.A.A.A.A.",
"v.z.z.v.v.v.v.z.A.A.A.A.A.A.A.A.A.A.A.A.A.A.^.0.A.A.A.0.^.A.A.G+0.3.0.^.9.A.A.A.^.0.A.A.A.0.^.A.G+G+G+0.3.0.^.9.z.z.z.^.0.A.z.z.z.z.z.z.^.0.A.A.A.A.A.A.A.0.3.0.^.9.G+G+G+G+d./.2.2.a.G+A.G+A.A.A.A.A.A.A.A.A.A.A.A.A.A.A.A.A.A.A.A.",
"v.v.z.z.b.v.v.z.A.A.A.A.A.A.A.z.A.A.A.A.A.A.^.3.a.a.a.3./.A.A.'./.|.A.3.a.A.A.A.^.3.a.a.a.3./.A.A.G+'./.|.A.3.a.s.z.z.^.0.z.A.s.4.h.h.h.^.0.s.b.b.b.s.s.m./.|.z.3.a.A.A.A.A.z.9.^.^.=.z.z.z.z.A.A.A.A.A.A.A.A.A.A.A.A.A.A.A.G+A.A.A.",
"z.b.b.z.A.z.s.z.A.A.A.A.z.z.z.A.A.A.A.A.A.A.^.a.0.0.0.0.9.A.A.1.^.0.0.a.^.|.A.A.^.a.0././.0.9.A.A.A.1.^.0.0.a.^.|.s.z.^.0.A.z.z.4.4.4.4.^.0.h.h.h.h.v.v.1.^.0.0.a.^.|.s.s.s.s.1.2./.2.;.s.s.v.z.A.A.A.A.A.A.A.A.A.A.A.A.A.A.G+A.A.A.",
"z.z.z.z.A.G+A.A.A.A.A.A.z.z.z.z.z.A.A.A.A.A.^.0.A.A.A.A.A.A.=.^.2.a.a.a.3.3.A.A.^.0.A.d./.2.'.A.A.=.^.2.a.a.a.3.3.b.z.^.1.9.9.9.9.;.v.v.^.1.9.9.9.9.;.8.^.2.a.a.a.3.3.s.s.s.1./.d.d./.2.;.v.s.z.A.A.A.A.A.A.A.A.A.A.A.A.A.A.A.A.A.A.",
"z.z.z.z.z.A.G+A.A.z.z.z.z.s.z.z.z.A.A.A.A.A.^.0.A.A.A.A.A.A.a.a.z.s.z.A.9.^.0.A.^.0.A.A.d.2.3.9.A.a.a.z.z.b.4.9.^.0.z.^.^.^.^.^.^.9.4.4.^.^.^.^.^.^.9.a.a.z.z.z.z.9.^.0.z.}.^.d.z.z.d./.2.m.z.A.A.A.A.A.A.A.A.A.A.A.A.A.A.A.A.A.A.A.",
"z.z.z.z.z.z.A.G+z.z.z.z.z.s.s.z.z.z.A.A.z.A.A.A.A.A.A.A.z.A.A.A.z.s.s.z.A.A.A.A.A.A.A.A.A.A.A.A.A.z.z.s.b.b.>.>.>.4.z.A.A.z.s.h.-.>.4.&.@.-.4.>.>.-.>.s.z.z.A.z.z.z.z.z.A.A.A.A.A.A.A.A.z.z.z.G+A.A.A.A.A.A.A.A.A.A.A.A.A.A.A.A.A.A.",
"A.A.A.A.A.z.z.A.z.s.z.z.z.s.z.z.z.A.A.A.A.A.A.A.A.A.A.A.A.A.A.A.z.s.z.z.z.A.A.A.A.A.A.A.A.A.A.A.z.z.s.b.b.h.h.>.>.h.z.A.A.s.4.>.>.&.>.(.&.>.>.-.&.>.4.h.z.A.A.z.z.A.A.A.G+A.A.A.A.A.A.z.s.s.s.s.z.z.z.z.z.z.z.A.A.z.z.z.A.z.z.z.z.A.",
"z.A.A.A.A.A.z.z.z.z.z.z.z.s.z.z.z.A.A.A.A.A.A.z.v.v.v.v.v.s.z.s.4.>.4.4.4.h.z.b.h.b.s.s.s.b.h.4.4.s.s.b.b.h.h.>.>.h.z.A.A.s.h.>.>.4.>.b.z.b.4.4.>.h.h.h.s.A.A.z.z.A.A.G+G+G+A.A.A.A.A.s.h.v.v.>.-.b.z.s.b.s.z.z.z.z.z.s.z.z.z.z.z.z.",
"z.A.A.G+A.A.A.z.s.A.A.z.s.s.j.z.z.A.A.A.z.A.z.b.4.4.4.4.4.4.4.4.-.@.@.@.@.@.4.s.b.v.v.h.4.>.g.@.@.h.z.s.h.h.h.>.4.b.z.A.A.s.b.h.h.h.s.b.s.z.b.h.h.h.h.b.A.G+G+z.z.z.A.G+G+G+A.A.z.A.z.h.h.h.4.@.+.@.s.z.b.b.b.s.b.b.b.b.s.s.b.z.z.z.",
"A.A.G+G+G+A.A.A.z.z.A.A.s.b.s.z.z.A.A.A.A.A.A.b.h.h.h.h.h.h.4.9.}.}.}.}.}.}.9.v.s.s.0.d.4.g.@.+.9.|.z.j.h.0.9.b.s.z.A.G+A.z.0.9.s.s.0.d.A.z.z.b.9.|.b.z.A.0.0.0.0.0.0.|.G+G+A.z.z.s.h.>.>.4.4.@.+.+.h.z.s.b.b.b.b.b.h.b.s.s.s.z.z.z.",
"A.G+G+G+G+G+G+A.z.z.z.A.A.s.s.z.z.A.A.A.A.A.A.A.s.s.s.s.z.s.b./.3.a.a.a.a.3./.z.z.A.^./.|.s.4.@.}.a.s.b.b.^.0.z.z.A.A.G+G+A.^.0.z.z.^./.|.A.z.s.0.a.b.s.A.^.3.a.a.a.a.}.G+G+A.z.s.b.h.>.>.4.4.-.@.-.h.s.b.s.j.z.s.b.b.s.z.z.s.z.A.z.",
"G+G+G+G+G+G+G+A.z.z.z.z.A.A.z.z.A.A.A.A.A.A.A.A.A.A.A.A.A.A.A.^.0.z.z.z.z.0.^.A.A.G+^.3.^.0.z.>.}.a.s.b.s.^.0.z.A.A.A.G+G+A.^.0.A.A.^.3.^.0.A.z.0.a.h.z.A.^.0.z.j.s.z.A.A.A.z.z.z.z.z.s.b.s.s.b.4.h.z.z.b.s.z.z.z.z.z.z.A.A.z.z.A.z.",
"G+G+G+G+G+G+G+A.z.z.z.z.z.z.A.z.A.A.A.A.A.A.A.A.A.A.A.A.A.A.A.^.0.z.z.z.A.0.^.A.A.A.^.9.1.^.1.;.0.a.z.z.s.^.0.z.z.A.A.G+A.A.^.0.z.A.^.9.1.^.1.'.0.a.h.b.A.^.^.^.^.0.A.A.G+G+A.z.z.A.A.z.z.z.z.s.b.s.z.z.s.b.z.z.z.z.z.z.z.z.z.z.z.s.",
"G+G+G+G+G+G+G+A.z.z.z.z.z.s.A.A.A.A.A.A.A.A.A.A.A.A.A.A.A.A.A.^.0.z.z.z.A.0.^.A.A.A.^.9.A.|.^.2.1.a.z.z.z.^.0.A.z.z.A.A.A.A.^.0.A.A.^.9.G+|.^.2.1.a.z.z.A.^.1.9.9.=.A.G+G+G+A.z.A.A.A.z.z.z.A.z.s.z.z.z.s.s.s.z.z.s.s.z.z.z.s.s.z.b.",
"A.A.A.G+G+G+G+A.A.z.A.z.z.z.z.A.A.A.G+A.A.A.A.A.A.A.A.A.A.A.A.^.1.9.9.9.9.1.^.A.G+G+^.9.A.A.d./.^.a.z.s.s.^.1.9.9.9.9.'.A.A.^.0.A.A.^.9.G+A.d./.^.a.A.A.A.^.1.9.9.9.9.d.G+G+A.A.z.A.A.A.z.A.A.z.z.z.z.z.z.z.z.z.z.z.b.z.A.z.s.s.z.s.",
"A.A.A.A.G+G+G+A.z.z.z.z.z.z.z.z.A.G+A.A.A.A.A.A.A.A.A.A.A.A.G+1.^.^.^.^.^.^.1.A.G+G+^.9.z.A.A.=.2.a.s.b.h.^.^.^.^.^.^.9.A.A.^.0.z.z.^.9.G+G+G+=.2.a.A.G+G+^.^.^.^.^.^.a.G+G+A.s.b.z.z.z.z.A.A.z.z.z.z.z.z.z.z.z.z.z.z.s.A.z.z.s.z.z.",
"A.A.A.G+G+G+G+A.z.z.z.z.z.z.z.A.A.G+G+A.z.z.A.A.A.A.A.A.A.A.A.A.A.A.A.A.A.A.A.A.G+G+A.z.s.s.z.A.z.z.s.>.@.+.@.>.>.>.z.A.A.A.s.b.s.z.A.A.G+G+A.G+G+A.A.A.A.G+z.+.#.h.G+G+G+G+A.z.b.b.z.z.z.A.A.z.s.z.z.z.z.s.z.z.s.b.s.z.z.z.s.s.z.s.",
"A.A.A.G+G+G+G+A.z.z.z.z.z.z.z.A.A.A.A.G+A.z.A.A.A.A.A.A.A.A.A.A.A.A.z.z.z.z.z.A.A.A.z.b.4.h.z.z.A.z.b.@.#.+.@.>.4.4.h.z.A.A.A.A.z.z.A.G+G+G+G+G+A.z.z.z.A.G+A.+.;.b.A.G+G+G+A.A.A.z.z.z.z.A.A.z.s.z.A.z.z.s.s.s.s.b.b.s.z.z.j.s.z.s.",
"A.A.A.G+G+G+G+A.z.z.A.A.z.z.z.A.A.A.A.G+G+A.A.A.A.A.A.A.A.A.A.A.A.A.A.z.s.b.s.z.A.z.v.4.>.h.z.z.z.A.b.+.#.+.@.>.4.4.h.v.s.A.A.A.b.h.s.z.A.z.z.z.b.-.-.>.b.z.z.@.;.c.A.G+G+G+G+A.z.z.A.z.z.A.A.z.b.b.z.z.z.b.s.z.z.j.h.s.z.z.h.b.z.s.",
"A.A.A.A.G+G+G+A.z.z.z.z.z.j.z.z.A.G+A.A.A.G+A.A.A.A.A.A.A.A.A.A.z.z.z.b.>.>.4.s.z.4.4.>.>.h.z.A.z.z.s.c.+.+.@.>.4.4.h.s.s.z.z.b.@.@.>.h.z.s.h.@.#.;.;.;.@.v.h.+.@.b.A.G+G+G+A.s.4.s.A.z.z.A.A.s.&.+.>.z.z.j.s.z.z.s.b.s.z.z.b.h.z.s.",
"A.A.A.A.G+G+G+A.z.z.z.z.b.b.s.z.A.A.A.A.z.A.G+A.A.A.A.A.A.A.A.A.z.s.b.4.>.>.h.z.z.b.h.h.b.s.z.z.A.z.h.b.>.+.-.h.h.h.s.z.s.s.z.h.@.@.4.h.v.v.-.#.;.;.;.;.+.4.4.+.&.z.A.A.G+A.z.4.-.h.s.4.h.s.z.b.-.+.>.z.z.z.z.z.z.z.s.z.z.j.b.s.z.z."};
