/* XPM */
static const char * fs2_btn_readme_xpm[] = {
"131 58 256 2",
"  	c #151B21",
". 	c #121619",
"+ 	c #212B32",
"@ 	c #30444E",
"# 	c #2C4D57",
"$ 	c #47686E",
"% 	c #336165",
"& 	c #657E80",
"* 	c #010303",
"= 	c #557572",
"- 	c #323F3B",
"; 	c #5D9C84",
"> 	c #67BC97",
", 	c #4B5651",
"' 	c #5AB58A",
") 	c #7FBFA1",
"! 	c #021009",
"~ 	c #010503",
"{ 	c #568B70",
"] 	c #77A88F",
"^ 	c #6D917F",
"/ 	c #010E07",
"( 	c #06170E",
"_ 	c #18432C",
": 	c #1D5235",
"< 	c #143824",
"[ 	c #599675",
"} 	c #0B2215",
"| 	c #102E1D",
"1 	c #0B1B12",
"2 	c #121E17",
"3 	c #669279",
"4 	c #010B05",
"5 	c #030805",
"6 	c #5CAF7E",
"7 	c #4F8264",
"8 	c #49765B",
"9 	c #729C83",
"0 	c #111613",
"a 	c #62A07A",
"b 	c #80CE9D",
"c 	c #355541",
"d 	c #6CA983",
"e 	c #7AC194",
"f 	c #010703",
"g 	c #529C6B",
"h 	c #406C4F",
"i 	c #6EB887",
"j 	c #77B78D",
"k 	c #75B289",
"l 	c #4C9161",
"m 	c #2D5339",
"n 	c #213427",
"o 	c #77B38A",
"p 	c #75AF86",
"q 	c #6FA47E",
"r 	c #73A983",
"s 	c #53735C",
"t 	c #8C9D91",
"u 	c #6A9C77",
"v 	c #5B8666",
"w 	c #6DA07A",
"x 	c #6A8B73",
"y 	c #010903",
"z 	c #060E08",
"A 	c #54825F",
"B 	c #649470",
"C 	c #425F49",
"D 	c #374D3C",
"E 	c #2D4933",
"F 	c #679972",
"G 	c #4C6D53",
"H 	c #3F5A45",
"I 	c #010B03",
"J 	c #345E3C",
"K 	c #45654B",
"L 	c #19241B",
"M 	c #010D03",
"N 	c #0A100B",
"O 	c #638E6A",
"P 	c #3F6D46",
"Q 	c #47764E",
"R 	c #2A402D",
"S 	c #577C5C",
"T 	c #6D9473",
"U 	c #2E3B30",
"V 	c #1E3520",
"W 	c #A8BBAA",
"X 	c #3D6440",
"Y 	c #1E2C1F",
"Z 	c #537255",
"` 	c #5E7A60",
" .	c #192A1A",
"..	c #537955",
"+.	c #4B6D4D",
"@.	c #638465",
"#.	c #69886A",
"$.	c #010901",
"%.	c #010701",
"&.	c #010501",
"*.	c #030B03",
"=.	c #010301",
"-.	c #030703",
";.	c #060A06",
">.	c #030503",
",.	c #3D553D",
"'.	c #0D110D",
").	c #8EAF8E",
"!.	c #1D1F1D",
"~.	c #365A34",
"{.	c #3E5B3D",
"].	c #466345",
"^.	c #4C634B",
"/.	c #354634",
"(.	c #7D977B",
"_.	c #4B6748",
":.	c #455C43",
"<.	c #435541",
"[.	c #566D54",
"}.	c #687A66",
"|.	c #3A5237",
"1.	c #526A4F",
"2.	c #162314",
"3.	c #283D25",
"4.	c #2B3729",
"5.	c #374B33",
"6.	c #5F735B",
"7.	c #2D4428",
"8.	c #304A29",
"9.	c #3D5736",
"0.	c #33462E",
"a.	c #5D7C54",
"b.	c #3F503A",
"c.	c #5C7255",
"d.	c #10160E",
"e.	c #4C6344",
"f.	c #273323",
"g.	c #0A0D09",
"h.	c #181B17",
"i.	c #395030",
"j.	c #455C3C",
"k.	c #192116",
"l.	c #56714C",
"m.	c #748F6A",
"n.	c #172511",
"o.	c #27391F",
"p.	c #364A2D",
"q.	c #313F2B",
"r.	c #68845C",
"s.	c #3C4C35",
"t.	c #4C5D45",
"u.	c #050903",
"v.	c #2B4021",
"w.	c #22321A",
"x.	c #161E12",
"y.	c #53624C",
"z.	c #4F5D48",
"A.	c #7B8A74",
"B.	c #1E2B17",
"C.	c #3E5233",
"D.	c #445839",
"E.	c #546949",
"F.	c #314227",
"G.	c #4C653D",
"H.	c #34452A",
"I.	c #4A5C3F",
"J.	c #141A10",
"K.	c #1D2518",
"L.	c #45543B",
"M.	c #272D23",
"N.	c #27331E",
"O.	c #3A4A2F",
"P.	c #3E4E32",
"Q.	c #5B6B50",
"R.	c #373B34",
"S.	c #1B2414",
"T.	c #222B1B",
"U.	c #435237",
"V.	c #4C5743",
"W.	c #596450",
"X.	c #2E3B23",
"Y.	c #2B3720",
"Z.	c #313E25",
"`.	c #425332",
" +	c #030501",
".+	c #25301A",
"++	c #060705",
"@+	c #49553D",
"#+	c #536046",
"$+	c #3C4434",
"%+	c #0A0B09",
"&+	c #76816B",
"*+	c #191F12",
"=+	c #3A452D",
"-+	c #37412B",
";+	c #364128",
">+	c #0F120B",
",+	c #586448",
"'+	c #444D38",
")+	c #636560",
"!+	c #414B30",
"~+	c #050603",
"{+	c #21231D",
"]+	c #373F25",
"^+	c #4C5434",
"/+	c #41433B",
"(+	c #030301",
"_+	c #0A0A07",
":+	c #33332C",
"<+	c #1F1E17",
"[+	c #6D6B5E",
"}+	c #29271D",
"|+	c #161510",
"1+	c #2D2B21",
"2+	c #1A1914",
"3+	c #262520",
"4+	c #222019",
"5+	c #332F25",
"6+	c #0F0D09",
"7+	c #13110D",
"8+	c #1E1B15",
"9+	c #1E1A13",
"0+	c #585144",
"a+	c #2B251B",
"b+	c #221C13",
"c+	c #3B352C",
"d+	c #211C15",
"e+	c #16130F",
"f+	c #60574B",
"g+	c #8F8578",
"h+	c #2D251B",
"i+	c #3F3427",
"j+	c #191510",
"k+	c #4D463D",
"l+	c #282017",
"m+	c #382E23",
"n+	c #332A20",
"o+	c #45392C",
"p+	c #241E17",
"q+	c #705D48",
"r+	c #4C3F31",
"s+	c #090705",
"t+	c #63503D",
"u+	c #2F261D",
"v+	c #2A221A",
"w+	c #15110D",
"x+	c #584837",
"y+	c #272019",
"z+	c #1C1712",
"A+	c #7E6954",
"B+	c #120F0C",
"C+	c #0D0B09",
"D+	c #050302",
"E+	c #030101",
"F+	c #030303",
"G+	c #010101",
"5 =.=.G+G+G+=.=.=.&.$.$.$.y y %.=.G+G+G+G+G+=.=.=.%.f &.=.=.G+G+G+G+G+=.=.=.=.&.%.~ %.&.=.=.=.=.=.&.&.=.&.f f y f G+&.y y $.y 4 4 4 y y y 4 / / y f %.&.G+G+G+G+G+G+G+G+G+=.G+G+=.%.y =.=.=.G+G+G+=.=.&.f 4 / / 4 / / f =.=.G+=.=.G+G+G+G+=.=.=.=.G+G+G+G+G+G+G+G+G+G+",
"=.&.=.G+G+G+G+=.=.&.$.$.$.y y %.=.G+G+G+G+G+G+=.=.&.~ ~ =.G+G+G+G+G+=.=.=.=.&.&.%.~ %.&.=.=.=.G+=.&.%.=.%.y y y y =.=.y I 4 4 / / / / / / / / / / 4 $.%.&.=.G+G+G+G+G+G+G+G+=.G+G+&.y =.=.=.G+G+G+=.=.&.%.y / 4 4 4 y &.=.=.=.&.=.G+G+G+=.=.=.=.G+G+G+G+G+G+G+G+G+G+G+",
"G+&.=.G+G+G+G+=.=.&.$.y y y $.&.G+G+G+G+G+G+G+=.=.&.&.&.=.G+G+G+G+G+G+G+=.=.=.&.%.~ %.&.=.=.G+G+=.&.&.=.~ 4 4 4 y =.=.&.I / / / / / / / / / / / / 4 y %.&.=.G+G+G+G+G+G+=.G+G+=.G+=.%.=.=.G+G+G+G+G+=.=.&.f f f f f %.&.=.=.&.%.&.&.=.=.=.=.G+=.G+G+G+=.G+G+G+G+G+G+G+",
"G+=.=.=.G+G+G+=.=.&.$.$.$.$.%.=.G+G+G+=.=.=.&.=.=.&.&.&.=.G+G+G+=.G+G+=.=.=.&.&.&.&.&.&.=.=.=.=.&.&.&.=.=.&.f %.=.G+G+=.&.f ~ &.~ f f f &.&.f f ~ &.=.=.G+G+G+G+G+G+G+G+G+G+G+G+=.=.=.=.=.G+G+G+=.=.=.&.&.&.&.&.=.=.=.=.=.=.=.=.=.=.=.G+G+G+G+G+=.=.G+G+G+G+G+G+G+G+G+",
"G+=.=.=.G+G+G+=.=.=.&.&.&.=.=.=.G+G+G+&.&.&.&.=.=.%.%.&.&.=.G+G+=.=.G+=.=.=.=.&.&.&.&.=.=.=.=.=.=.&.=.=.=.=.=.G+G+G+G+=.=.G+=.=.=.=.=.G+G+G+=.=.=.G+G+G+G+G+G+G+G+G+G+G+G+=.G+G+G+&.=.=.=.G+G+G+=.=.=.=.=.&.=.=.=.=.=.=.=.=.=.G+G+G+G+G+G+G+=.=.=.=.G+G+G+G+G+G+G+G+G+",
"G+=.=.G+G+G+G+G+s+6+6+w+j+/+f+v+j+j+j+j+w+l+n+z+b+a+u+m+n+f+m+l+p+l+9+9+a+v+6+&.&.%.~ &.=.=.=.&.&.&.=.G+=.G+G+G+G+G+=.&.%.~ %.4 y %.=.G+G+=.=.&.&.=.G+G+G+=.=.=.G+=.G+G+&.&.G+G+G+=.&.=.G+=.G+G+=.=.=.=.=.=.=.=.=.=.=.=.=.=.G+=.=.=.=.G+G+=.&.&.=.G+=.$.&.G+G+G+G+G+=.",
"G+=.=.=.G+G+~+j+p+a+i+r+r+g+&+f+0+)+[+)+)+[+[+)+)+)+[+)+)+[+f+0+k+o+n+u+v+d+p+z+%.f f ~ =.=.=.&.&.&.=.=.=.=.=.=.%.$.y 4 4 / / / ! / f G+G+=.=.f y f %.&.&.$.$.$.%.%.=.G+&.&.G+G+=.=.=.&.G+G+G+G+=.=.=.=.=.=.=.=.=.=.=.G+=.=.&.&.&.&.G+G+=.=.=.=.=.G+&.y &.G+G+G+G+G+G+",
"G+=.=.=.G+G+j+i+m+m+q+g+A.&+= & & ^ & & & = $ $ $ $ $ $ $ $ = & & }.}.[+0+5+l+d+f y f ~ &.=.&.&.&.=.=.=.=.=.=.&.y 4 y f f 4 ! ! ! ! 4 =.G+=.=.f 4 $.&.&.&.%.%.%.%.&.=.G+=.=.G+G+=.=.=.=.=.G+G+=.=.=.&.&.&.=.=.=.=.=.=.G+G+=.&.&.=.=.G+=.=.=.G+G+G+=.=.=.=.G+G+G+G+G+G+",
"G+G+=.G+G+G+_+m+n+m+0+)+$ $ = $ $ $ % % % % % % % % % % % % $ $ = $ $ $ , k+h+y+|+<+e+6+w+y+l+v+a+5+v+u+h+a+u+u+u+u+u+n+n+n+5+5+5+5+m+n+n+n+n+m+m+m+m+n+v+d+d+p+c+u+u+v+h+n+a+a+y+e+6+v+z+l+p+j+g._+_+C+_+_+s+_+7+z+e+j+j+e+j+v+y+j+e+j+++G+G+=.=.=.=.G+G+=.=.G+G+G+G+",
"G+G+=.=.G+G+D+z+v+m+m+1++ + - @ @ @ # # # # # # # # % $ $ $ $ , @ + + !.7+j+v+n+r+m+p+9+n+m+u+n+i+0+m+i+i+o+r+o+i+r+x+x+x+x+x+t+t+x+x+x+t+t+t+q+q+A+A+A+x+i+x+x+t+t+x+o+o+o+i+x+g+A+u+x+x+r+x+o+9+j+w+6+6+7+7+e+d+i+r+u+a+u+n+o+t+i+u+m+m+8+=.=.&.=.G+=.=.=.=.G+G+G+=.",
"G+=.&.%.%.&.~+d+a+i+x+o+l+p+z+B+'.0 .                   . . 0 e+e+j+w+B+d+v+u+r+i+v+v+y+y+y+m+i+i+i+i+i+i+r+x+o+r+r+x+x+x+t+t+t+t+t+x+t+t+t+t+q+q+t+q+A+A+x+t+t+A+0+t+t+x+x+x+t+A+x+o+x+t+x+r+t+r+n+y+z+j+z+9+p+y+v+o+i+v+m+r+x+x+o+n+n+m+r+m+>+=.=.=.&.&.G+G+=.=.G+=.",
"G+=.%.4 I $.z v+m+r+o+y+l+d+z+w+6+C+s+s+~+D+7+_+s+_+s+D+D+_+_+C+C+_+B+w+8+z+w+9+B+B+w+e+j+z+j+z+9+9+9+z+2+9+p+d+z+9+y+v+a+v+v+v+v+l+a+u+v+y+p+v+p+p+y+n+i+u+p+l+o+5+u+a+d+z+v+5+d+z+9+9+a+a+z+p+v+8+9+2+7+2+8+9+e+7+j+d+w+d+}+y+y+m+i+u+m+f+i+x+i+_+$.y $.=.G+G+G+G+G+",
"=.=.&.y f &.++z+y+v+++G+~ 4 ~ =.* * 5 5 >.;.~ ~+=.=.~ >.;.z N z z ;.-.~ =.~ >.~ 5 5 5 ;.;.++~ -.5 5 ;._+;.u.~ -.++-.&.>.-.>.=.=.=.5 ;.;.;.~+;.5 5 5 5 ~ ~ -.;.;.~ ~ f 5 N N z ;.;.z -.~ ~ 5 ;.;.;.N N '.d.d.>+N _+g.g._+;.* =.=.* g.9+v+m+x+i+t+q+r+1+z %.G+G+G+G+G+G+",
"G+=.=.=.G+G+(+w+j+>.G+~+N } 1 N g.>+d.2.2.2 J.x.J.*+S.*+x.S.B.S.K.w.B.n.n.x.x.f.Y Y K.S.T.S.S.n.x.J.k.S.S.S.k.*+*+*+B.B.k.x.x.d.>+d.J.*+S.*+*+ .Y B.Y k.x.*+x.k.2.x.L 2. . .Y n  . .2.k.x.x.x.d.d.x.*+T.f.V Y *+*+*+*+|+>+g._+g.;.;._+>+4+m+i+r+A+x+x+x+6+G+G+G+G+G+G+",
"=.=.&.&.=.=.>.7+j+~+* %+>+L  .T.f.4.f.q.4.f.q..+Y.Z.X..+S.B.w.B.B.w.N.N.o.B.o.9.|.H.p.H.X..+N.N.N.N..+N.N..+0.H.N.X.;+T.w.T.Y.T.N.N.N.N..+N.Z.3.3.N.o.2.2.B.3.f.o.3.0.R R E E E E E R 0.3.3.3.3.o.B.2.w.3.3.3.Y..+K.K.B.S.*+d.d.>+g._+_+;.B+a+o+t+t+x+i+i+h+D+G+G+G+G+",
"G+=.&.y y %.>.7+j+++>.g.N J.K.B.w.B.T.N.w.w.B.J.n.n.w.n.n.B.w.w.B.w.w.B.v.N.F.D.j.9.C.D.P.N.Y.;+Z.Z.X.w.N.X.X.F.X.X.X.Z.Z.Z.O.;+;+=+-+Z.=+H.P.0.0.X.o.R R R H.7.o.o.0.E R ,.K C C /.E E 3.o.7.p.7.R E o.o.q.q.O.H.Z.X.X.Z.N.T.T.S.J.J.>+;.~+-.7+i+x+o+m+m+t+r+G+G+G+G+",
"G+=.&.%.%.=.* 6+7+;.>.g.J.2.S.N.|.o.o.v.N.N.o.8.V w.o.3.E J ~.v.w.8.7.o.v.F.|.C.9.0.F.C.!+]+Y.Z.!+X.Y.N..+Y.Y.Z.F.j.P.Y.N.Z.X.N.Y.Y.Z.;+Z.F.H.p.5.H.E c c ,.5.{.|.s.0.m E C 7 7 8 m m 0.5.|.9.9.|.c c m H.5.5.H.F.Z.Z.q.X.Y..+N.Y.B.*+K.T.J._+~+~ >+m+o+t+t+f+G+G+G+=.",
"G+=.=.=.=.=.(+B+w+g.>.>+ .R 7.i.|.|.8.H.F.0.X l ~.v.8.~.Q P 8.3.o.p.i.v.v.Z.Z.p.F.F.p.I.I.^+^+;+O.P.Z.F.Y.B.X.X.j.j.p.Z.Y.Z.Z.Y.X.X.X.Z.X.Z.C.X P |.X s 6.,.P K ^.G <.,.C P P Q X h H <.[.^.K P ~.Z 6.h |.P P 9.H.Y.F.X.X.X.Y.X.F.N.X.X.F.3.S.g.++&.* v+A+0+i+G+G+G+G+",
"G+=.=.=.=.G+(+B+B+;.++d.x.f.K _.p.H.7.i.|.O.i.X 8.8.X Q K {.,.{.v.o.v.v.v B B {.|.P.9.G.G.j.I.v u v =+e.F O _.Z.p.=+O.;+B F F F F F w u F F w Q Q ,.B F v 5._.j.L.[.w u s l P {...u u O ` :.D._.|.P.C.C H +.8 +.j.0.:.].i.O.=+-+O.-+]+O.P.;+N.S.>+_+5 8+A+g+x+G+G+G+G+",
"=.=.&.=.=.=.=.7+e+g.;.J.*+Y.j.j.P.H.8.p.F.Y.i.X X 8._.7 {.`.i.F.7.v.v.o.{.j j O |.p.p.H.9.9._.j j :.H.D.j j G ]+Z.Y.Y.X.j j j j j j j j j j j 7 G C [ j j Z r.@+s.Z j j O v K ,.A k j c.L.s.'+r.c.C h 7 G _.7 8 b.5.9.I.s.-+Z.N.T.Y.X.X.N.Z.]+N.B.x.z v+A+A+t+G+G+G+G+",
"=.&.&.&.=.G+=.B+w+_+g.k.Y.U.i.F.v.7.v.F.Z.p.Q Q J ~...Z D.Z.Y.N.3.Y.w.o.X.O j j I.H.p.i.H.!+u j B P.E.G.j j G =+U.p.Z.=+j j v :.:.1.1.Z +.:.G s :.].A j j O `.q.P.B j j r c.].H @.j r s.s.P.q.P.G.1.S A +.L.G K X./.b.L.L.=+X.;+F.p.!+;+H.U.!+X.Y.T.x.1+q+A+q+G+G+G+G+",
":+1+5+}+4+|+B+j+z+_+g.T.O.D.Z.v.~.P X C.j.j.S K l l j.D.`.X.Z.Z.Y.N.o.o.Y.0.j j F H.C.C.9.E.j j e.-+#+I.j j ..O.U.s.P.O.j j S =+O.=+O.!+$+=+s.<.:._...u j q 0.<.:.j k j j ..I._.F j v Z L.s.,./.F.i.C.G 1.].L.L.=+-+=+s.=+=+-+H.C.P.=+O.s.U.!+O.O.N.K.5+q+q+t+G+G+G+G+",
"q+f+0+0+c+4+2+n+o+<+g.*+f.F.Z.O.Q g P ~.Q D.G.0.X F.X.C.9.H.Y.F.3.Y.X J p.i...j j _.{.j.+.q j O O.Z.X.;+j j ..Z.U.I.U.P.j j q B B F F G b.P.Z.q.{.0._.A j j C {.A j O u j B D ,.j j G e.|.,.,.b./.,.{.].s.|.5.Z.O.U.-+=+P.Z.X.;+p.D.U.D.j.D.]+q.C.]+K.1+A+q+t+G+G+G+G+",
"[+f+k+r+5+{+|+i+r+j+g.2.3.5.5.9.8 g l l Q C.`.=+9.P F.O.G.H.Z.O.F.Z.~.~.O.i.e.r j r {.].S j p e.U.j.-+;+j j S ;+P.I.I.'+j j j j j j j S !+L.H 5.].,.|.|.p j v 0.d j _.S j j K A j B D.j.5.|.0.R 0.:.,.|.,.K 5.c :.U.O.=+P.=+]+H.P.j.'+I.I.I.-+P.D.D.K.a+q+q+x+G+G+G+G+",
"[+q+0+/+1+8+e+n+i+j+N n R 3.5.].l g l Q +.D.P.O.j.g X O.P.F.F.p.F.;+i.i.C.F.Z...j j @.j.d j S '+j.P.P.;+j j v I.`.I.U.U.j j v _.1._.1.:.L.@+b.,.K b.,.8 O j p G j B ,.|.d j v q j ..|.,.,.D /./.0.b.G K s.].,.b.L.@+b.U.P.!+!+-+s.L.`.`.@+L.U.e.!+=+x.a+t+t+x+G+G+G+G+",
"0+f+f+/+5+2+|+i+x+e+g.L V 3.5.P._.].j.j.`.!+`.O.p.i.p.C.j.9.F.i.F.X.9.P.F.8.w.F.u j p Z j p =+U.^.].1.V.j j O I.P.L.D.j.j j ..=+I.].I.'+L.I.:.K ].j.:.K C j j p j S <.s...j r j p s.O.,.H ,.D /.5./.C K j.].+.K I.@+b.L.:.j.!+=+H.5.D.D.b.P.j._.E.=+T.1+t+x+x+G+G+G+G+",
"0+f+[+0+1+3+e+i+u+B+;.2 V n 0.O.e.e.9.D.C.H.P.P.`.Q {.C._.i.F.p.0.p.;+Y.X.H.N.H.j.j j j j S '+'+#+t.I.b.j j S `.t.<.l.l.j j S L.t.e.@+L.s.L.y.,.,.:.b.s.0.w j j d {.,.,.H j j j O D ,.,.H b.,./.5.0.5.b.:.|.|.^.t.U.'+L.t.#+@+U.'+^.l.c.t.t.@+;+!+=+T.1+t+x+r+$.$.$.$.",
"f+0+[+q+o+<+e+u+/+M.-.d.Y Y /.L.:.I.j.j.`.H.H.P.`.e.C.j.~.7.O.p.F.O.X 5.O.P.P.D.e.F j j r !+!+!+=+=+!+U.j j (.&+W W (.T j j j j j j j j j j j b.<.t.<.:.<.S j j A |.0.,.H F j j G H ,.5.5.,.s.D |.j.t.:.:.:.b.b.L.j.D.p.|.U.U.U.I.E.#.(.).W A.&+}.I.f.}+t+x+o+$.y $.%.",
"k+k+0+f+r+3+e+m+r+<+++N x.T.O.0.P.C.`.`.C.C.P.C.K |.H.G.A {.O.j.3.H.9.F.H.D.I.e.l.E.p j ].!+I.V.#+'+V.6.j j T }.z.Z a.a.j j j j j j j j j j j @+@+^.1.b.=+|.j j ,.{.{.C H v j d Q K C {.{.5.q.0.|.O.s.^.1.<.@+j._.^.c.j._.I.!+'+j.i.+.r.a.z.c.}.[+c.$+5+x+x+o+=.=.=.=.",
"0+f+0+/+/+3+C+i+i+e+++N d.B.q.f.X.P.O.G...j.E.U...j.O.D.+.s.P.D.0.O.j.H.O.U.].P l.I.I.+.s.L.Q.c.c.,+V.z.L.s.H.C.{...l.G.Q Q 1.@+l.G C E.t.t.I.#+1.1.t.,.D ,.H ,.D.C 8 s s { [ { [ s Z 8 h ].j.H <.b.,.:.1.1.#+I.#+@+E.:.G Z I.y.....G.l...K {.p.O.b.4.1+r+r+i+G+G+G+G+",
"[+f+k+5+{+2+!.i+i+7+%+>+*+B.K.N.O.O.O.j.G.p.D.`.E.e.`.D.j.=+9.].0.p.C.H.H.P.I...e.L.y.6.t.@+,+Q.y.-+X.O.].^.y.#.O O r.a.].O v Z S A Z I.@+@+c.Q.1.<.L.:.<.C K C {.H 7 K ].v a [ a G :.7 h |.X h K <.:.<.b.G [.6.t.U.j.G A S Z A F +.l.r.v O O c.1.:.M.<+o+o+n+G+G+G+G+",
"f+[+f+c+4+5+{+m+m+7+g.J.J.d.N K.p.j.C.D.O.H.p.O.O.U.D.C.p.s.D.v ,.C.i.5.=+#+@+I.r.,+I.y.j.=+]+U.E.E.L.E.` ` @.[.@.O r.w +.r.a 7 S 7 { t.=+L.6.t.:.<.D C C ..A h i.C 7 ].:.].l g +.:.:.8 h 5.X A ..K C c ,.:.:.c.t.=+L.v { S A [ O +.B m.@.@.y.@.` ` q.}+o+r+i+G+G+G+G+",
"&+f+k+k+R.R.<+n+o+2+g.k.2  .V d.K.s.U.F u u u F F F F u w v h [ K L.D.u F u u w w w w B F F @+Z l.` _.c.Q.` }.q r q ` p q r.F a S Z 6.w w r r u u w d a B S ^.G {.C 7 G +.q d v S +.G 7 h ,.G G A q d { G ^.<.c.r w w q q q r k r r o #.@.3 s }.}.y.q.1+r+x+i+=.&.&.~ ",
"[+)+g+[+R.R.h.n+r+8+N f.V R J  .T.C.D.j j j j j j j j j j j u [ ` V.j.j j j j j j j j j j j #+G l.,+@+t.1.t.B j j j O T @.O B O [.[+Q.j j j j j j j j j j p s t.G 8 7 v ..j j k +.Z S 7 7 G ^.C r j j d ; ] }.6.j j j j j j j j j j j r.y.6.[.y.t.:.4.}+r+r+m+$.y 4 ! ",
")+[+W./+:+!.7+h+n+7+2 R m {.+.Q P.i.C.j j O 1.@.q m.d a r j p W t y.c.j j O S q a c.Z @.1.c.6.s E.,+U.!+y.W.j j w j r [.S c.r.Q.I.U.@+j j u #.` #.a e b o j j s :.{ { Z E.j j j u _.l.8 { K :.u j j j b a ` W.6.j j F 1.1.[.` #.B O @.#+y.^.[.W.z.z.f.4+o+o+n+/ / ! ( ",
":+3+{+h.7+C+%+u+n+d.0 U H Z 6.T E.p.i.j j @.@+c.` [+@.g u j j t 6.y.A.j j #.E.m.@.Q.E.^.'+L.` 6.L.y.y.U.s.u j T 6.j j @.@.c.1.V.6.,+#+j j O s x [.v i e w k j q I.8 ' { Q j j r j { v ' { I.O j k j j i B [.#.` j j @.z.#+6.#+#+` @.Q.W.V.1.[.Q.@+'+f.}+o+i+m+! ( ( ( ",
"N ;.g.%+>.&.>+m+i+j+%+f.q.H 6.6.#+X 9.j j A t.Q.m.(.F 6 q j B =+t.L.s.j j p p r r q T Z U.#+,+#+V.W.0+@+Z j p [.:.B j p ` [.'+W.&+&+y.j j T }.9 #.x 3 3 ` w j k @.g 6 +.K j j { j j A g 6 O j k B j j B 3 #.9 A.j j r w r p q ` t.@.z.@+V.^.z.y.s.s.f.8+m+i+i+! ( ( ( ",
"&.&.&.&.&.$.z i+i+e+'.h.L - }.#.5.P +.j j j j j j j j j j j O N.-+F.F.j j j j j j j T 1.@+,+[+0+@+#+0+'+r j O #.Z [.j j O 6.#.6.T x t.j j w @.3 9 9 ^ ^ x T j j 6.7 l e.'+j j 7 d j p l g p j O @.j j ^ 9 9 9 @.j j j j j j j T }.#+y.@+t.G Z [.z.L.{+z+o+m+m+4 4 / ! ",
"=.&.=.=.&.y I i+r+7+0 h.2 <.}.c.q.P l j j j j j j j j j j q E.-+Z.I.E.j j O r.t (.#.B v a.a.6.[+k+@+W.#.j j O T O Z F j j 1.L.e.^.6.6.j j B x 3 ] ^ }.6.x r j k z.7 g [.t.j j 7 ' d j p d j u x 9 j j }.x ] 9 x j j u @.#.` S ^.t.V.z.t.V.Z #.c.` V.3+z+o+o+m+G+=.=.f ",
"=.=.=.=.&.y y n+o+B+0 L n , }.U.=+g d j j S U._.F j j O P.P.I.P.i.D.c.j j T A.6.c.6.r O a.c.c.&+x ` Q.p j j j j j j j j j w ^.` ^.V.1.j j v }.9 9 x }.` @.k j B V.3 [ [.+.j j { > v k j j q '+z.#.j j ` x 3 r #.j j B 6.t.t.c.[.z.z.'+#+y.1.T ` #.E.K.2+n+m+n+G+G+=.&.",
"=.=.=.=.=.f y d+u+6+0 n 4.V.` O.q.+.S j j +.3.P ~.@.j j F j.Q.Q.E.,+A.j j r W W t @.u r.a.c.#.}.(.@.T j k q p k r w w w j j x ` [.t.<.j j u #.] 3 ` x u r j j Z z.O [ ..G j j { ; s v j k s <.^.+.j j @.` @.] T j j v V.<.1.6.}.#+#+'+@+_.v 9 w c.j.K.j+p+v+p+G+=.=.&.",
"=.=.=.=.=.&.$.d+v+C+d.n U <.t.$+4.D.7.j j +.7.P j.9.v j j q l.E.t W }.j j j j j j j j j j j (.}.W.m.j j S E.c.` T +.,+'+r j p W.6.W.V.j j j j j j j j j j j @.V.^.[ ; Z 8 j j { [ 7 G a d Z @+Q.c.j j S a.x 9 #.j j j j j j j j j j j ,+1.@.#.[.E.O.{+{+9+p+z+=.=.&.&.",
"=.=.=.=.=.=.=.e+p+6+g.Y U q.M.k.x.N.o.j j G .+i.D.X Q @.j j p S !+!+F.j j j j j j j j j j j (.A.6.r j q !+D.E.Q.m.A y.y.` j j @.V.<.}.j j j j j j j j p u 6.V.s.^.7 = [.A j j 8 { { Z s { G b.@+` j j S @.}.x #.j j j j j j j j j j j Q.v r m.c.l.]+M.<+9+z+j+y y y 4 ",
"=.=.=.=.=.=.G+w+d+_+%+h.Y M.x.'.d.B.o.N.Y.T.p.P F.X 6 _.c.c.j.j.9.H.D.Q.t.U.e.}.(.).W ).).W (.6.}.s W.W.V.W.W.E.#.G <.t.:.@.` V.^.x ` #.9 d a @.Z G s = ` ^.<.K c.8 ` c.v ; 7 8 ; [ s 6.8 Z +.<.:.s ` 7 G G @.q ] ] ^ @.x ` y.` w m.#.c.v (.r.#.&+b.M.{+9+d+9+4 / / / ",
"=.=.=.=.=.=.G+e+j+_+g.0 d.>+N d.x.B.w.n.B.Y.{.X B.o.l.j.e.U.C.6.` l.l.}.}.W.6.(.W ).&+&+&+#.A.&+)+<.=+'+$+W./+M.$+<./././.C G V.<.G ,.D v { 8 H /.c { 3 { 8 :.].#+G G y.s 8 h K 8 s ` [.8 z.t.,.K 7 v ; 8 K S d > ) x T p #.6.3 9 @.O #.#.}.#+}.A.$+M.}+9+d+u+%.y 4 f ",
"=.=.=.=.=.=.G+z+d+_+;.0 '.z d.k. .V V S.T.Y.0.X 7..+o.H.F.o.w.z.W W (.t W (.A.6.6.z.:.$+$+c $+'+, f.k.k.M.{+k.J.K.f.4.U 4.M.- $+U 4.f.4.U E E U 4.c 8 ` v G :.<.s.b./.$+<.C h h c - b.s.<.b.,.C G = [.7 [ A v d e r T T #.c.V.s y.z.` @.Q.Q.U.e.$+M.k.y+o+m+a+=.=.&.=.",
"&.&.=.=.&.=.=.d+h+B+* N d.d.'.N N k.J.*+K.K.K.n  .J.2.T.T.V  .T.V.z.V.c.#.t t t t t ^ }.<.- Y Y {+d.g.>+d._+_+>+'.'.0 L L 2+{+3+{+{+Y n n Y Y Y Y n 4.4.U R.:+U f.Y 4.M.M./.c E n h.K.M.4.4.U 4.4.U U /.H C c G G H ,.,.L.$+:+R.:+-+C H q.f.N.N.k.J.>+1+x+r+i+G+G+=.=.",
"&.&.&.&.&.=.=.z+d+9+B+~+++;.g.%+;.;.;.g.'._+++++-.>.;.;.++5 -.>.&.&.u.>+>+k.M.!.{+!.'.'.++G+* * ~+>.=.>.>.* =.G+G+* ~+g._+5 ++++++%+'.0 d.'.N N N _+%+g.'.h.h.d.;.;.;.g.'.2 2 '.1 g.%+%+g.N 0 0 '.'.0 d.'.0 2 2 L 2 2 0 d.'.'.'.g.g.0 '.;.u.-.-.* G+* }+r+o+i+G+G+G+=.",
"&.&.&.&.&.=.++4+z+h+n+j+B+7+7+7+7+B+6+7+B+w+7+j+z+7+B+6+C+C+C+_+_+6+B+_+++~+(+D+(+D+s+++_+C+C+C+_+s+++~+++s+>.>.s+=.s+++D+~+G+G+s+C+++B+_+s+s+s+s+s+++~+++_+_+s+_+_+_+C+_+_+6+6+C+6+B+B+B+B+B+7+B+7+7+j+z+w+w+B+B+B+6+6+6+6+6+6+B+6+6+B+w+z+b+d+d+j+9+m+o+o+o+=.=.=.=.",
"&.&.&.=.=.=.j+5+4+v+n+d+z+e+w+z+z+z+9+p+9+v+y+h+v+v+9+z+w+w+e+7+e+d+y+z+w+6+B+j+B+7+e+j+9+j+j+j+B+C+C+C+s+_+s+C+7+++B+C+_+s+G+s+z+w+B+z+B+7+6+B+B+6+6+_+6+7+7+7+w+e+e+7+w+j+j+z+z+z+9+9+p+d+d+d+9+9+9+d+v+v+y+p+p+d+p+d+d+p+p+p+a+y+u+n+n+m+o+i+o+i+r+r+r+r+o+=.=.=.=.",
"=.&.&.=.=.=.c+c+5+4+z+j+9+z+p+y+y+u+p+9+y+v+u+a+r+f+e+9+j+a+p+w+d+u+v+y+z+e+j+9+9+9+9+d+9+j+j+7+C+6+_+_+_+_+_+C+6+C+C+C+C+s+F+B+e+C+6+w+B+B+B+6+C+C+C+B+7+B+7+B+B+B+B+7+w+7+w+e+j+e+w+j+z+9+d+z+j+z+z+j+z+z+z+9+d+h+p+p+9+p+y+p+y+y+v+v+n+m+o+m+o+i+r+x+o+o+i+G+G+G+=.",
"=.&.=.=.=.7+[+0+o+1+j+e+v+p+y+u+h+u+y+y+n+r+o+n+o+u+n+h+z+u+p+9+d+y+p+y+B+9+y+y+9+9+9+9+9+j+e+B+z+d+_+6+C+C+6+_+_+C+_+_+_+C+C+C+6+6+7+C+6+6+6+C+_+_+C+7+7+6+B+B+6+6+6+B+B+6+B+7+7+7+7+7+e+j+j+j+e+e+e+e+j+e+w+z+z+p+d+p+z+9+z+9+p+v+v+y+y+u+n+i+i+n+m+i+i+i+u+G+=.=.=.",
"%+++;.%+;.<+f+0+k+3+B+s+G+=.=.>.>.* &.D+D+~+~+>.D+>.~+(+=.(+=.=.=.=.(+>.=.=.=.=.=.&.&.~ ~ ~ ~ &.~ ~ * ~ f ~ ~ &.~ ~ &.&.f f ~ ~ &.=.=.G+=.=.=.=.G+G+G+=.=.=.=.G+=.=.=.G+G+G+=.=.=.=.=.=.=.=.=.=.=.=.=.=.=.=.=.=.=.=.=.E+E+=.=.=.=.(+(+~ f ~ >.~+~+>.-.~+~+~+>.=.=.&.&.",
"5+c+1+2+:+o+c+y+2+7+>.=.=.=.=.=.=.=.=.G+G+G+G+=.=.G+G+G+G+G+G+G+G+G+G+G+G+G+G+=.=.G+=.&.&.&.&.&.&.~ &.&.y 4 4 4 4 4 4 4 4 / 4 y %.&.&.&.&.=.=.=.=.=.=.=.=.=.&.&.&.&.&.=.G+G+G+G+G+G+G+G+G+G+G+G+G+G+G+G+G+G+G+G+G+G+G+G+G+G+G+G+G+G+G+G+&.&.=.=.&.=.=.=.=.=.=.=.=.=.&.",
"3+3+|+B+3+u+B+=.G+* G+=.=.=.=.=.G+G+G+=.=.G+G+G+=.=.=.=.G+G+G+G+G+G+G+G+G+G+G+G+G+=.=.=.=.=.=.=.=.=.&.%.f / / / / / / / / 4 I y y %.%.%.%.&.&.&.%.%.%.&.&.&.&.&.&.=.=.=.G+G+G+G+G+G+G+G+G+G+G+G+G+G+G+G+G+G+G+G+G+G+G+G+G+G+G+G+G+G+f 4 =.G+G+G+=.=.=.=.=.G+=.=.=.=.=.",
"'.g.'._+|+;.=.=.=.=.=.=.=.=.=.=.G+G+G+=.=.=.G+G+G+=.=.G+G+G+G+G+G+G+G+G+G+G+G+G+G+=.=.&.&.&.=.=.=.&.f 4 4 4 / / ! / / / / / 4 y $.%.%.&.&.=.&.%.$.y ! ( } | | < < < < < < | | } 1 z f * =.G+G+G+G+G+G+G+G+G+G+G+G+G+G+G+G+G+G+G+G+G+( } z G+G+G+=.=.=.=.=.G+=.=.=.=.&.",
"&.&.~ ~ %.%.%.&.&.=.=.=.=.=.=.=.=.G+G+=.=.=.=.G+G+G+=.G+G+G+G+G+G+G+G+G+G+G+=.=.=.G+&.4 4 ~ &.&.&.%.f 4 ! / 4 / ! / / / / / 4 y %.G+G+&.4 ( | < _ _ : : : : : : : : : : : : : : : : _ _ < | 1 z ~ G+G+G+G+G+G+G+G+G+G+G+G+G+G+G+G+4 } } 4 &.&.&.&.&.=.&.&.&.&.%.%.~ f ",
"=.&.&.&.&.&.&.&.&.=.=.=.G+G+G+G+G+=.=.G+G+G+G+G+G+G+G+G+G+G+G+G+G+G+G+G+G+=.=.G+G+~ / 1 ( %.=.=.=.&.%.f f y f f 4 4 y f y f %.&.*.( | < _ : : : : : : : : : : : : : : : : : : : : : : : : : : _ < | 1 z =.G+G+G+&.&.&.&.&.&.&.%.%.( } ( y 4 y y 4 4 4 4 y y 4 4 4 y &."};
