/* XPM */
static const char * fs2_btn_help_click_xpm[] = {
"131 58 256 2",
"  	c #565355",
". 	c #616467",
"+ 	c #BEDEF6",
"@ 	c #A3B7C1",
"# 	c #D5F3F7",
"$ 	c #DFFEFF",
"% 	c #010303",
"& 	c #D9FFFF",
"* 	c #E3FFFF",
"= 	c #E6FFFF",
"- 	c #EBFFFF",
"; 	c #F6FFFF",
"> 	c #7D8E8D",
", 	c #E5FBF9",
"' 	c #CCE4DF",
") 	c #B9D2CB",
"! 	c #CED3D1",
"~ 	c #010503",
"{ 	c #030705",
"] 	c #010E07",
"^ 	c #092215",
"/ 	c #5DB285",
"( 	c #5B9B7A",
"_ 	c #578D71",
": 	c #081E12",
"< 	c #07190F",
"[ 	c #0E291A",
"} 	c #1B4C31",
"| 	c #1D4F34",
"1 	c #031109",
"2 	c #1A482E",
"3 	c #173B26",
"4 	c #121E17",
"5 	c #75AF8E",
"6 	c #10311D",
"7 	c #143622",
"8 	c #4F8364",
"9 	c #49775C",
"0 	c #6C937C",
"a 	c #597966",
"b 	c #99C1A9",
"c 	c #020A05",
"d 	c #0A2213",
"e 	c #06130B",
"f 	c #0F2C1A",
"g 	c #0A1A10",
"h 	c #060E09",
"i 	c #355541",
"j 	c #0B2715",
"k 	c #539B6D",
"l 	c #14251A",
"m 	c #6BA27E",
"n 	c #010703",
"o 	c #0F2416",
"p 	c #111713",
"q 	c #698B74",
"r 	c #92A799",
"s 	c #0D2715",
"t 	c #4B9161",
"u 	c #2D5339",
"v 	c #416B4E",
"w 	c #354239",
"x 	c #0B2613",
"y 	c #0D2915",
"z 	c #0E1F13",
"A 	c #0A110C",
"B 	c #233528",
"C 	c #53735C",
"D 	c #253C2B",
"E 	c #435D4A",
"F 	c #010903",
"G 	c #0D2513",
"H 	c #4D865B",
"I 	c #192A1D",
"J 	c #2D4933",
"K 	c #3D6245",
"L 	c #5D8666",
"M 	c #4D6C54",
"N 	c #010B03",
"O 	c #345D3C",
"P 	c #45654B",
"Q 	c #3F6E47",
"R 	c #47764F",
"S 	c #567E5D",
"T 	c #405944",
"U 	c #364B39",
"V 	c #2F3D31",
"W 	c #789A7D",
"X 	c #030C04",
"Y 	c #152817",
"Z 	c #527955",
"` 	c #1F2C20",
" .	c #68936B",
"..	c #537155",
"+.	c #678669",
"@.	c #4A594B",
"#.	c #010B01",
"$.	c #010901",
"%.	c #010701",
"&.	c #010501",
"*.	c #030903",
"=.	c #010301",
"-.	c #030703",
";.	c #355C35",
">.	c #030503",
",.	c #3D653D",
"'.	c #4B6D4B",
").	c #070A07",
"!.	c #3C533C",
"~.	c #4C644C",
"{.	c #435443",
"].	c #0E0F0E",
"^.	c #456444",
"/.	c #677A66",
"(.	c #778B76",
"_.	c #3E593C",
":.	c #607A5E",
"<.	c #2B3D29",
"[.	c #5D735B",
"}.	c #455C42",
"|.	c #364734",
"1.	c #385134",
"2.	c #364B33",
"3.	c #243222",
"4.	c #10160F",
"5.	c #3A4F37",
"6.	c #2B3529",
"7.	c #3C5836",
"8.	c #32452E",
"9.	c #536A4E",
"0.	c #596C55",
"a.	c #4C6944",
"b.	c #55714E",
"c.	c #0E120D",
"d.	c #3A4A36",
"e.	c #3F4F3B",
"f.	c #74906D",
"g.	c #2E4328",
"h.	c #374F30",
"i.	c #67845E",
"j.	c #060905",
"k.	c #445D3C",
"l.	c #4C6344",
"m.	c #0A0D09",
"n.	c #4E5F48",
"o.	c #2A4022",
"p.	c #172213",
"q.	c #283A21",
"r.	c #4B5D44",
"s.	c #5D7255",
"t.	c #3E5435",
"u.	c #45553E",
"v.	c #030701",
"w.	c #1D2519",
"x.	c #3E4F36",
"y.	c #617955",
"z.	c #53624C",
"A.	c #73846B",
"B.	c #36492C",
"C.	c #3B4E31",
"D.	c #435838",
"E.	c #1F2919",
"F.	c #3A4931",
"G.	c #4C643D",
"H.	c #141A10",
"I.	c #566C47",
"J.	c #4A5C3E",
"K.	c #44543A",
"L.	c #232E1B",
"M.	c #324227",
"N.	c #354529",
"O.	c #3E4F32",
"P.	c #425236",
"Q.	c #333E2B",
"R.	c #404C37",
"S.	c #3B4B2E",
"T.	c #485A3A",
"U.	c #5B6C4E",
"V.	c #4C5743",
"W.	c #2E3B23",
"X.	c #1B2215",
"Y.	c #181E13",
"Z.	c #425332",
"`.	c #536245",
" +	c #030501",
".+	c #29341E",
"++	c #2C3721",
"@+	c #313D25",
"#+	c #3E4A32",
"$+	c #060705",
"%+	c #576549",
"&+	c #5A6450",
"*+	c #0A0B09",
"=+	c #3A452D",
"-+	c #38422C",
";+	c #505D41",
">+	c #525B48",
",+	c #282C23",
"'+	c #4B553D",
")+	c #3C4332",
"!+	c #374128",
"~+	c #404637",
"{+	c #495534",
"]+	c #363F25",
"^+	c #414B2F",
"/+	c #32352C",
"(+	c #383A34",
"_+	c #464C38",
":+	c #10120B",
"<+	c #22241D",
"[+	c #1E1F1A",
"}+	c #8F9080",
"|+	c #030301",
"1+	c #050503",
"2+	c #28281D",
"3+	c #6C6C59",
"4+	c #BCBCB2",
"5+	c #171610",
"6+	c #12110D",
"7+	c #1D1B15",
"8+	c #2E2B22",
"9+	c #0A0907",
"0+	c #332F27",
"a+	c #5A5245",
"b+	c #0F0D0A",
"c+	c #3A342B",
"d+	c #605A51",
"e+	c #433F39",
"f+	c #120F0B",
"g+	c #2D251B",
"h+	c #1E1913",
"i+	c #322A20",
"j+	c #191510",
"k+	c #6D5C48",
"l+	c #282119",
"m+	c #574837",
"n+	c #3E3327",
"o+	c #2E261D",
"p+	c #45392C",
"q+	c #2A231B",
"r+	c #4C3F31",
"s+	c #251F18",
"t+	c #62503D",
"u+	c #372D23",
"v+	c #16120E",
"w+	c #1C1712",
"x+	c #221C16",
"y+	c #7D6954",
"z+	c #0D0B09",
"A+	c #28231E",
"B+	c #4C4641",
"C+	c #050302",
"D+	c #090706",
"E+	c #030101",
"F+	c #030303",
"G+	c #010101",
"=.&.&.&.%.=.=.&.&.&.=.=.&.&.=.=.=.=.=.&.&.=.=.=.=.=.=.G+G+=.%.&.&.=.G+G+G+G+G+e 3 } } } 2 } } } } } 2 : : : ] ] ] ] ] ] ] ] N F n $.$.$.$.=.G+G+G+G+=.&.%.%.&.=.&.=.G+G+G+=.&.=.G+G+G+G+G+G+G+G+G+G+G+G+G+G+G+G+% < ^ 1 G+G+G+=.: 2 | | | 7 : ^ 2 | | | [ G+G+G+=.=.&.",
"=.=.&.&.&.=.=.=.&.&.=.G+G+=.=.=.=.=.=.=.=.=.G+G+G+=.=.=.G+G+G+G+G+G+G+G+G+G+h 3 } 2 2 2 2 2 2 2 } 2 f e ^ < n %.n ~ n n n n n &.=.&.&.%.%.&.=.G+&.&.&.&.&.&.%.%.%.%.%.=.G+G+G+G+G+G+G+G+G+G+G+G+G+G+G+G+G+G+G+G+{ < : % G+G+G+G+G+h 3 | 2 ^ : 7 | } } | | [ =.G+=.=.=.",
"G+=.=.=.=.G+=.=.=.=.=.=.G+G+G+G+G+G+G+G+G+G+G+G+G+G+G+G+G+G+G+G+G+G+G+G+G+h 3 } 2 2 2 2 2 2 2 } 2 d G+n : ^ ] G+=.=.=.&.&.=.=.G+G+G+=.&.=.=.=.G+G+=.&.&.&.&.&.&.%.%.&.=.G+G+G+G+G+G+=.=.=.=.G+G+G+G+G+G+G+G+G+G+G+~ { G+G+=.=.=.G+G+{ 6 f : [ } } } } } | | o G+G+=.=.",
"G+=.=.=.=.=.=.=.=.=.=.G+G+G+G+G+G+G+G+G+G+G+G+G+G+G+G+G+G+G+G+G+G+G+G+G+h 3 } 2 2 2 2 2 2 2 } 3 < G+=.=.1 ^ < ~ =.=.=.&.&.=.=.G+G+G+G+G+G+G+G+G+G+G+G+G+G+G+G+G+=.=.G+G+G+G+G+G+G+&.$.$.$.%.&.G+G+G+G+G+G+G+G+G+G+G+G+G+=.%.%.%.&.=.=.1 : ^ 3 } } } } } } | | d G+%.F ",
"&.%.%.&.=.=.G+=.=.=.G+G+G+=.G+G+=.%.%.&.=.=.=.=.G+G+G+G+G+=.=.&.=.G+G+~ 7 } 2 2 2 2 2 2 2 } 3 e ~ F F F c : ^ 1 =.n c F ~ =.=.G+G+G+G+G+G+G+G+G+G+G+G+G+G+G+G+G+G+G+G+G+G+G+G+G+G+&.%.%.%.%.=.G+G+G+G+G+G+G+G+G+=.G+G+G+G+=.=.=.=.G+n : : ^ 2 | } } } } } } } 2 g %.F ",
"F N N ~ =.=.=.G+z+5+j+h+x+B+d+u+o+0+0+c+(+B+d+d+.   a+a+r+3+r+n+u+u+i+0+c+c+D 2 2 2 2 2 } 7 e ] 1 1 1 1 ] < d : c ] 1 ] N &.=.=.G+G+G+G+G+G+G+G+G+G+G+G+G+G+G+G+G+G+G+G+G+G+G+G+G+G+&.&.&.=.G+G+G+G+G+G+G+G+G+G+G+G+G+G+G+G+G+G+G+G+e ^ < ~ < 2 | } } } } } } | 2 < =.",
"F N F &.=.=.$+x+i+n+r+t+t+}+}+}+r r 4+4+) ! ! ' ' ! ) 4+4+4+}+}+y+a+r+n+u+i+i+++2 2 2 2 7 e ] 1 1 1 ] ] ] ] : : 1 c ] ] n &.=.=.G+G+G+G+G+G+G+G+G+G+G+G+G+G+G+G+G+G+G+G+G+G+G+G+G+G+G+G+G+G+G+G+G+G+G+G+G+G+G+G+G+G+=.G+G+G+=.=.=.G+n e c G+G+e 2 } } } } } } } | 2 h ",
"&.%.&.=.=.=.w+r+p+p+y+4+4+! # * - ; ; ; ; ; ; ; ; - = = $ $ $ * , ' ) r 3+p+i+8+2 2 } 7 1 c ] c ] ] F n F F ] X =.&.n %.=.=.=.G+G+G+G+G+G+G+G+G+G+G+G+G+G+G+G+G+G+G+G+G+G+G+G+G+G+G+G+G+G+G+G+G+G+G+G+G+G+G+G+G+G+G+G+=.=.=.&.&.&.=.=.G+G+=.G+G+< 2 } } } } } } } | 7 ",
"G+=.=.=.=.=.z+p+n+n+A.# $ & * & & & & & $ - ; ; ; = $ & & & & & $ & & = r B+u+u+B V ` 6+v+l+l+q+g+u+l+o+g+g+o+o+g+g+o+i+i+i+i+i+i+i+i+i+i+i+i+u+u+u+n+i+l+x+x+x+c+o+o+q+g+i+g+q+l+v+z+l+w+s+s+j+z+9+9+9+9+9+D+D+6+w+v+j+j+5+5+q+s+j+v+j+$+G+G+G+G+< 2 } } } } } } } } ",
"G+G+G+=.=.=.$+l+u+p+r+d+> @ + + # # & & $ - ; ; - = * * = $ $ # + @ r . 0+l+u+n+m+c+q+x+i+u+o+i+n+a+u+n+p+p+r+p+n+r+m+m+m+m+m+t+t+t+m+m+k+t+t+k+k+y+y+y+m+n+m+m+t+t+m+p+p+p+n+m+}+y+o+m+m+r+m+p+h+j+v+b+b+6+6+v+x+n+r+o+g+o+i+p+t+n+i+u+u+7+G+G+G+G+g } } } } } } } } ",
"G+=.=.=.=.=.$+o+u+r+t+m+u+p+B+  . > r r @ @ ) @ @ @ @ r > > (.. B+c+l+h+i+u+n+m+p+o+g+q+q+l+u+n+n+n+n+n+n+r+m+p+r+r+m+t+t+t+t+t+t+t+m+t+t+t+t+k+k+k+k+y+y+m+t+k+y+a+t+t+m+m+m+t+y+m+p+m+t+m+r+t+r+i+l+w+j+w+h+x+l+l+p+n+l+u+r+m+m+p+i+i+u+r+u+:+n &.G+[ } } 2 2 } 2 2 ",
"G+=.=.=.=.=.D+u+p+m+m+c+c+c+c+0+0+0+c+e+B+  /..     B+(+0+u+o+q+l+s+A+A+8+q+x+q+j+v+5+j+w+w+j+w+h+h+h+w+w+h+s+x+w+h+l+q+q+q+l+q+q+l+g+o+q+s+s+q+s+x+l+i+n+o+s+l+p+0+i+q+x+w+q+0+x+w+h+h+q+q+w+s+l+7+7+h+6+Y.7+h+v+6+j+h+v+x+2+l+l+u+p+o+u+a+n+m+n+A &.G+6 } 2 2 2 2 2 ",
"G+=.=.=.=.=.$+l+i+u+5+6+7+[+[+A+A+8+/+(+(+B+  B+e+e+(+c+c+0+0+,+<+[+7+5+6+:+b+m.m.h ).).).j.~ -.{ { j.).).j.~ -.j.-.&.>.{ >.=.=.=.{ ).).j.-.j.{ j.c c ~ ~ -.j.).~ ~ n c A A h ).j.h { ~ ~ { ).).).A A A 4.4.c.m.).m.m.).j.% =.=.% m.h+l+u+m+p+t+k+r+8+1+c 3 } 2 2 2 2 ",
"G+=.=.=.=.=.>.h+s+f+f+5+w.B 6.8+,+0+Q.d.e.{.>+_+_+_+_+~+)+)+)+Q.Q.-+]+.+L.E.E.<.3.3.E.w.L.X.p.p.p.H.Y.X.X.X.p.Y.Y.X.E.E.p.H.H.6+:+4.H.Y.X.X.Y.w.` E.` Y.Y.Y.H.p.Y Y.w.p.I I ` B I Y p.X.H.Y.Y.4.H.Y.Y.E.3.3.` Y.Y.Y.Y.H.:+m.m.m.).).m.c.s+u+n+r+y+m+m+m+b+< 2 } 2 2 2 ",
"&.=.=.=.=.=.1+h+s+6+6+7+<+6.Q.)+_+_+u.>+V.>+&+'+V.;+;+_+-+)+#+!+!+!+N.]+M..+@+_._.8.B.g.W.L..+.+.+.+L.3..+L.8.B..+W.]+L.L.L.++2+.+.+.+.+L..+@+q.<.3.3.p.p.L.q.3..+q.8.<.<.J J J J J V 8.o.q.q.<..+E.p.3.q.<.<.++L.w.E.E.X.Y.4.4.:+m.9+m.).f+g+p+t+t+m+n+n+g+o } 2 2 2 ",
"X =.=.G+G+G+1+w+x+6+f+Y.[+2+W.Q.=+-+)+R.#+_+R.Q.-+=+#+Q.!+!+B.N.M.M.W.q.N.@+S.}.}.t.t.D.C..+++!+@+@+W.L..+W.W.M.W.W.W.@+M.@+S.M.M.F.-+]+=+B.C.8.8.W.q.<.J <.8.g.q.q.8.J 8.!.P ^.E |.J J o.q.g.B.g.V J q.q.<.8.F.N.@+W.W.@+.+L.L.X.H.H.:+).-.{ 6+n+m+p+u+u+t+r+7 2 2 } ",
"1 G+=.G+G+G+|+v+h+6+b+w+E.3.++-+l.S.S.Z.^+#+P.^.C.=+O.t.}.P ^.C.M.t.1.M.N.S.K.t.t.B.M.O.^+]+++@+^+W..+.+L.++++@+M.k.O.++.+@+W..+++++@+M.M.M.N.B.2.N.J i i !.2._.!.5.8.u J K 8 8 9 u u 8.F.5.7.t.5.i i u M.2.2.M.M.@+@+M.W..+L..+++E.Y.E.E.H.*+-.~ :+u+p+t+t+k+e 2 2 7 ",
"< =.=.%.&.&.-.6+j+:+b+Y.3.U 5.J.J.l.D.{+K.'+b.k G.O._.^.S Z t.B.N.t.D.B.N.M.@+B.M.M.B.J.J.{+{+!+S.C.@+M.++E.W.W.k.k.B.@+.+@+@+++W.W.W.<.W.@+x.K Q 1.K C [._.Q P ~.M {.!.P Q Q R K v T e.M ~.P Q 7...[.v 7.v Q t.B..+M.W.W.W.++W.M..+W.W.g.<.X.m.j.&.% l+y+a+n+G+[ 6 : ",
"d &.&.N N F *.6+f+).9+Y.w.Q.M b.K.P.O.T.r.J.J.'.t.D.b.Z b.l.}.k.g.o.o.o.o.q.M.7.1.O.t.a.G.T.T.J.P.N.B.l.B.L..+@+B.=+C.!+!+F.F.-+x.B.^.^.2.1.a.R R _.P x.^+2.P J.u.0.[.{.C H Q _.H 8 E z.:.}.K.~.1.x.P.P T '.9 '.k.|.}.^.C.F.=+-+F.-+!+C.#+M..+X.:+m.{ 7+y+}+m+{ < : ^ ",
"y c =.%.n $.%.6+v+m.).H.Y.W.J.l.P.C.Z.D.S.=+k.'.Q O.9.8 }.D.C.g.g.o.o.q.q.++@+k.t.B.B.N.D.7.S.Z.=+@+N.D.Z.++.+]+]+++++W.++L.L.@+!+=+}.D.2.F.'.8 M ^.8 R T 9.i.'+d.x.`.;+M L P _.S S r.`.K.d.P.i.s.K v 9 M ~.8 9 x.F.t.}.#+-+@+.+L.++W.W..+@+]+.+E.Y.m.l+y+y+k+: ^ : 3 ",
"f e G+&.=.=.&.f+v+9+m.X.++P.h.g.o.g.o.M.M.S.Z R O ;.Z ..T.@+++.+q.++L.q.W.W.M.D.P.N.B.h.N.^+{+S.]+O.a.G.N.W..+=+P.B.@+=+B.N.N.@+M.K.K.u.5.W.T C }.^.S S ..a.Z.Q.#+x.d.x.l.s.P T 0.9.K.d.x.x.Q.O.G.9.S S '.K.M P @+|.e.K.K.F.W.M.M.B.#+!+N.P.^+W.++L.Y.8+k+y+k+^ e F 7 ",
")+/+0+,+[+5+6+j+w+z+m.E.F.D.g.o.;.Q ,.1.k.k.S P t t k.D.Z.W.@+@+.+.+q.q.q.q.M.O.#+N.O.t.7.O.T.l.Z.-+`.J..+N.M.S.P.C.O.S.F.t.B.=+F.=+#+#+)+=+R.u.}.~.Z _.C.8.8.T !.x.~.M T _.}.l.k._.~...K.x._.|.g.h.x.R 9.^.u.K.=+-+)+#+=+=+-+N.t.O.=+S.C.P.^+=+S..+w.0+k+k+k+1 &.=.: ",
"k+a+m+a+c+<+w+i+p+[+m.Y.q.g.<.S.R k Q 7.R D.G.8.,.g.W.Z.D.N.q.g.q.++,.O B.1.M.M.W.h._.k.'.k.D.D.S.M.W.!+!+Z.N.@+P.J.P.x.D.C.N.@+W.#+#+Q.x.O.<.Q._.B.a.}.}.|.d._.!.!.}.~.{.!.5.U !.!.E l.5.!._.5.|.K.T ^.5.5.2.<.F.P.Q.F.O.@+W.M.S.K.P.D.}.D.]+M.t.]+w.8+y+y+t+G+=.&.X ",
"3+d+B+e+0+<+5+n+r+5+m.p.D h.h.7.H k t t R t.Z.B.7.Q M.S.G.M.@+S.g.M.;.7.) ) > D.N.P.k.^.J.P.r ) r T.N.]+J.J.) ) ) ) ) ) ) ) ) ) ) ^+F.F.#+u.) ) r _.5.!.^.2.8.8.1.|.u.}.) ) ) ) ) ) ) ) ) ) r U 8.}.!.5.!.P 2.i }.P.F.=+#+=+!+N.O.T.R.T.J.J.-+O.K.T.X.q+k+k+m+G+=.&.G+",
"3+d+a+e+8+7+v+i+n+j+A B D <.2.^.t k t R '.D.O.S.k.k ^.S.C.M.M.B.M.M.h.h.* * > C.J.%+l.J.=+@+) * ) x.O.!+S.^+* * * * * * * * * * * #+K.e.K.'+* * r t.!.9 {.8.U |.U !._.t.* * * * * * * * * * * b 8.e.M P x.^.!.e.K.'+x.P.O.^+#+-+#+K.P.Z.'+T.K.l.^+=+Y.q+t+t+m+G+=.=.=.",
"a+d+d+e+0+w+5+n+m+5+m.l ` D 2.C.a.^.k.k.Z.S.Z.S.B.C.B.O.k.7.M.C.g.W.t.#+* * > M.T.;+O.W.W.M.) * ) l.9.V.)+;+* * b A.A.A././././.A.^.J.R.K.J.* * r k.}.P d.2.|.U !.T {.x.* * @ q (././.q q ' * ) d.|.E P }.^.'.P J.u.e.K.}.T.^+=+-+F.T.D.x.#+T.`.I.=+` 8+t+m+m+G+=.=.=.",
"a+d+3+a+8+<+v+n+o+f+).4 3.3.8.F.l.l.D.D.O.N.O.O.Z.R _.O.a.h.M.B.8.B.M..+* * > N.S.J.D.]+^+K.) * ) n.J.e.F.#+* * r u.b.b.9.P.x.K.;+l.u.K.#+u.* * r }.P.d.8.d.|.!.5.T !.!.* * r M E !.!.!.T ) * ) 2.8.d.x.}.!.5.n.l.P.P.K.n.`.'+P.R.n.b.s.r.r.'+!+^+=+` 8+t+m+r+G+=.&.=.",
"d+a+3+k+p+[+v+o+e+,+{ 4.I ` |.K.}.J.T.T.Z.N.N.C.Z.G.O.k.;.g.S.B.g.S.,.h.* * ' ) ) ) ) ) ) ) # * ) =+#+K.J.3+* * # ' ' ' ) r T.P.K.t.B.D.}.}.* * r r.u.r.u.!.d.|.!.5.2.!.* * b q 0 q q /./.' * ) 5.u.r.}.}.}.e.R.u.u.u.F.t.P.P.P.J.9.+.W r 4+(.A./.J.3.2+t+m+p+G+&.%.&.",
"B+B+a+d+e+A+v+u+r+[+j.A Y.E.F.8.O.t.Z.Z.O.Z.O.Z.P 1.N.G.H _.S.k.<.N.t.g.* * * * * * * * * * * * ) _+V.s.:.3+* * * * * * * r P._+'+^.T 9.9.9.* * r n.M e.=+2.8.<.|._.O ^.* * * * * * * * * * * b 5.F.d.~.9.u.u.k.~.~.s.}.~.J._+_+k.1.'.i.Z n.0./.3+s.)+8+m+m+p+G+&.$.$.",
"a+d+a+e+e+A+z+n+n+v+j.A 4.E.Q..+W.O.S.G.Z T.I.P.Z k.S.D.'.#+C.D.8.S.k.8.* * b 0 W (.A.0 /.A.' * ) %+V.n.K.d.* * b W W f.W L 9.'+b.M E %+;+r.* * r 9.r.!.5.!.T _.D.K 9 C * * # ' ' ) ) ) ) ) b ~.{.e.!.r.9.9.;+J.n.'+I.}.M ..;+z.Z Z G.I.Z P _.B.F.x.6.8+r+r+n+G+=.%.$.",
"3+d+B+0+<+7+[+n+n+6+).c.Y.E.w.3.S.S.S.T.G.B.D.P.`.`.Z.D.k.=+t.^.8.B.t.N.* * r Z l.K.%+[.;+'+) * ) -+W.F.r.~.* * b L i.y.^. .L ..S S C J.'+'+* * r u.K.}.{.E P K _.K 8 P * * b ( ( M }.8 v t.K v P {.T u.e.M 0.[.;+K.T.M 8 Z ..S  .'.b.i.L q +.s.9.}.L.x+p+p+i+=.&.&.&.",
"d+3+a+c+[+0+<+u+u+6+m.H.H.4.m.w.B.T.P.D.S.N.B.S.S.P.{+O.B.#+_.8 !.O.C.C.* * r J.i.%+J.%+T.=+) * ) z.K.9.:.:.* * b L i.W '.i.m 8 S 8 _ r.#+K.* * r {.U E E Z S v 1.P 8 ^.* * b k '.}.}.9 v 2.K S Z P E i !.r.}.[.;+=+K.a 8 S 8 (  .'. .f.L L z.+./.:.8.2+p+r+n+G+=.=.=.",
"A.d+B+B+(+(+[+i+p+w+m.X.4 l 3 4.w.x.P.B.{+T.K.C.S.O.S.,.l.x.P ( P K.D.D.* * r `.%+U.`.-+O.^+) * ) :.~.s.0.:.* * * * * * * * * * * ..[.9.n.+.* * * * * * * * * * r K 8 R * * b H S '.M 9 v !.M M ..S 9 _ M ~.{.[.q 9.z.:.0.C _ m i. .5 +.+.q C /./.z.Q.8+r+m+n+=.G+=.=.",
"3+3+}+/.(+(+7+i+r+7+A 3.7 <.O I E.P.D.C.{+J.T.T.S b.Z H r.F.Z k [.V.k.a.* * r H H #+;+D.P.'+) * ) %+'+;+9.r.* * * * * * * * * * * 3+&+>+:.W * * * * * * * * * * r 9 8 L * * r v P ..S 8 9 M ~.{.T v ( 5 ( 5 /.[.0 +.&+%+/.&+ . . .i. .i.z.[.9.z.r.}.6.2+r+r+u+G+G+G+G+",
"3+/.d+e+/+[+6+g+i+6+4 D u T '.R #+C.t.T.T.P.K.b.m i.m k J.l.W b r z.0.s.D.'+9.m _ ;+J.s.P.;+[.C I.%+K.#+z.>+z.9.9.>+>+0.S s.i.U.J.P.'+V.:.[.:.&+/._ 5 b ( P.~.~.E _ _ b.9._.P [.!.~.b.9 _ P r.M K.S b b ( a &+[.[.[.z.'+K.u.U.:.i.:.[.`.z.z...&+>+n.,+s+p+p+i+G+G+G+G+",
"/+,+<+7+6+z+*+o+i+4.p D T ..[.q I.B.C.`.J.'+u.s.:.3+i.k k./.r }+0.z.(.4+}+%+I. .+.U.9.~.R.K.:.[.u.z.z.P.R.K.n.0.0.n.z.;+L [.9.V.[.`.>+r.b.U.C q 0.L 5 5 m n.+.L J.9 / _ R O E 9.O K L / _ J.M q 9.L 5 5  .0.+.a U.y.r.>+;+s.>+n.:.L 0.&+V.9.0.0.u.R..+2+p+n+i+G+=.G+G+",
"l z z z g < Y.u+p+j+*+3.Q.T [.:.`.,.7.O.D.t.;+U.f.}+ ./ }.Q.L.=+n.u.d.R.V.y.f.f.A.s.:...K.`.%+z.V.&+a+'+J.P.r.`.}.r.V.'+:.9.R.&+A.A.z.z.s.i./.W +.q q 0 :.:.+./.:.k / '.P 9 9 9 9 v P k / L /.+.:.:.q q q +.W (./.y.z.n./.(.&+'+r.+.n.u.V.n.n.z.R.R.6.7+u+n+n+G+=.G+G+",
"j j j y y s f p+n+v+].Y.w.w /.+.F.Q '.J.i.Z K.y.+.y.Z S T.S.W..+-+M.M.M.S.;+i.(.&+`.y.9.'+%+3+a+'+>+'+_+9.n.9.+...z.'+z.;+[.+.[.f.f.r.V.U.A.+.0 W 0 0 0 q :.0...[.8 t l.R.8 k 8 k T '+H k [.0.0.0.+.0 0 0 W W +.f.y.V.V.:.f./././.`.z.'+;+......n.u.w.h+p+u+u+G+G+G+G+",
"j j j j j j y p+r+6+p Y.4 {./.s.Q.Q t ;+U.}.U.i.f.U.y.y.J.J.T.-+@+J.I.U.;+T.U.}+}+y._ L y.y.[.3+_+'+&+%+:.:.[.+.:.V.V.n.V.n.u.l.~.[.:.0.n.[.q 0 5 0 /.:.q 0 A.:.@.8 k b.r.( ( 8 / M `._ k P 0.A.(.0 :./.q 5 0 q /.n.0.[./.9.~.J.r.;+n.r.V...+.[.:.V.<+w+p+p+u+G+G+G+G+",
"j j j j j j y c+p+f+p I B @.:.K.=+k m ;+r.d.P.l.'.s.`.U.O.O.J.O.C.T.s.G.`.y.(.:.s.s.5  .y.s.s.A.(.:.%+;+y.+.:.+.:.r.%+_+V.n.~.[.n.V.9.+.}.n./.m m q /.:.:./.z.e.V.( ( ..R / ( _ / 8 9.L ( z._+@./.i.s./.q 0 m +.0.T [.[.r.r...M n.>+_+`.z.9.0 :.+.9.w.w+i+n+i+G+G+=.G+",
"j j j j j j j <+i+b+p B D V.:.F.Q.'.S s.D.L.o.Q ;.r.l.J.k.D.U.U.I.%+(.b (.W r r r +.m i.y.s.+.:.W +.U._+I.Z f.W L P n.~+`.z.:./.0.@.{.r.M L +.5 0 a +.L S 5.}.}.n._ _ Z M _ ( _ ( C b.8 _ 0.u.~.x.b.L +.a +.5 f.:.C }.V.{.9.[./.>+`._+'+~.L m W b.k.w.5+x+q+s+G+=.G+G+",
"j j j j j j j <+q+z+4.3.V u.r.F.6._.8._._.L.g.Q k.t.'.;+y.I.;+%+r 4+/./.z.z.K.s.W b / m W f.(./.&+A.f.A.'+a.s.:.0 '.%+~+`.&+[.&+s.&+V.~.a :.+.0 0 :.Z S 9.V.&+V.~._ ( ..9 _ _ _ k 8 M _ ( ..u.9.>+n.[.S y.q W +.[.a M V.z.0.&+&+0.U.'+%+9.L A.0.a.F.<+<+h+x+w+G+G+G+G+",
"j j j j j j j Y.x+z+m.` V Q.,+X.Y..+q.o.h.3.L.C.D.,.R %+I.a.C.K.^+^+M.q..+B.C.=+;+r b b b r (.f.[.A.y.y._+T.~.U.f.S z.z.V.&+0.V.V.{./.A.a a +.q +.i.S a [.z.V.R.~.8 a ..8 ( 8 9 _ _ ..a _ M e.u.z.s.a S i./.q +.a a :.A.@.'+V.z.U.s.[.U.L W A.s.b.!+,+[+h+w+j+G+G+G+G+",
"j j j j j j j Y.h+9+).Y.` ` Y.c.4.E.q..+++L.h.Q M.,./ a.s.s.k.T.7.g.D.U.r.P.l./.W r b r r b W 3+/.C &+&+V.&+&+U.+.M u.r.r.L a {.n.q :.+.W m m L ..M C a a n.u.P ..9 :...L ( 8 9 ( ( C [.9 ..'.T }.C a a M M L m 5 5 0 +.q :.z.a m  .+.s.L W i.A.A.R.,+<+h+x+h+G+G+G+G+",
"j j j j j j j Y.j+9+m.p c.c.A 4.Y.E.L.p.L..+_.K E.q.b.J.l.P.P.[.:.b.b././.&+[.W b r A.A.A.+.(.A.. {.-+_+~+&+~+,+)+{.|.|.|.E M {.{.M {.!.a _ 9 T |.i _ 0 _ 9 }.^.>+M M z.C 9 v P 9 C :.b.9 >+l._.P 8 L 0 9 P S 5 5 5 q 0 5 +.:.0 m i. . .+./.`./.(.~+,+2+h+x+g+G+G+G+G+",
"j j j j j j j X.x+9+).p c.).4.X.I 3.3.X.L.q.8.,.g.L.q.8.M.q.L.n.4+) W r b > (.[.[.n.}.d.d.i )+_+@.6.Y.X.,+<+X.H.w.6.6.V 6.,+w |.V <.3.6.V J J V D i 9 a L M @.{.d.e.|.d.{.E v v i w e.d.u.R.!.E M a 0.a _ S L m 5 m  .f.+.0.V.C z.>+:.:.U.U.P.l.)+,+Y.l+p+u+g+G+G+G+G+",
"j x j j j j j <+g+f+% m.4.4.A A A p.H.p.w.w.w.B E.H.p.L.L.` Y <+>+>+V.0.+.> r > r > 0 /.{.V ` ` <+4.m.c.4.).m.c.c.c.p w.w.H.<+<+[+w.` B B ` ` I ` B 6.6.V (+/+V ,+3.6.,+,+U i J B Y.w.3.6.6.V 6.6.V V w {.E i M M T i {.u.)+/+(+/+-+E T Q.3..+3.p.H.b+2+m+r+n+G+G+G+G+",
"x j x j x j x 7+x+h+f+1+j.).m.).).).j.m.A ).j.$+{ >.j.).j.j.{ >.&.&.j.c.c.X.,+[+<+[+].].$+G+% % { >.=.>.>.% =.G+G+% { m.*+{ $+$+$+*+c.p 4.A A A m.).*+m.A Y.Y.4.).).).m.].4 4 c.g m.*+*+m.A p p ].c.p 4.].p 4 4 l 4 4 p 4.].c.].m.m.p c.).j.-.{ % G+% 2+r+p+n+G+G+G+G+",
"x x x x j j o s+w+g+i+j+f+6+6+6+6+f+b+6+f+v+6+j+w+6+f+b+z+z+z+9+9+b+b+9+1+1+|+C+|+C+D+1+9+z+z+z+9+D+$+1+$+D+>.>.D+=.D+$+1+1+G+G+D+z+$+f+9+D+D+D+D+D+$+1+$+9+9+D+9+9+9+z+9+9+z+z+z+b+f+f+f+f+f+6+f+6+6+j+w+v+v+f+f+f+b+b+b+b+b+b+f+b+b+f+v+w+x+x+x+j+h+u+p+p+p+G+=.=.G+",
"x x x x x x ` 0+s+l+i+x+w+v+v+w+h+w+h+x+h+l+l+g+q+A+h+w+v+v+v+6+v+h+s+w+v+z+f+j+f+6+v+j+h+j+j+j+f+z+z+z+D+9+D+z+6+$+f+z+*+D+G+D+w+v+f+w+f+6+b+f+f+b+z+9+b+6+6+6+v+v+v+6+v+j+j+w+w+w+h+h+x+x+x+h+h+h+h+x+l+q+l+s+x+x+x+x+x+x+s+s+g+l+o+i+i+u+p+p+p+n+r+r+r+r+p+=.%.&.G+",
"x x x x x x )+c+0+s+w+j+h+w+s+s+s+i+s+h+s+q+o+g+r+d+v+h+j+g+x+v+x+o+l+s+h+v+j+h+h+h+h+x+h+j+j+6+z+b+*+9+9+9+9+z+z+z+z+z+z+D+F+f+v+z+b+v+f+f+f+b+z+z+z+f+6+f+6+f+f+f+f+6+v+6+v+v+j+v+v+j+w+h+x+w+j+w+w+j+w+w+w+h+x+g+s+s+h+x+l+x+l+l+q+l+i+n+p+u+p+n+r+m+p+p+n+=.$.%.G+",
"x x x x x ` 3+a+p+8+j+v+q+s+l+o+g+o+l+l+u+r+p+u+r+i+0+o+h+o+s+h+x+s+x+l+f+7+l+l+h+h+h+h+h+j+5+f+w+x+z+b+z+z+b+9+9+z+9+D+9+z+z+z+z+b+6+z+b+z+z+z+9+9+z+6+6+b+f+f+b+z+b+f+f+b+f+6+6+6+6+6+v+j+w+j+v+5+v+v+j+v+v+w+w+s+x+s+w+h+w+h+s+l+q+s+s+o+i+n+n+i+u+n+n+n+o+=.F $.G+",
"Y z o o Y 3.a+a+B+A+6+).e G e |+|+% &.g 6 7 6 6 6 6 7 d =.-.N F >.{ c h e < e ~ =.~ F F c F F N c N N n =.G+G+=.=.=.G+G+G+=.G+G+=.G+G+G+G+=.=.=.=.=.=.=.=.=.=.=.=.=.=.=.=.&.&.=.G+=.=.G+G+&.$.F F N F =.E+=.E+E+E+E+=.=.=.=.=.=.&.|+|+% =.=.|+>.>.-.*.*.>.C+|+=.%.&.G+",
"8+c+8+w+c+e+c+2+<+6+e d x j d % G+G+G+1 6 6 6 6 f f f d 1 e < : : : ^ ^ ^ ^ : % G+&.F F F N F N F N N n G+G+G+G+=.=.G+G+G+G+G+G+G+G+G+G+G+G+G+=.=.G+G+G+G+=.=.=.G+G+G+G+G+G+=.G+G+G+G+G+G+G+=.&.&.&.=.G+G+G+G+G+G+G+G+G+G+G+&.%.=.G+G+G+G+G+G+G+G+%.$.=.G+G+G+G+=.G+G+",
",+A+5+].A+o+6+: x d x x x x x e ~ { X < j j ^ ^ ^ : : : ^ ^ ^ ^ ^ : < < < e ] =.=.n F F F F F F F F F %.G+G+G+G+G+G+G+G+G+G+G+G+G+G+G+G+G+G+G+G+G+=.G+G+G+=.G+G+G+G+G+G+G+G+G+G+G+G+G+G+G+G+G+G+G+G+G+G+G+G+G+G+G+G+G+G+G+G+=.&.G+G+G+G+G+G+G+G+G+$.#.&.G+G+G+G+G+G+G+",
"p 4.p c.Y.z : d x x d d d d : : : : ^ ^ : : : : : ^ ^ d e e 1 X ~ % =.G+=.G+G+G+=.n F n F F F F F F F %.G+G+G+G+G+G+G+G+G+G+G+G+G+G+G+=.G+G+=.=.=.=.=.G+G+=.=.=.=.=.G+G+G+G+G+G+G+G+G+G+G+G+G+G+G+G+G+G+G+G+G+G+G+G+G+G+G+G+G+G+G+G+G+G+G+G+G+G+G+$.#.&.G+G+G+G+G+G+G+",
"d d d d d d d : : : : : : : : : : < < e d j [ [ f 6 6 [ n &.%.&.G+G+G+G+G+G+G+G+=.%.F $.F F F F F F F $.=.G+G+G+G+=.&.=.=.G+G+G+G+=.G+G+=.G+=.&.&.&.=.=.G+=.=.=.&.=.=.G+G+=.=.G+G+G+G+G+G+G+G+G+G+G+G+G+G+G+=.&.&.&.&.&.&.&.G+G+G+G+G+G+G+G+=.G+G+%.$.&.G+G+G+G+G+G+G+",
": : : : : : : : : d : d d d d x d h =.=.j 6 6 6 6 6 6 f { =.$.%.G+G+G+G+G+G+G+=.=.%.$.%.$.$.$.$.#.#.$.%.=.=.=.G+G+&.$.&.%.=.G+G+G+G+=.G+G+G+=.~ %.&.=.=.=.=.=.=.=.=.=.=.G+=.=.G+G+G+G+G+G+G+=.&.=.G+G+G+G+G+%.F F F F #.F F =.G+G+G+G+G+G+=.=.=.G+%.%.=.G+G+G+G+G+G+G+"};
