/* XPM */
static const char * fs2_btn_setup_xpm[] = {
"131 58 256 2",
"  	c #121619",
". 	c #151C21",
"+ 	c #212B32",
"@ 	c #2F454F",
"# 	c #2C4E58",
"$ 	c #47686E",
"% 	c #336165",
"& 	c #677E7F",
"* 	c #010303",
"= 	c #323F3B",
"- 	c #57786D",
"; 	c #5D9B83",
"> 	c #67BC97",
", 	c #4B5651",
"' 	c #020E08",
") 	c #010503",
"! 	c #030705",
"~ 	c #05140C",
"{ 	c #5DB184",
"] 	c #5B9476",
"^ 	c #568C70",
"/ 	c #0A1E13",
"( 	c #1A492F",
"_ 	c #1B4B31",
": 	c #19452D",
"< 	c #57A077",
"[ 	c #4D8265",
"} 	c #719782",
"| 	c #0A2214",
"1 	c #163C26",
"2 	c #121E17",
"3 	c #85C09E",
"4 	c #081C10",
"5 	c #76C495",
"6 	c #6EA885",
"7 	c #111613",
"8 	c #020A05",
"9 	c #0C2616",
"0 	c #11331E",
"a 	c #08180E",
"b 	c #345641",
"c 	c #83D6A3",
"d 	c #49775A",
"e 	c #213428",
"f 	c #0D2B18",
"g 	c #0E2D19",
"h 	c #0F301B",
"i 	c #051009",
"j 	c #529A6C",
"k 	c #77B58D",
"l 	c #7BA68A",
"m 	c #010703",
"n 	c #6EB887",
"o 	c #243C2C",
"p 	c #77B78D",
"q 	c #76B089",
"r 	c #698E75",
"s 	c #B5C4BA",
"t 	c #2D5339",
"u 	c #192C1F",
"v 	c #406B4D",
"w 	c #52755D",
"x 	c #1B3623",
"y 	c #4C9060",
"z 	c #6BA17A",
"A 	c #80BF91",
"B 	c #679A74",
"C 	c #3E5945",
"D 	c #54835F",
"E 	c #425E49",
"F 	c #364C3B",
"G 	c #010A03",
"H 	c #335D3C",
"I 	c #2D4933",
"J 	c #5C8665",
"K 	c #4D6C54",
"L 	c #45644B",
"M 	c #46764E",
"N 	c #0A100B",
"O 	c #18241A",
"P 	c #567C5C",
"Q 	c #060D07",
"R 	c #66926C",
"S 	c #2E3C30",
"T 	c #8CA08F",
"U 	c #3C6641",
"V 	c #426D46",
"W 	c #668669",
"X 	c #9EB4A0",
"Y 	c #5F7C61",
"Z 	c #4B6E4D",
"` 	c #3C543D",
" .	c #5C755D",
"..	c #596E5A",
"+.	c #537954",
"@.	c #537254",
"#.	c #779778",
"$.	c #010701",
"%.	c #010501",
"&.	c #010301",
"*.	c #030703",
"=.	c #060A06",
"-.	c #030503",
";.	c #192819",
">.	c #2B3E2B",
",.	c #0D120D",
"'.	c #4C644C",
").	c #425442",
"!.	c #355B34",
"~.	c #456344",
"{.	c #445B43",
"].	c #162315",
"^.	c #3F5A3D",
"/.	c #1F2B1E",
"(.	c #354634",
"_.	c #385335",
":.	c #354D32",
"<.	c #4B6847",
"[.	c #72916E",
"}.	c #283D25",
"|.	c #526A4E",
"1.	c #3B5037",
"2.	c #2B3629",
"3.	c #697866",
"4.	c #3D5937",
"5.	c #253222",
"6.	c #798A75",
"7.	c #304A29",
"8.	c #2D4327",
"9.	c #0A0E09",
"0.	c #66845E",
"a.	c #3A4A36",
"b.	c #586C53",
"c.	c #385430",
"d.	c #56714D",
"e.	c #4E5F48",
"f.	c #3E5436",
"g.	c #455C3C",
"h.	c #4C6244",
"i.	c #607B56",
"j.	c #404F3A",
"k.	c #5C7254",
"l.	c #718669",
"m.	c #172511",
"n.	c #21321A",
"o.	c #27391F",
"p.	c #3A4E31",
"q.	c #394932",
"r.	c #4B5D43",
"s.	c #1D241A",
"t.	c #45553E",
"u.	c #050903",
"v.	c #2B4021",
"w.	c #36492D",
"x.	c #34452B",
"y.	c #435738",
"z.	c #323F2B",
"A.	c #1E2A17",
"B.	c #171E13",
"C.	c #11160E",
"D.	c #3F4F36",
"E.	c #54624C",
"F.	c #4C643D",
"G.	c #141A10",
"H.	c #44533A",
"I.	c #4B5743",
"J.	c #64745A",
"K.	c #282E24",
"L.	c #1B2315",
"M.	c #566A48",
"N.	c #373B34",
"O.	c #3B4B2E",
"P.	c #3F4F32",
"Q.	c #48593A",
"R.	c #4B5C3E",
"S.	c #5C6C4F",
"T.	c #404B37",
"U.	c #24301A",
"V.	c #28331E",
"W.	c #2E3B23",
"X.	c #334127",
"Y.	c #2B3721",
"Z.	c #232C1B",
"`.	c #3B4433",
" +	c #425332",
".+	c #435136",
"++	c #536245",
"@+	c #030501",
"#+	c #313D25",
"$+	c #0E0F0D",
"%+	c #4A553D",
"&+	c #5A644F",
"*+	c #3F4A31",
"=+	c #3B452D",
"-+	c #525B46",
";+	c #384229",
">+	c #40423D",
",+	c #363F25",
"'+	c #495435",
")+	c #8A907E",
"!+	c #10120B",
"~+	c #22241D",
"{+	c #0A0B07",
"]+	c #474C38",
"^+	c #444831",
"/+	c #030301",
"(+	c #050503",
"_+	c #060605",
":+	c #1E1E1A",
"<+	c #0A0A09",
"[+	c #656560",
"}+	c #33322A",
"|+	c #16150F",
"1+	c #2D2B21",
"2+	c #2A271D",
"3+	c #2A261B",
"4+	c #13110D",
"5+	c #403A2E",
"6+	c #312D25",
"7+	c #1E1A14",
"8+	c #0F0D0A",
"9+	c #262018",
"0+	c #3B352D",
"a+	c #585045",
"b+	c #2D251B",
"c+	c #695946",
"d+	c #4A4136",
"e+	c #62503C",
"f+	c #4D3F2F",
"g+	c #413528",
"h+	c #473A2C",
"i+	c #372D22",
"j+	c #32291F",
"k+	c #3D3226",
"l+	c #564736",
"m+	c #43372A",
"n+	c #2E261D",
"o+	c #4F4840",
"p+	c #090705",
"q+	c #292119",
"r+	c #2B231B",
"s+	c #16120E",
"t+	c #78634D",
"u+	c #1C1712",
"v+	c #221C16",
"w+	c #120F0C",
"x+	c #251F19",
"y+	c #816D58",
"z+	c #191511",
"A+	c #0D0B09",
"B+	c #28231E",
"C+	c #16100C",
"D+	c #030101",
"E+	c #050303",
"F+	c #030303",
"G+	c #010101",
"~ 0 0 0 0 0 h i G+&.&.%.%.%.%.%.%.&.&.&.G+G+G+' g g g g 8 G+&.$.%.G+G+&.G G %.%.m m m m &.G+&.G+&.%.&.G+%.$.$.&.%.G $.&.G+G+&.G+G+&.G+G+G+&.&.%.$.%.&.G+G+G+G+G+G+G+&.&.&.&.%.a 0 0 0 f %.G+G+G+4 : _ ( _ _ _ _ _ 1 h 0 0 0 h 0 ( _ _ _ _ _ _ _ _ _ _ _ 9 ' ' ' ' i ~ ",
"i 0 0 0 h 0 0 i G+&.&.&.&.&.&.&.&.G+G+G+G+G+G+8 9 g g g i G+&.m m &.G+&.$.G G %.m $.&.G+G+G+G+G+G+&.G+G+&.$.$.&.%.m %.G+&.&.%.&.G+G+G+G+G+G+%.%.%.&.G+G+G+G+G+G+G+G+G+G+G+G+G+/ 0 0 0 | G+G+G+G+G+| ( _ ( _ _ _ ( 0 h h h h h 1 _ ( _ _ _ _ _ _ _ _ _ _ : a $.m m 8 8 ",
"8 h h h h 0 0 a G+&.G+&.&.&.&.&.G+G+G+G+G+G+G+* | g f g a G+&.m G %.&.G+&.G G m %.&.G+G+G+G+G+G+G+G+G+G+G+%.$.%.&.%.&.G+G+&.&.&.G+G+G+&.G+&.&.&.&.G+G+G+G+G+G+G+G+G+G+G+G+G+) 9 0 0 0 a G+&.G+G+G+G+| ( _ ( ( _ ( 0 h h h h h 1 _ _ _ ( _ _ _ ( _ _ _ ( _ 1 8 G+&.%.) ",
"* f h h h h 0 / G+G+&.&.&.&.&.&.G+G+G+G+G+G+G+G+a g f g | * G+%.G %.G+G+&.$.G ) &.&.G+G+G+G+G+G+G+G+G+G+G+&.%.%.&.&.G+G+G+G+G+G+G+G+G+G+&.&.&.&.&.G+G+G+G+G+G+G+G+G+G+G+G+G+Q g 0 0 h Q G+G+G+G+G+G+&.f ( _ ( _ : h h h h h h 1 _ _ ( _ ( _ ( _ _ _ ( _ _ _ 0 m %.%.%.",
"G+| 0 h h h 0 | * G+G+&.G+&.&.&.G+G+G+G+G+G+G+G+i f f f 9 8 G+%.$.%.G+G+%.$.$.%.&.G+G+G+G+G+G+G+G+G+G+G+G+G+%.&.G+G+G+G+G+G+G+G+G+G+G+G+G+&.&.&.G+G+G+G+G+G+G+G+G+G+G+G+G+G+a 0 h 0 f %.G+&.z+b+n+9+q+j+n+i+f+3.h+h+k+g+j+3+f+k+s.3+3+2+1+^+)+[+K.Z.s.L.x _ ( | 8 ' ' ",
"G+4 0 h h h h f ! G+G+G+&.&.&.&.G+G+G+G+G+G+G+G+) 9 f f f a G+&.%.%.G+G+%.$.%.&.&.&.G+G+G+G+G+G+G+G+G+G+G+G+&.&.G+G+&.&.G+G+G+G+G+G+G+G+G+&.%.&.&.G+G+G+G+G+G+G+G+&.&.G+G+G+| 0 h 0 / &.G+v+x+v+q+n+i+h+o+a+&+3.[+[+[+[+[+[+3.3.[+[+[+[+a+c+y+)+f+d+g+b+x+:+: : 4 ' i ",
"G+~ h h h h h h Q G+&.&.G+&.&.&.G+G+G+G+G+G+G+G+G+4 f 9 f | * G+%.%.&.G+$.G m &.G+G+G+&.&.&.&.G+G+G+G+G+G+G+G+G+G+G+&.&.G+G+G+G+G+G+&.$.&.G+&.&.&.G+G+G+G+G+G+G+G+&.&.G+G+8 g h h h i G+* 9+9+}+a+[+3.3.& & - $ $ $ $ $ $ $ $ - & & & } & & - & 6.)+c+i+i+g+a._ 1 i ' ",
"G+8 f h g g g h a G+&.&.&.G+$.$.8+9+v+x+i+k+9+v+x+9+~+1+s.C.8+8+8+w+8+A+4+9+i+i+q+k+s+v+k+g+m+f+g+g+m+h+l+i+j+j+k+f+l+l+l+f+f+f+f+f+f+f+f+f+f+f+f+f+h+m+m+h+h+g+m+m+k+d+g+m+5+5+~+u+7+n+v+r+b+d+, $ $ $ - $ $ % % % % % % % % % % % % $ $ $ - $ $ [+a+i+j+i+e ( _ f G ",
"G+* 9 h g g g h / G+&.&.&.G+&.6+g+i+j+g+e+h+j+n+b+j+h+g+v+s+4+4+8+8+s+z+u+5+l+f+l+l+n+y+)+l+k+h+m+m+l+e+e+l+l+k+l+t+t+t+t+c+c+e+c+l+l+e+e+e+l+l+l+l+l+h+g+m+f+h+g+g+i+a+k+j+n+i+j+7+9+i+f+j+q+z+4+. + + @ , $ $ $ $ % # # # # # # # # @ @ @ = + + 1+i+i+q+u+x ( _ ( 4 ",
"G+G+4 h g g g g 9 ) G+G+G+u+h+h+i+j+j+m+l+l+f+i+q+g+m+q+9+v+7+u+z+u+q+j+d+e+d+l+c+l+m+l+y+e+l+e+l+e+e+a+y+c+e+l+t+y+c+c+t+t+e+e+e+e+l+e+e+e+e+e+e+e+l+f+h+h+l+f+g+k+g+g+g+k+i+9+q+q+q+q+k+f+n+q+v+w+C+z+s+4+7     . . . . . . . . .   7 $+w+u+v+q+m+l+g+b+v+1 ( ( _ 1 ",
"G+G+i f f f f f f ' G+w+l+l+k+c+i+n+g+i+q+q+2+v+s+7+z+4+s+7+7+u+4+u+7+7+q+9+u+3+r+7+7+u+v+6+r+u+v+r+j+6+5+q+9+n+k+j+q+v+x+r+v+9+r+n+b+q+r+r+q+r+r+r+q+7+u+7+9+7+u+u+7+7+7+u+z+u+z+|+s+w+w+7+s+u+7+s+w+{+A+A+{+A+E+(+p+{+p+{+4+(+(+p+p+A+8+C+u+v+9+9+h+f+i+r+o ( ( ( _ ",
"* Q 4 f f f f f f 2 d+l+c+e+g+l+i+q+7+9.* &.&.* =.Q 9.{+{+N ,.C.C.,.N N =.=.=.! ) ) ! Q =.=.Q N N 8 m ) ) =.=.*.) ) 8 8 =.! =.*.=.=.=.! &.&.&.-.! -.%.*.! *.) u.=.Q =.! ! *.) ! =.=.! ! ! ) -.) &.) *.=.Q Q 9.Q =.-.) &.&.*.) =.-.! ! * * &.) 8 ) G+_+r+9+u+x ( ( ( _ ",
"| f g f f 9 f f 5.e+l+l+y+f+g+i+v+!+{+=.=.9.{+9.!+C.B.B.B.B./.x 5./.B.B.C.C.B.B.B.].].;.u e /.u ;.].O B.m.L.B.B.B.B././.u ;.B.L.L.B.G.C.!+C.B.B.].A.A.L.B.B.L.L.L.L.B.G.B.m.L.L.Z.L.;././.5.B.B.m.m.A.U.A.L.A.L.B.L.L.B.G.B.G.2 ].].C.,.9.N 7 9 N ! G+-.z+s+x ( ( ( ( ",
"g f f | | 9 g d+m+g+l+e+e+h+3+w+=.{+{+9.!+C.C.B.L.A.A.L.Z.Y.}.}.}.n.].A.o.}.}.}.}.w.>.I I I I I >.>.x.}.o.5.}.Z.].].o.5.}.Y.#+V.U.V.V.V.V.Z.Y.Z.n.Z.X.W.V.x.x.U.V.V.U.V.V.V.V.U.W.x.w.x.f.f.o.A.o.V.V.n.n.A.n.A.L.U.W.#+Y.U.z.5.2.z.Y.2.2./.;.O !+{+* ! z+s+x ( ( ( ( ",
"9 4 i 8 | f e+e+k+i+h+l+k+4+! *.=.!+G.G.L.Z.Z.V.#+W.W.#+x.w.z.8.o.o.I >.8.w.8.o.}.:.I (.E ~.L ` >.I 7.o.o.8.x.>.I >.o.W.x.w.p.w.w.,+;+=+X.X.O.#+X.#+W.W.W.8.W.W.V.U.W.#+#+;+Y.V.O.y.f.f.g.t.X.V.v.A.n.n.n.n.n.A.m.m.n.m.m.G.A.n.n.V./.A.U.A.A.G.N 9.-._+z+4+x ( ( ( ( ",
"' ) G+G+a f y+e+e+h+i+!+) *.{+G.A.A.B.A.Y.V.U.Y.W.X.X.#+X.X.:.:.X.t b b 1.f.4._.q.I t t d [ [ E I t x.a._.^.p.` b b I x.:.w.x.X.X.X.#+Y.Y.V.W.#+V.Y.P.g.X.#+Y.Y.U.V.V.W.*+#+Y.,+*+P.X.w.f.f.1.8.v.o.8.7.n.v.!.H I }.o.U.n.7.o.V.V.v.o.o._.V.L.].G.9.-.=.4+8+x ( ( ( ( ",
"G+G+G+G+8 9 f+a+y+q+* %._+9.L.}.8.W.W.V.X.W.Y.W.W.W.X.V.x.f.v v _.Z  .@._.V L '.K ).C v U M v v E ` ).K '.L V `  .w U _.v U D.#+W.8.W.W.W.Y.#+#+Y.#+w.g.g.W.W.A.Y.X.#+p.O.,+'+'+R.R.w.X.X.w.#+#+v.v.c.w.o.}.7.V M _.7.v.c.y U w.X.X.7._._.p.8.>.;.,.-.{+s+w+x ( ( ( ( ",
"G+G+G+G+G+4 c+)+t+7+! {+!+L.V.X.*+O.;+;+q.;+=+q.p.~.~.w.g.Z d Z C L D.D._.<.y.{.Y |.E D +.^.V y w ). .b.t.g.<.:.*+1.L ` M M <.p.p.~.~.w.D.;+q.O.;+,+O.=+w.#+V.Z.w.h.w.x. +R.Q.g.F.F.f.p._.4.X.W.v.v.v.o.v.4.` ^.L M U 7.7.U p.O.1.p.8.x.w.<.L o.B.C._+=.w+4+x ( ( ( ( ",
"G+G+G+G+G+' t+y+y+q+Q B.A.V.,+#+V.W.W.Y.Z.V.#+;+a.{.f.q.D.d [ '.Z [ v {.k.J..+a.H.++r.P D ^.L J K r.++j.a.%+0.|.C M [ ~.K [ Z q.q.y.{.=+X.#+U.Z.Y.W.Y.Y.,+,+Y.Y. +y.x.#+=+ +O.4.y.x.w.w._.^.#+Y.o.o.v.v.8.8.p.f.^.D <.7.U U c.Y.8.w.7.w.p.g.g.Y.B.G.=.9.s+s+1 ( ( ( ( ",
"G+G+G+G+G+&.y+t+t+1+B.Z.Y.W.*+.+x.,+*+w.X.X.W.w.H.H.j.(.#+L K H.Z D P |.F.P.z.D.D.a.H.|.b.C L k.h.D.a.D.T.z. +<.@.P w ~.{.w ).2.1.t.H.H.z.#+x.x.w.=+X.w..+=+V.W.;+F.M.P.,+O.'+O.;+p.w.x..+y.X.W.W.o.n.Y.}.V.o.#+Q.@.+.!.H M +.w.X.8.v.8.v.8.p.f.Y.O 9.{+s+w+1 ( ( ( ( ",
"G+G+G+G+G+G+t+t+t+6+L.V.O.=+P..+p.O.=+P.f.x.;+=+=+T.`.;+=+H.H.~.|.Z D.p.8.(.` D.H.@.'.^.g.<.r.4.C K |.D.f.).x.7.p.f.+.<.{.t.T.=+`.*+*+=+O.=+w.f.*+O.P.p..+O.X.x.V.R.++;+ +h.Q.P.4.P.P.x.*+P.X.o.o.o.o.V.o.#+#+W. +y.g.y y <.P g.~.c.U V !.v.8.y.q./.9.{+u+z+s.K.N.]+-+",
"G+G+G+G+G+G+c+t+t+1+L.,+P.z.,+y.g.y..+y.w.X.W.#+P.=+z.D.O.#+q.1.p.~.^.H.(.1.` ` 1.h.L ` ` a.1.` ).'.{.1.` ^.a.(.{.{.<.w.^.z.#+P.D.z.*+*+W.#+x.p.y.D.y.R..+#+x. +;+;+W.X.O.y.y.g.Z g.^.O.W.X.X.c.w.H U Y.}.8.Y.x.4. +W.8.U x.F.y.M 4.V j M O.8.8.Y.B.9.:+m+i+u+x+0+a+o+",
"G+G+G+G+G+G+e+c+t+3+L.Q.t.P.;+g.R.Q.D.g.P.;+,+=+*+=+O..+{.b :.L {.J B z B B B B B z R ~.` E C 1.q.z B B B B B B z B B B L :.z B B B B B B R R B B B Y R.P.B B P R.,+;+g..+Q.P B z ~.^..+x.y.Q.B B B B B B B R B z J w.V 4.w. +f.M y y j d 4.:.:.o ].9.z+f+g+z+~+6+d+o+",
"G+G+G+G+G+G+e+e+e+3+B.=+P.h.H.Q.%+ +.+t.*+;+*+*+P..+D.%+H.j.` ~.J k k k k k k k k k k z ).E E ` 1.k k k k k k k k k k k V ` k k k k k k k k k k k k P R..+k k P O.;+P.D.t..+P k k g.h.M.R.p.#+k k k k k k k k k k k R j g.O.P.y.Z M y j y ~.:.}.o e N z+k+j+|+7+6+d+a+",
"G+&.G+G+G+G+e+e+e+1+Z.=+M.<.g.*+D.y.Q.q.x.=+*+Q.~.H.j.t.R.L Z ~.z k R L '.L '.K @.D k k ~.C C {.w.k k R K '.L L '.P @.@.<.L @.@.@.|.@.k k J ~.~.<.@.h.H.*+k k 0.^+I.|.<.'..++.k k W.P.h.Q.X.U.k k J Z ^.~.Z {.Z 6 k B p.w.O. +O. +g.g.~.<.p.:.}.x O 9.|+l+k+z+u+}+d+c+",
"&.&.&.G+G+G+l+l+e+1+/.=+*+;+%+r.r.k.d.e.D..+%+++h.H..+.+h.e.1.1.z k P x.a.a.` 1.{.~.@.).E K v ` F k k J F F (.a.(.a.f.{.` ` E.t.*+H.t.k k Y D..+|.d.d.t.r.k k P q.j.R.e.++]+Y k k X.y.g.O.;+V.k k Z X.w.x.w.X.p.z k B M  +P.P.x.P.y.y.h.h.q.x.5.x 2 =.w+n+k+|+~+6+a+[+",
"&.&.&.&.&.G+f+l+e+2+5.R.3.l.6.s X #.W |.R..+.+.+f.q.t.t.t.T.j.{.z k z J P P P D P P J E L ~.~.E C k k 6 B B B B P r.t.r.).j.D.r.g.y.w.k k P Q.h.k.[.#.X X k k [.R.H.*+=+;+*+P k k ^+++++h.Q.P.k k J +.<.~.~.<.~.6 k B F. +p.x.x. +g.g.R.{.H.(././.C.! K.>+n+s+:+5+c+t+",
"G+G+G+&.G+G+l+l+l+6+`.k.J.3...e.+.0.Z :.g..+^+R.<.g.k.'.<.g.t.t.R k k k k k k k k k k z d d d K C k k k k k k k P j.K e.t.%+g.|.|.|.^.k k Y .+^._.i.i.@.e.k k [.J.J.I.]+++I.J k k 1.R.++d.h.R.k k k k k k k k k k k J _.L  +P. +P. + +f.p.x.q./.B.N =.:+d+i+s+B+d+c+a+",
"G+G+G+&.&.&.h+f+f+1+2.D.q.w.4.L +.M.F.+.+.E.R.@.K {.M.%+e.I.-+|.|.P D P J J J J ^ B k k ] ^ ] ^ w k k R @.Z @.K {.` r.|.|.++r.r.r.M.E k k J |.M M F.d.+.^.k k P H.e.I.++J.k.R k k Z R.r.|.M ~.k k 6 B B B B B B z J f.g.+.f.M.g.+.F.O.P.W.V.z.A.C.N =.|+g+k+A+B+d+d+a+",
"G+G+G+G+&.&.k+h+h+v+Z.{.|.k.W R J 0.d.Z R D @.P D K Q.H.r. .b.K j.e.E ).L v U f.v ^ k k ; < ; J ~.k k J ^.E L E ).{.H.t.|.b...%+%+R.@.k k R J R ~.i.0.J W k k J r.O.W.;+E.S.W k k J.E.H.h.+.r.k k +.f.w.x.~.f.x.g.y. +++++ +y.w.F.Q.O.O.O.5.A.A.B.!+{+4+k+g+:+7+~+}+d+",
"G+G+G+G+G+G+h+f+h+2+z. .Y W '.Y J [.R Z R < D P ^ J H.=+r. .r.r.q k w L +.D U p.M ^ k k Z j y h.{.k k J _.v P +.E E F ).{.e. .H.*+r.^ k k B z 0.Z #.0.W Y k k r Y |.H.E.M.H.@.k k E.R.E.0.R.t.k k P p.P.` D ^.*+w.P.'+'+O.O.w.x.O.y.f.g.w.L.N C.G.G.{+4+i+i+~+6+:+0+a+",
"G+G+G+G+G+! f+l+f+1+z.E.3.3. .r W l.l R 0.6 ^  ... .E.|.r ..I.'.q k k k k k k k k k k q P D D @.Z k k k k k k k k k k k r.I.Y W e.|. .k k 6 B 0.z l Y r r q k k k k k k k k k k q ;+++S.++++t.k k D y.H.L < v D.h.~.O.P.O.O.y.Q.'+w..+D.s.C.x O 2 L.9.u+h+j+:+N.N.o+o+",
"G+G+G+G+' 4 m+f+f+2+2.I.r.E.b...E.0.R 0.R R R &+3.E.b.W }  .3.l 6 k k k k k k k k k q W <.v ~.Z +.k k k k k k k k k k k } ..W } Y -+S.k k z R R 0.[.i.E. .W 6 k k k k k k k k 6 P y.++*+d y p.k k J g.I. .j +.q.r.D +.d.P g.Q.R.Q.O.y.D.Z.u H >.x 5.N 7+f+j+7+N.N.3.)+",
"G+G+&.~ | | k+m+m+9+K.e.-+&+@.'.E.-+ .Y 0.i.S.t.H.]+E.k. . .&+Y < c c P H.K r.L ^ d d.<.`  .L ^.|.@.^ ^ {.'.'.f.B c 5 ^ 3.&+ . . .I.%+.+r.S.0.k.P b.-+-+|.|.E.-+E.*+H.++M.w  .-+j.k.R.r.] B |.%+g.k.k.E.T X #.h.g.j z l.z d.H..+Q.Q. +p.*+M Z C t o 2 !+j+b+4+:+}+>+&+",
"G+* ~ | / ~ k+k+m+3+5.T.t.b.b.|.I.&+b.W Y e.-+J.-+-+r.i.S.- W ..B n A J |.r K R.^ { D U H |.E H M ^ { w R.J W e.z A n J ..r ..S.d.r.-+++J.I.|.k.J -+E.e.b.b.e.H.T..+E.E.t. .J.H.T.'.|.S.W [.M.E.T s 6.E...)+X 3.g.j 0.J.Y k.%+%+R.++p.w.M.r J.@.C S 7 C.j+n+<+A+4+:+~+",
"! 4 | 4 ' G+h+g+i+7+2.T.D.E.e.e.I.%+e.W r.%+&+#.3.e.E.i.3.6.} W r r r  . .W Y J { j L v [ d d d L Z { < Y W W  .Y r r r W l 3.0.k.E.E.l.l.&+T.b.Y %+I.e.{.++r.j.I.%+a+&+I.E.++++H.@.Y S.l.[.[.J.I.T.a.t.e.=+U.X.{.{ R )+[.S.r.f.y.P.4.U ++J.k.C z.K.<+z+m+k+s.a / 2 O ",
"/ | 4 8 G+G+k+i+h+u+s.t.e.|.@.@.-+%+E.-+0.3.3.#.Y I.I.J.[.W } } } r } W b.b.b. .j y %+C < [ j [ T.h.y [  .@.b. .r } } } } r W l.b.I.r.[.[.J.W J.-+E.%+E.@.W |.e.M.]+o+-+%+-+J.M.%+|.i.++&+6.0.R.O.8.X.X.x.V.W.O.Q.D +.k.l.i.H.+.0.Q.Z U q.W 3.= s.B.$+s+k+h+: : : : : ",
"| a ) G+G+G+k+h+m+u+~+I.Y  .W @.I.-+e.-+r.I.'.|.3...b.e.3.r } l r 3.J.r 6.l.b.L j ^ ++K { [ < < e.b.< [ e.Y l.#.r J.3.} l r r ..e...J. .'.h.t.e.I.e.-+I.Y W  . .J.&+&+%+]+[+J.i.i.J ] i.)+)+S.Q.R.d.M.R.#+;+Q.R.R.i.i.S.[.0.S.r.S.R.y V z.k.3.).2 B.7 4+f+l+: : : : : ",
"~ &.G+G+G+G+i+k+i+u+s.|.W J.#.|.E.++]+-+e.K ..r.r... .{.b.l.6 r r Y k.0.3.e.j.E.; J |.D > ^ < { Z @.] ] I.j.E.3.Y Y W r } } 3.e.{.W |.r.e. .'.e.I.]+&+r. .W Y W i.-+&+Y r l.k.k.i.R 6 J.k.J.6.J.++F.k.Q.O.P.R.P.P.S.++k.Z <.j.a.r.h.z j =+H.J., e u 7 w+m+h+: : : : : ",
"&.G+G+G+G+G+q+r+v+z+s.g.k.#.} J <.%+]+++-+Y  .|.).I.{.w Y [.l W Y W Y @.D.'.t.b.] [ @.w ; ^ ] ] K +.] ^ e.{.{.1.P J W  .r l W J K r.t.r.b.Y Y E.++^+-+<.J z [.+.M.]+S.W #.J.l.k.i.0.B W T X X )+6.X 6.M.M.S.S.y.g.R.h.r.!.U }.U.y.J.P Z z.q.J.I.o e 7 8+j+2+: : : : : ",
"G+G+G+G+G+G+v+v+7+~+~+q.<.b.l.J |.E.%+S.b.&+S.b.E.I.K w  .W } r i.P P e.-+b.%+@.; ] K [ j ^ ^ ] d @.; ] '.I.&+I.|.P +. .r #.W  .Y '.I.E.J.&+J.S.++T.E.Z #.J.k.<.%+l.[.l.&+3.#.[.#.z { 3 )+k.H.E.E.J.3.s T M.R.M.i.r.Z f.g.V 8.Z.f.^.7.^.2.q.r.t.S 5.,.A+r+2+: : : : : ",
"G+G+G+G+G+G+u+u+7+:+K.,+d.k.l.l J S...J.S.E.I.%+e.l.J.Y Y W r 3.0.P - ..E.t.j.K ^ w @.^ ^ d [ ] D @.- [ '.T.I.E. .w P 0.W r W Y Y l.3.).I.I.b.&+I.E.E.P [.S.'.Q.^+J.k.l...6.#.X X 3 s T ++=+O.w.V.o.X.^+^+H.O.<.d.M.M U y.p.U.5.:.8.o.V.B.L.K.z.S /.9.A+v+7+( : : : : ",
"G+G+G+G+G+G+v+v+7+~+K.j.l.l.0.#.J k.W [.z  .E.Y W W } l 6 z J K K - - w I.{.|.@.d  .w ] ; d [ ; J ..Y d k.L ).e.P - w K @.J z 6 } W  .W e.I.- J r.e.t.K l.M.E.&+I.&+&+..3.J.#.X T T X X )+3.e..+r.b.y.x.4.g.g.k.k.<.{ U X.V :.Z.Y.V.o.A.C.,.B.5./.B.{+{+7+u+: : : : : ",
"&.&.G+G+G+G+j+v+7+2+K.`.6.3.++3.l.R R 0.} r J.W l #.r 3 > 6 P L d ; W [ L ^.h.-+d b. .w d L v d ..E.Z K -+~.{.d ^ r ^ ` (.C d ^ - ` ).K ).I.K E (.(.(.).`.K.T.&+`.]+=+). .l.#.W l.l.l.X X #.J.&+3.3.d.d.Y  .D..+h.g.d.o.A.U ^.o.Z.m.n.A.B.C.N ,.C.7 9.{+z+u+1 : : : : ",
"$.$.$.$.$.&.j+i+h+9+B.K.`.h..+S.&+Y Y -+E...I.k.l.[.R 6 5 6 J D ] - ..- K E ` T.t.a.j.= b v v E ).a.(.j.a.).{.K -  .d b o S I I S 2.5.2.S `.= K.2.S 2.K.s.G.L.~+K.L.B.K.I.]+`.` `.a.I.e. . .6.)+X T )+s s e.U.o.X.x.o.U.8.U 7.Y.Z.L.x x ;.L.C.Q ,.7 =.{+v+v+| ( : : : ",
"G G G G G $.h+f+l+1+N C.L.V.V.5.z.C E `.}+N.}+`.H.).` C K K b E C (.S S 2.2.S 2.2.5.s.B.e I b F K.K.2.5.K.S }+N.S 2.2.e u u /./.e e /.s.s.~+~+G.s.O 7 $+,.,.{+{+C.!+9.C.s././.= ).- } T T T T T W k.I.-+-+~+;.x Z.Z.].G.;.x ;.s.s.B.G.].N N ,.C.C.N * w+b+r+8 1 : : : ",
"G G G G G $.h+m+f+2+* G+* ! *.u.=.,.7 9.9.$+,.$+C.7 2 2 O 2 2 7 $+C.7 ,.$+7 7 N 9.<+<+9.7 ,.2 2 $+9.=.=.=.C.B.B.N 9.<+<+N N N ,.7 7 ,.<+_+_+_+! <+9.! * G+G+&.* -.-.&.-.! * * G+_+$+7 :+~+~+K.:+!+!+u.%.%.-.! =.=.=.=.-.! _+u.{+,.9.=.=.=.{+9.=.=.(+w+7+v+v+&.f ( : : ",
"G G G G $.%.f+h+m+i+7+z+7+7+v+u+s+w+8+8+w+8+8+8+8+8+8+w+w+w+s+s+u+z+4+4+w+4+w+w+w+w+w+8+A+A+A+{+{+A+<+{+{+p+p+p+_+(+_+p+p+p+p+p+p+w+_+A+p+G+G+(+(+_+p+&.p+-.-.p+_+(+_+p+<+A+A+A+{+_+p+(+/+(+/+(+_+{+8+8+{+{+A+A+A+8+w+4+u+z+4+s+w+4+8+w+4+4+4+4+w+z+j+b+u+x+A+i 1 : : ",
"G G G $.$.&.f+h+h+f+f+k+h+g+h+i+i+j+n+9+b+9+x+v+v+v+v+v+v+x+9+r+q+v+7+7+7+7+v+v+v+7+7+u+u+u+z+z+s+4+s+s+s+4+4+4+8+{+A+8+w+w+8+4+w+u+w+s+u+p+G+p+<+A+w+_+4+A+p+<+p+A+A+A+w+|+z+z+7+z+s+4+w+|+w+A+s+u+9+7+s+4+s+s+s+u+7+B+r+b+9+q+7+v+7+u+u+u+s+s+u+v+j+q+x+}+B+&.h : : ",
"$.G G $.%.&.h+h+h+l+h+k+m+i+m+k+j+q+q+9+q+v+9+v+7+x+x+b+v+7+u+u+u+z+u+u+z+u+v+7+u+z+s+s+|+s+s+4+s+4+w+w+w+w+4+w+4+w+A+A+A+8+w+w+w+s+8+A+s+w+E+p+A+A+A+A+A+A+{+{+p+{+<+8+A+4+|+z+7+v+7+7+7+7+z+s+u+9+q+n+v+s+v+b+z+7+s+c+f+b+n+r+9+7+x+j+9+9+v+u+7+z+z+x+6+0+d+G+a : : ",
"G G $.$.%.&.i+g+h+m+k+i+h+m+i+j+q+q+b+b+9+v+7+7+7+q+x+q+7+7+s+z+u+|+z+z+z+u+u+u+|+s+s+s+s+s+w+w+4+4+w+8+w+w+4+8+s+s+8+A+A+A+8+8+8+A+4+w+8+8+8+A+<+{+A+A+{+A+8+8+A+8+A+v+7+4+z+u+7+v+v+7+v+r+r+v+4+r+9+q+x+v+9+j+7+j+i+j+f+i+h+l+i+r+r+j+j+j+r+x+r+s+z+1+5+a+t+x+) 0 : ",
"%.G $.%.G+G+(+p+p+p+_+(+p+p+(+*.*.-.(+(+-.-./+/+/+/+/+/+-.-./+* /+! / / Q * * * * * * ) ) ) ) m m *.*.8 8 8 8 8 u.! u.u.*.*.*.) * D+* * * * %.&.&.&.%.m m %.) i a i i a / / ~ /+-.-.-./+-.-.-.-.* _+(+-.-.-.u.=.*._+{+=.Q Q {+{+=.=.u.8 _+u.-.*.G+p+w+B+o+a+a+6+8+].u ",
"&.%.$.&.G+G+G+G+G+G+G+G+G+G+G+&.%.G+G+G+G+G+G+G+G+G+G+G+G+&.&.G+G+~ | a &.G+G+G+G+G+&.%.%.m m $.&.&.&.&.&.&.&.&.&.&.G+G+G+G+G+G+G+G+G+G+G+&.G+G+G+&.) m $.%.&.8 ' %.m i ~ | 4 ) G+G+G+G+G+G+G+G+G+G+G+G+G+G+&.%.&.&.&.&.&.%.$.m m G G G G $.&.&.G+G+(+4+x+2+0+d+0+u+1+",
"&.G+G+G+G+G+G+G+G+G+G+&.G+G+G+&.%.&.G+G+&.&.G+G+G+G+G+G+G+G+G+G+! / | 8 G+G+G+G+G+&.$.$.%.%.%.&.G+G+G+G+G+G+&.&.&.&.&.G+&.&.G+G+G+G+G+G+G+G+G+G+&.%.%.%.&.G+G+%.%.G+&.m ) ' G %.G+G+G+G+&.&.&.G+G+G+G+G+G+G+&.&.G+&.&.&.&.%.%.$.$.$.m $.m %.G+&.&.G+G+-.&./+4+n+B+$+z+",
"&.G+G+G+G+G+G+G+G+G+G+&.&.G+G+&.&.&.&.G+G+G+G+G+G+G+G+G+G+G+G+G+* ~ ~ &.G+G+G+G+&.$.$.%.&.&.&.G+G+G+G+G+G+G+G+&.&.G+G+G+G+G+G+G+G+G+G+G+G+G+G+G+&.%.&.&.G+G+G+G+G+G+G+G+G+G+&.%.&.G+G+$.$.$.&.&.&.G+G+G+G+G+G+G+G+&.&.&.&.&.&.&.&.&.&.&.G+&.G+G+&.G+G+G+G+G+G+A+7+A+C.",
"G+G+G+G+G+G+G+G+G+G+G+&.&.G+G+&.&.&.G+G+G+G+G+G+G+G+G+G+G+G+G+G+G+G+G+G+G+G+G+&.%.$.m %.&.&.%.&.G+G+G+G+G+G+&.&.G+G+G+G+G+G+G+G+&.%.&.G+G+G+G+&.&.&.&.G+G+G+G+G+G+G+G+G+G+G+&.%.%.&.&.$.G $.&.&.$.G+G+G+G+G+G+G+G+G+&.&.&.&.&.&.G+G+G+G+G+G+G+G+G+G+G+G+G+G+G+G+G+8 a ",
"G+G+G+G+G+G+G+G+G+G+G+G+G+G+G+&.&.G+G+G+G+G+G+G+G+G+G+G+G+G+&.G+G+G+G+G+G+G+G+&.%.%.%.&.G+&.%.%.G+G+G+G+G+G+&.%.G+G+G+G+G+G+G+G+%.G $.G+G+G+G+&.&.&.G+G+G+G+G+G+G+G+G+G+G+G+G+&.&.&.%.%.%.%.G+G+%.G+G+G+G+G+G+G+G+&.&.&.&.%.&.&.G+G+G+G+G+G+G+G+G+G+G+G+G+G+G+G+G+G ' ",
"G+G+G+G+G+G+G+G+G+G+G+&.%.&.&.%.&.G+G+G+G+G+G+G+G+G+G+G+G+&.&.G+&.G+G+G+G+G+G+&.%.&.G+G+G+G+&.&.G+G+G+G+G+G+G+G+G+G+G+G+G+G+G+G+%.$.$.G+G+G+&.&.&.G+G+G+G+G+G+G+G+G+G+G+G+G+G+G+G+G+&.&.G+G+G+G+G+G+G+G+G+G+G+G+G+&.%.%.%.%.%.&.G+G+G+G+G+G+G+G+G+G+G+G+G+G+G+G+G+G ' "};
