/* XPM */
static const char * fs2_btn_help_xpm[] = {
"131 58 256 2",
"  	c #121619",
". 	c #151C21",
"+ 	c #212B32",
"@ 	c #30444E",
"# 	c #2C4D57",
"$ 	c #47686E",
"% 	c #336165",
"& 	c #677E7F",
"* 	c #010303",
"= 	c #323F3B",
"- 	c #57786D",
"; 	c #5E9C82",
"> 	c #67BC97",
", 	c #4B5651",
"' 	c #010503",
") 	c #030705",
"! 	c #5B9276",
"~ 	c #101613",
"{ 	c #010E07",
"] 	c #092215",
"^ 	c #5DB184",
"/ 	c #568C70",
"( 	c #709682",
"_ 	c #A3D1B9",
": 	c #081E12",
"< 	c #07190F",
"[ 	c #0E291A",
"} 	c #1B4C31",
"| 	c #1D4F34",
"1 	c #579F77",
"2 	c #79C299",
"3 	c #031109",
"4 	c #1A482E",
"5 	c #153A25",
"6 	c #121E17",
"7 	c #6EAA87",
"8 	c #78A48B",
"9 	c #8E9C94",
"0 	c #10311D",
"a 	c #4F8364",
"b 	c #4A785C",
"c 	c #020A05",
"d 	c #0A2213",
"e 	c #06130B",
"f 	c #0F2C1A",
"g 	c #0A1A10",
"h 	c #060E09",
"i 	c #83D6A3",
"j 	c #355541",
"k 	c #0B2715",
"l 	c #529B6C",
"m 	c #010703",
"n 	c #14331E",
"o 	c #0F2416",
"p 	c #6EB887",
"q 	c #77B78D",
"r 	c #53745E",
"s 	c #0D2715",
"t 	c #4B9160",
"u 	c #2D5339",
"v 	c #84BD96",
"w 	c #6A8E75",
"x 	c #0B2613",
"y 	c #0D2915",
"z 	c #203526",
"A 	c #416B4D",
"B 	c #689B76",
"C 	c #415F49",
"D 	c #0D2513",
"E 	c #0E1E12",
"F 	c #4E865B",
"G 	c #192A1D",
"H 	c #6EA27B",
"I 	c #79AE86",
"J 	c #010A03",
"K 	c #335D3C",
"L 	c #2D4933",
"M 	c #4D6C54",
"N 	c #273B2B",
"O 	c #45654B",
"P 	c #5D8765",
"Q 	c #3E6E46",
"R 	c #47754F",
"S 	c #0A100B",
"T 	c #66946E",
"U 	c #A9BCAC",
"V 	c #142817",
"W 	c #172519",
"X 	c #577E5D",
"Y 	c #364B39",
"Z 	c #2F3D31",
"` 	c #66866A",
" .	c #435845",
"..	c #3D6540",
"+.	c #537255",
"@.	c #527954",
"#.	c #4B6D4D",
"$.	c #607A61",
"%.	c #789679",
"&.	c #010901",
"*.	c #010701",
"=.	c #010501",
"-.	c #010301",
";.	c #030703",
">.	c #060A06",
",.	c #030503",
"'.	c #2B402B",
").	c #3E5A3E",
"!.	c #1F2D1F",
"~.	c #456345",
"{.	c #0D120D",
"].	c #365B34",
"^.	c #3D553C",
"/.	c #4C634B",
"(.	c #425441",
"_.	c #354634",
":.	c #385335",
"<.	c #3A5038",
"[.	c #5D735B",
"}.	c #93B090",
"|.	c #455C42",
"1.	c #162314",
"2.	c #71906C",
"3.	c #364B32",
"4.	c #4C6847",
"5.	c #687965",
"6.	c #2F4A29",
"7.	c #253222",
"8.	c #55714F",
"9.	c #536A4E",
"0.	c #596C55",
"a.	c #3D5936",
"b.	c #3F4F3B",
"c.	c #364F2F",
"d.	c #4C6345",
"e.	c #67845E",
"f.	c #2B3528",
"g.	c #798974",
"h.	c #273B20",
"i.	c #2E4327",
"j.	c #445C3C",
"k.	c #0A0D09",
"l.	c #3B4A36",
"m.	c #4B5D45",
"n.	c #2A4022",
"o.	c #5D7355",
"p.	c #172511",
"q.	c #3A4F31",
"r.	c #33452B",
"s.	c #3E5435",
"t.	c #030701",
"u.	c #050903",
"v.	c #22321A",
"w.	c #1E2A18",
"x.	c #1D2519",
"y.	c #3E4F36",
"z.	c #313E2B",
"A.	c #627957",
"B.	c #090B08",
"C.	c #54634D",
"D.	c #36492C",
"E.	c #4B643E",
"F.	c #435838",
"G.	c #11160E",
"H.	c #566F47",
"I.	c #3A4931",
"J.	c #4A5C3F",
"K.	c #141A10",
"L.	c #45543B",
"M.	c #505E47",
"N.	c #272D23",
"O.	c #738369",
"P.	c #1B2315",
"Q.	c #3E4F32",
"R.	c #425237",
"S.	c #232D1B",
"T.	c #3B4B2E",
"U.	c #485A3A",
"V.	c #5C6C4F",
"W.	c #4C5743",
"X.	c #28341E",
"Y.	c #2E3B23",
"Z.	c #334127",
"`.	c #181E13",
" +	c #2B3720",
".+	c #425332",
"++	c #536245",
"@+	c #030501",
"#+	c #313D25",
"$+	c #3A452E",
"%+	c #3E4A32",
"&+	c #505F41",
"*+	c #576548",
"=+	c #060705",
"-+	c #5A6450",
";+	c #0E0F0D",
">+	c #38422C",
",+	c #4A553D",
"'+	c #384328",
")+	c #434C37",
"!+	c #404B2F",
"~+	c #485435",
"{+	c #383A35",
"]+	c #363F26",
"^+	c #22251D",
"/+	c #31342C",
"(+	c #565B49",
"_+	c #8A8F7D",
":+	c #3F4234",
"<+	c #1E1F1A",
"[+	c #656661",
"}+	c #030301",
"|+	c #050503",
"1+	c #11110B",
"2+	c #6D6D5C",
"3+	c #42423C",
"4+	c #2D2B21",
"5+	c #12110D",
"6+	c #29271E",
"7+	c #17150F",
"8+	c #4A4537",
"9+	c #332F26",
"0+	c #0F0D09",
"a+	c #2A251B",
"b+	c #282117",
"c+	c #1E1A14",
"d+	c #3B352C",
"e+	c #5A5246",
"f+	c #322A1F",
"g+	c #16130F",
"h+	c #51493E",
"i+	c #272420",
"j+	c #2D251B",
"k+	c #191510",
"l+	c #6A5B49",
"m+	c #62503C",
"n+	c #413528",
"o+	c #564736",
"p+	c #493C2E",
"q+	c #2E261D",
"r+	c #090705",
"s+	c #2A221A",
"t+	c #15110D",
"u+	c #261F18",
"v+	c #372D23",
"w+	c #0B0907",
"x+	c #1C1712",
"y+	c #221C16",
"z+	c #7D6853",
"A+	c #120F0C",
"B+	c #0D0B09",
"C+	c #2D231B",
"D+	c #060302",
"E+	c #030101",
"F+	c #030303",
"G+	c #010101",
"-.=.=.=.*.-.-.=.=.=.-.-.=.=.-.-.-.-.-.=.=.-.-.-.-.-.-.G+G+-.*.=.=.-.G+G+G+G+G+e 5 } } } 4 } } } } } 4 : : : { { { { { { { { c J m &.&.&.&.-.G+G+G+G+-.=.*.*.=.-.=.-.G+G+G+-.=.-.G+G+G+G+G+G+G+G+G+G+G+G+G+G+G+G+* < ] 3 G+G+G+-.: 4 | | | 5 : ] 4 | | | [ G+G+G+-.-.=.",
"-.-.=.=.=.-.-.-.=.=.-.G+G+-.-.-.-.-.-.-.-.-.G+G+G+-.-.-.G+G+G+G+G+G+G+G+G+G+h 5 } 4 4 4 4 4 4 4 } 4 f e ] < m *.m ' m m m m m =.-.=.=.*.*.=.-.G+=.=.=.=.=.=.*.*.*.*.*.-.G+G+G+G+G+G+G+G+G+G+G+G+G+G+G+G+G+G+G+G+) < : * G+G+G+G+G+h 5 | 4 ] : 5 | } } | | [ -.G+-.-.-.",
"G+-.-.-.-.G+-.-.-.-.-.-.G+G+G+G+G+G+G+G+G+G+G+G+G+G+G+G+G+G+G+G+G+G+G+G+G+h 5 } 4 4 4 4 4 4 4 } 4 d G+m : ] { G+-.-.-.=.=.-.-.G+G+G+-.=.-.-.-.G+G+-.=.=.=.=.=.=.*.*.=.-.G+G+G+G+G+G+-.-.-.-.G+G+G+G+G+G+G+G+G+G+G+' ) G+G+-.-.-.G+G+) 0 f : [ } } } } } | | o G+G+-.-.",
"G+-.-.-.-.-.-.-.-.-.-.G+G+G+G+G+G+G+G+G+G+G+G+G+G+G+G+G+G+G+G+G+G+G+G+G+h 5 } 4 4 4 4 4 4 4 } 5 < G+-.-.3 ] < ' -.-.-.=.=.-.-.G+G+G+G+G+G+G+G+G+G+G+G+G+G+G+G+G+-.-.G+G+G+G+G+G+G+=.&.&.&.*.=.G+G+G+G+G+G+G+G+G+G+G+G+G+-.*.*.*.=.-.-.3 : ] 4 } } } } } } | | d G+*.J ",
"=.*.*.=.-.-.G+-.-.-.G+G+G+-.G+G+-.*.*.=.-.-.-.-.G+G+G+G+G+-.-.=.-.G+G+' 5 } 4 4 4 4 4 4 4 } 5 e ' J J J c : ] 3 -.m c J ' -.-.G+G+G+G+G+G+G+G+G+G+G+G+G+G+G+G+G+G+G+G+G+G+G+G+G+G+=.*.*.*.*.-.G+G+G+G+G+G+G+G+G+-.G+G+G+G+-.-.-.-.G+m : : ] 4 | } } } } } } } 4 g *.J ",
"&.J J ' -.-.-.G+r+0+0+t+7+:+(+s+k+x+x+k+t+b+f+x+y+C+j+v+f+e+v+b+u+b+c+^+4+4+z 4 4 4 4 4 } 5 e { 3 3 3 3 { < d : c { 3 { J =.-.-.G+G+G+G+G+G+G+G+G+G+G+G+G+G+G+G+G+G+G+G+G+G+G+G+G+G+=.=.=.-.G+G+G+G+G+G+G+G+G+G+G+G+G+G+G+G+G+G+G+G+e ] < ' < 4 | } } } } } } | 4 < -.",
"J J J =.-.-.|+k+u+j+n+8+o+_+O.e+e+[+2+[+[+5.[+[+[+[+[+[+[+2+-+e+h+p+f+q+s+y+u+!.4 4 4 4 5 e { 3 3 3 { { { { : : 3 c { { m =.-.-.G+G+G+G+G+G+G+G+G+G+G+G+G+G+G+G+G+G+G+G+G+G+G+G+G+G+G+G+G+G+G+G+G+G+G+G+G+G+G+G+G+G+-.G+G+G+-.-.-.G+m e c G+G+e 4 } } } } } } } | 4 h ",
"=.*.=.-.-.-.k+n+v+v+l+_+g.O.- & & ( & & & - $ $ $ $ $ $ $ $ - & & 5.5.2+e+9+u+^+4 4 } 5 3 c { c { { J m J J { c -.=.m *.-.-.-.G+G+G+G+G+G+G+G+G+G+G+G+G+G+G+G+G+G+G+G+G+G+G+G+G+G+G+G+G+G+G+G+G+G+G+G+G+G+G+G+G+G+G+G+-.-.-.=.=.=.-.-.G+G+-.G+G+< 4 } } } } } } } | n ",
"G+-.-.-.-.-.w+v+f+v+h+[+$ $ - $ $ $ % % % % % % % % % % % % $ $ - $ $ $ , 8+j+a+z '.!.1+t+b+b+a+j+9+b+q+j+j+q+q+j+j+q+f+f+f+f+f+f+f+f+f+f+f+f+v+v+v+v+f+s+y+y+y+d+q+q+s+j+f+j+s+u+t+0+s+x+u+y+k+w+r+r+w+r+r+r+r+t+x+g+g+7+7+k+a+u+7+g+k+=+G+G+G+G+< 4 } } } } } } } } ",
"G+G+G+-.-.-.,.x+s+v+v+4++ + = @ @ @ # # # # # # # # % $ $ $ $ , @ + + . A+k+s+f+p+v+u+c+f+v+q+f+n+e+v+n+n+p+p+n+n+p+o+o+o+o+o+m+m+m+o+o+l+m+m+l+z+z+z+z+o+n+o+o+m+m+o+n+n+p+n+o+_+z+q+o+o+p+o+n+x+k+t+0+0+5+t+g+y+d+p+f+j+q+f+p+m+n+f+v+v+c+G+G+G+G+g } } } } } } } } ",
"G+-.-.-.-.-.|+y+j+n+o+n+b+y+x+A+;+    . . . . . . . . .     ~ g+g+k+t+A+y+s+q+p+v+s+s+b+b+u+v+n+n+n+n+n+n+p+o+p+p+o+o+m+m+m+m+m+m+m+o+m+m+m+m+l+l+l+l+z+z+o+m+l+z+e+m+m+o+m+o+m+z+h+n+o+m+o+8+m+8+f+b+x+k+x+c+y+u+s+n+n+s+v+p+o+o+n+f+f+v+p+v+1+m =.G+[ } } 4 4 } 4 4 ",
"G+-.-.-.-.-.=+s+v+p+p+b+u+y+x+t+0+B+r+r+D+D+t+w+r+w+r+D+D+w+w+w+B+w+1+t+c+x+t+c+A+A+t+g+k+x+k+x+c+c+c+x+x+c+u+c+x+c+b+s+a+s+s+s+s+b+j+q+s+u+y+s+u+y+b+f+v+q+u+b+p+9+f+a+y+x+s+9+y+x+c+c+a+a+x+u+s+c+c+x+5+`.c+c+g+t+k+c+t+y+6+b+b+v+n+q+v+e+n+o+n+S =.G+0 } 4 4 4 4 4 ",
"G+-.-.-.-.-.|+x+u+s+=+G+' c ' -.* * ) ) ,.>.' ;.-.-.' ,.>.B.S k.B.>.;.' -.' ,.' ) ) ) >.>.=+' ;.) ) >.B.>.u.' ;.=+;.=.,.) ,.-.-.-.) >.>.>.;.>.) >.c c ' ' ;.>.>.' ' m c S S h >.>.h ) ' ' ) >.>.>.S S {.G.G.{.S B.k.k.B.>.* -.-.* k.c+s+v+o+n+m+l+8+4+|+c 5 } 4 4 4 4 ",
"G+-.-.-.-.-.}+t+k+,.G+) S o g S k.{.G.1.1.6 K.K.K.`.P.P.`.P.w.P.w.v.w.p.p.`.`.7.!.!.w.P.S.P.P.p.`.K.`.P.P.P.P.`.`.P.w.w.1.K.K.G.1+G.K.`.P.P.`.W !.w.!.`.`.`.K.P.1.`.W 1.G G !.z G W 1.W K.`.`.G.G.`.`.w.7.z !.`.`.`.`.G.1+k.B.k.>.>.B.{.y+v+n+o+z+o+o+o+0+< 4 } 4 4 4 ",
"=.-.-.-.-.-.,.t+k+) * B.{.W x.!.f.f. +r.f.7.z.S. +#+Y.v.P.w.v.w.v.v.X.v.v.w.X.s.s.r.D.r.Y.S.X.X.X.X.v.7.X.v.r.r.X.Y.Z.S.v.S. +S.X.X.X.X.S.X.#+Y.N 7.7.1.1.S.h.7.X.h.r.'.'.L L L L L '.r.n.h.h.N X.w.1.v.h.'.Y. +S.x.w.w.P.`.G.G.1+k.B.B.>.1+a+p+m+m+o+n+n+j+o } 4 4 4 ",
"c -.-.G+G+G+}+5+k+=+,.k.S K.x.w.v.w.!.v.v.v.w.K.p.p.v.p.p.w.v.v.v.v.v.w.n.X.Z.F.j.s.s.F.T.X. +'+#+#+Y.v.X.Y.Y.i.Y.Y.Y.#+Z.#+T.Z.Z.$+>+]+D.D.q.r.r.Y.h.'.L '.r.i.h.h.6.L '.^.O ~.C _.L 3.n.h.i.D.i.'.L h.h.i.r.I.r.#+Y.Y.#+X.S.S.P.K.K.1+>.;.) 5+n+o+p+v+v+m+p+n 4 4 } ",
"3 G+-.G+G+G+* 0+5+>.,.k.K.1.P.X.:.h.h.h.X.X.h.6.v.v.h.n.L K ].n.v.6.6.h.n.i.<.s.s.D.r.Q.!+]+ +#+!+Y.X.X.v. + +#+Z.j.Q. +X.#+Y.X. + +#+Z.Z.Z.r.D.3.'+L j j ^.3.).:.l.r.u L C a a b u u L I.<.a.s.<.j j u r.3.3.Z.Z.#+Z.Z.Y. +S.X. +w.`.w.w.K.B.;.' 1+v+p+m+m+l+e 4 4 n ",
"< -.-.*.=.=.;.A+t+B.,.{.W '.i.q.:.:.6.r.Z.D...t ].n.6.:.R Q 6.h.h.D.c.n.n.#+#+D.Z.Z.D.J.J.~+~+'+T.q.#+Z. +w.Y.Y.j.j.D.#+ +#+#+ +Y.Y.Y.i.Y.#+y...Q :...r [.^.Q O /.M  .^.C A A R ..A  .(.M /.O Q :.+.[.R :.A Q s.D.X.i.Y.Y.Y. +Y.Z.X.Y.Y.i.Y.P.k.=+=.* s+z+e+n+G+[ 0 : ",
"d =.=.J J J J A+1+>.=+G.`.h.O 4.D.r.i.c.<.T.q...6.6...R O ).^.a.n.h.h.h.n.Y.i.a.:.Q.s.E.E.U.U.J.R.r.D.d.D.S.X.#+D.$+T.]+'+I.I.>+y.D.~.~.3.q.4.R R ^.C y.)+3.4.J.L.0.[.(.r F A ).F a C C.$.|.F.4.:.y.y.C ).#.b #.j._.|.~.q.I.$+>+I.>+'+T.%+Z.X.P.{.B.) c+z+_+m+) < : ] ",
"y c -.*.m &.*.t+g+k.>.K.`. +j.J.q.D.D.D.i. +c.....6.4.F ).s.q.i.i.n.n.h.h. +#+).:.D.D.r.F.a.T..+D.#+r.F..+ +X.]+#+ + +Y. +S.S.#+]+$+J.F.3.I.#.a M ~.a R ).9.e.,+l.y.++W.M P O ^.X X m.&+L.l.)+A.o.C A b #./.a b y.I.s.J.%+>+#+X.S. +Y.Y.X.#+]+X.w.`.k.s+z+z+l+: ] : 5 ",
"f e G+=.-.-.=.A+t+w+k.W  +R.q.i.n.i.n.i.Z.D.@.R K ].@.+.U.#+ +X.h. +v.h.Y.Y.Z.F.R.r.D.c.'+!+~+!+]+Q.4.E.'+Y.X.'+R.D.Z.$+D.r.r.#+Z.L.L.j.<.f.(.r |.~.b X +.4..+z.%+y.l.y.d.o.~.).8.9.L.l.y.y.z.Q.E.9.X X #.L.M O #+_.b.L.L.$+Y.Z.Z.D.!+]+r.R.!+Y. +S.`.4+z+z+l+] e J n ",
"_./+9+4+<+7+1+k+x+w+k.^+I.F.i.n.].Q ..s.j.j.X O t t j.F..+Y.#+#+X.X.h.h.h.h.Z.Q.!+r.Q.s.a.Q.U.d..+'+++U. +'+Z.T.R.q.Q.T.I.s.D.$+I.$+%+%+$+$+y.(.|.4.@.^.q.r.r.(.R.y.9.M  .^.J.d.j.)./.+.^.y.^._.i.c.y.R 9.~.L.L.$+>+$+%+$+$+>+D.s.Q.$+T.q.R.!+$+T.X.x.9+l+z+l+3 =.-.: ",
"l+e+h+e+d+u+x+f+n+<+k.`. +i.i.T.R l Q a.R F.E.r...i.Y..+a.r. +i.h. +..K D.:.Z.Z.Y.T.).j.#.j.F.F.T.Z.Y.'+'+.+r.#+R.J.R.y.F.T.r.#+Y.!+%+]+y.Q.#+z.).D.4.|.|._.l.).^.<.|./.(.^.<.Y ^.^./.d.<.^.^.<._.^.).~.q.<.3.#+I.R.>+$+Q.#+Y.Z.T.F.R.F.j.F.]+z.s.]+x.4+z+z+m+G+-.=.c ",
"l+l+h+:+9+^+7+n+o+k+k.1.N c.3.a.F l t t R s..+D.a.Q r.T.E.r.#+T.i.Z.].a.B B X F.'+R.j.~.J.R.P B P j.'+]+J.J.B T B B B B B B T T T !+I.I.%+L.B B P ^.<.<.~.3.r.r.3._.j.|.B B B B B B B B B B X _.r.|.^.<.^.O 3.j |.)+I.$+%+$+'+'+Q.j.)+U.J.J.>+Q.L.U.P.a+l+l+o+G+-.=.G+",
"2+l+e+8+4+c+g+f+n+k+S z N '.3.~.t l t R H.F.!+T.j.l ..T.%+Z.Z.D.Z.Z.c.c.q q @.q.J.*+d.J.$+#+B q B y.Q.'+!+!+q q q q q q q q q q q !+R.b.L.,+q q P s.^.b (.r.Y _.Y ^.).s.q q q q q q q q q q q P _.b.M O y.~.^.b.L.,+y.R.Q.!+%+>+%+L.R..+,+L.L.d.!+$+`.a+m+m+o+G+-.-.-.",
"e+e+e+:+9+x+7+v+o+7+k.W z N 3.q.4.~.j.j..+!+.+T.D.q.D.Q.j.:.Z.q.i.Y.s.%+q q #.Z.U.&+Q.Y.Y.Z.T q H d.9.W.:+&+q q P M 8.8.4.~.~.d.8.~.J.)+L.J.q q P j.|.O l.3._.Y ^.|.(.y.q q T M @.#./.M +.7 q B Y _.C O |.~.#.O J.,+b.L.|.U.!+$+>+I.U.F.y.%+U.4.*+$+S.4+m+m+o+G+-.-.-.",
"e+l+2+e+4+i+g+n+q+1+>.6 z 7.r.I.d.d.F.F.Q.r.Q.Q..+R a.Q.4.c.r.D.r.D.Z.X.q q #.'+T.j.F.Z.!+L.B q H M.J.b.I.!+q q P (.8.8.9.R.y.L.&+d.L.L.%+L.q q X |.R.l._.l._.<.<.).^.^.q q / M C <.^.^.|.B q B 3.r.l.y.|.<.<.M.d.R.)+L.d.&+,+R.)+M.8.o.m.m.,+'+!+$+!.4+m+o+p+G+-.=.-.",
"e+e+2+l+:+<+g+q+3+N.) G.G !._.L.|.J.U.U..+r.'+q..+E.Q.j.].i.T.D.i.T.j.c.q q 7 B H H H B B B I q T $+%+R.J.2+q q q v I I H P U.R.L.s.D.F.|.J.q q P m.|.|.L.^.Y _.<.<.3.^.q q T @.b b M O O 7 q B <.j.m.|.|. .b.y.L.j.L.3.s.R.R.R.J.9.` %.}.U g.O.5.J.7.6+m+o+p+G+=.*.=.",
"8+h+e+l+8+i+g+v+8+<+=+S `.^+I.r.Q.s..+.+Q..+Q..+O :.r.E.F ).T.j.'.r.s.i.q q q q q q q q q q q q H )+W.o.A.2+q q q q q q q P R.)+,+~.).9.9.9.q q P /.M b.$+3._.z._.).).~.q q q q q q q q q q q P <.I.l./.9.,+L.j.4./.0.j.4.J.)+)+j.:.#.e.o.M.0.5.2+o._.9+o+o+p+G+=.&.&.",
"e+l+e+8+:+i+B+v+n+g+=+S G.w.z.X.Y.Q.T.E.@.j.*+R.@.j.T.F.#.%+q.F.r.T.j.r.q q T F X +.+.X #.9.7 q H (+W.M.L.l.q q T P e.@.X @.9.,+8.#.C *+&+m.q q ` 9.m.b.l.(.).^.F.C R +.q q I 7 7 H H H H B P C (.b.b.m.9.9.&+J.M.,+9.|.M +.J.C.@.@.E.H.@.O a.D.I.y.f.4+p+p+v+G+-.*.&.",
"2+l+8+9+^+c+<+n+n+5+B.{.`.w.x.7.T.T.T.U.E.D.F..+++&+.+F.j.$+s.~.r.D.s.r.q q P @.d.L.C.[.M.,+H q H >+Y.I.~./.q q H P e.A.~.T P +.X X +.J.,+,+q q T (.L. .(.m.O C j.C a O q q 7 1 ; M |.a A s.C A O (. .(.b.M 0.[.&+R.U.M a @.+.X T #.8.e.P ` ` o.9.|.S.y+p+p+f+-.=.=.=.",
"l+2+e+d+<+9+^+v+v+5+B.K.K.G.S x.D.j.s.F.T.'+D.T.T.~+~+Q.D.%+j.a ^.Q.q.q.q q P J.e.*+J.C.U.$+T q H C.L.9.$.$.q q B P e.H #.e.B a X a / m.%+L.q q P (.Y C C @.X A :.C a ~.q q B l #.|.|.b R 3...X @.O C j ^.m.|.[.&+$+L.P a X a 1 T #.T 2.P $.C.` $.$.Z 6+p+o+n+G+-.-.-.",
"O.l+h+h+{+{+<+f+p+x+k.P.6 W z G.x.y.R.D.~+U.F.T.T.Q.T...d.y.A 1 O L.F.F.q q P *+*+V.++>+Q.!+B q H A.4.o.0.$.q q q q q q q q q q q +.[.C.M.` q q q q q q q q q q P C a R q q B F X #.M b A ^.#.M +.r b / M /. .[.w 9.C.$.0.r / 7 e.T I 2.` w r $.5.C.z.4+p+o+n+-.G+-.-.",
"2+[+_+5.{+{+`.f+p+c+S 7.n '.K G S.y.F.T.~+J.U.j.X 8.@.F &+I.@.l [.W.j.4.q q X F F %+&+F.R.,+H q H *+,+&+9.m.q q q q q q q q q q q 2+V.M.$.H q q q q q q q q q q T b a P q q P A O +.X a b #./.(.(.A ; 7 ; 8 5.[.( ` -+*+5.-+` T T e.T e.C.[.9.C.m.|.f.6+p+8+v+G+G+G+G+",
"[+2+-+3+/+<+5+j+f+5+6 N u ).#.R %+q.s.U.U..+R.8.H O.H l J.d.%.U 9 C.0.o.j.,+9.B ! M.J.o.)+&+[.r *+*+L.%+C.(+C.9.9.(+M.0.X o.e.V.J.R.,+W.$.[.$.-+$./ 2 i B R././.m./ / 8.9.).O [.^.4.8.b / O m.M L.X i i 1 $.-+[.[.[.C.,+~+L.V.A.e.$.[.M.(+/.+.-+M.M.N.u+n+n+f+G+G+G+G+",
"/+i+<+c+5+B+w+q+f+G.~ N  .+.[.w H.D.q.++J.,+,+V.$.A.P l j.5.9 9 0.C.g.U 9 *+H.2.` V.9./.)+L.A.[.L.C.C.R.)+L.M.0.0.M.C.M.P [.9.W.A.++M.m.H.V.0.w 0.P p v H /.` X J.b ^ / R K C 9.K ..P ^ / J.M w 9.P v p T 0.` $.9.A.m.M.&+[.(+M.$.P 0.C.W.9.0.0.L.)+7.6+n+n+f+G+-.G+G+",
"V E E E g < `.v+n+k+B.7.z. .[.A.++..a.Q.F.s.&+V.2._+T ^ |.Z.S.$+M.L.l.)+W.A.2.2.O.V.$.+.~+++*+(+W.-+e+,+J.R.W.++|.m.W.,+$.8.)+C.g.O.C.C.o.e.5.8 ` w w w $.[.` ` $.1 ^ #.O b b b b A ~.l ^ P $.` $.[.w T w ` ( g.5.A.C.M.5.%.-+,+m.` M.,+W./.M.C.y.l.f.c+v+n+n+G+-.G+G+",
"k k k y y s f n+n+g+;+`.x.= 5.` I.Q R U.e.@.L.A.2.o.@.X U.T.Y.X.>+Z.i.i.T.&+e.g.-+++A.9.,+*+2+(+,+M.h+8+9.m.9.` +.C.,+C.M.A.` [.2.2.m.W.V.2.` w ( ( ( ( w [.0.+.[.a t d.)+a l a 1  .,+F l [.0.8.0.` ( w ( ( ( ` 2.A.W.W.$.%.5.5.e.M.(+,+M.+.+.9.M.L.x.x+p+v+v+G+G+G+G+",
"k k k k k k y p+p+t+~ `.6 (.5.o.z.Q t &+V.|.V.e.w V.A.o.U.J.U.>+#+J.H.H.&+U.V._+_+A.! P A.A.[.2+8+,+-+(+A.$.[.` $.W.W.M.W.M.L.d./.[.$.0./.[.w w 8 ( 5.$.w %.g.$.m.a 1 8.m.1 1 a ^ M ++/ l O 0.O.g.w $.5.w 8 ( ` 5.m.0.[.5.9./.J.m.W.M.M.W.+.` [.$.W.^+x+n+p+v+G+G+G+G+",
"k k k k k k y 9+n+A+~ G z , $.R.$+l H &+J.l.R.d.#.o.++V.Q.Q.J.Q.T.U.o.E.++A.%.A.o.A.7 T A.o.o.O.w $.*+W.A.` $.` [.m.*+)+W.M./.[./.W.C.` |./.5.( ( w ` $.$.5.C.)+W.! ! 8.#.^ 1 / > a 9.a ; C.)+m.5.e.o.$.w w 7 ` 0. .[.[.m.m.+.M M.M.)+++M.9.%.A.` 4.x.x+v+v+f+G+G+-.G+",
"k k k k k k k ^+f+0+~ z N W.A.I.z.#.X o.F.S.n.Q ].J.d.J.j.F.V.V.H.*+g.U g._+}.U 9 ` B e.A.o.` A.%.` V.)+H.@.2.H P 4.M.:+++(+$.$.0.m.(.m.M P ` 8 w r ` P X <.|.|.M./ ! @.M ! ! / ; r 8.a ! 0.(./.y.8.$.` $.` 8 w $.r |.W.(.9.[.$.M.++)+,+4.P H %.8.j.x.k+y+s+u+G+-.G+G+",
"k k k k k k k ^+s+B+{.7.Z (.m.I.f.F.r.).^.S.'.Q j.s.#.&+A.H.&+*+9 U 5.5.C.C.L.o.%.v ^ H %.2.%.5.-+O.2.O.,+4.o.$.w #.*+:+M.V.[.-+[.C.W./.$.$.e.w w A.@.X 9.W.-+W./.! ; +.b ! / / l a M ! ; +.,+9.M.M.X X o.w ( ` [.r M W.C.0.V.-+0.V.,+*+9.P O.0.4.I.^+^+c+y+x+G+G+G+G+",
"k k k k k k k `.y+0+k.!.Z z.N.P.`.X. +n.c.7.v.q.F...R *+H.4.T.L.!+!+Z.h.X.D.T.$+&+}._ v }.}.%.g.[.O.A.A.)+U.4.V.2.X C.C.W.-+0.W.W.(.5.O.$.$.` w ` e.X r [.++W.y./.a - +.a ! a b / / +.r / M b.,+C.0.- X P 5.w ` $.$.$.O.m.,+W.C.V.[.[.V.P 8 O.o.8.]+N.<+c+x+7+G+G+G+G+",
"k k k k k k k `.c+w+B.`.!.!.`.{.G.w.h.X. +S.c.Q Z...^ 4.o.o.j.U.a.r.F.V.m.R.d.5._+}.U }.}.U %.A.5.[.-+-+W.C.C.9.O.M (.m.m.P - W./.` $.` ( 7 B P +.M r - X /.(.O +.b $.+.a ; a b ; ! +.[.b +.#. .|.r - - M M P H 7 8 ( ` ` $.C.$.H 2.` o.P %.e.O.O.b.N.^+c+y+c+G+G+G+G+",
"k k k k k k k `.k+w+k.K.5+{.S G.`.w.v.p.S.X.)...w.X.8.j.d.R.y.[.$.8.8.5.5.-+[.%.U }.O.O.O.` %.O.[+(.>+)+:+-+)+N.:+(._._._.C M  .(.M (.j - / b  ._.j / w / b |.~.(+M #.C.r b A O b r $.8.b M.d.).O a ` ; b O X 7 > 2 w B I ` A.w ( e.T 2.` O.++5.g.:+N.6+c+y+j+G+G+G+G+",
"k k k k k k k P.y+w+>.~ {.>.G.P.G z !.P.S. +6...i.v.h.r.i.h.v.M.U _ _+9 U %.g.[.[./. .l.l.j $+)+, N.`.P.N.^+P.K.x.f.f.Z f.N.= _.Z f.7.N Z L L Z N j b $.- M  .(.l.b._.l. .C A A j = b.l.(.y.(.m.M - 0.- ! X P 7 2 8 T 2.2.0.W.r C.M.$.$.-+9.R.d.$+N.`.b+p+v+j+G+G+G+G+",
"k x k k k k k ^+j+A+* S G.G.{.S S 1.K.1.x.x.W z w.K.1.S.S.!.V ^+W.(+W.0.` 9 9 9 9 9 ( - (.Z !.!.^+G.k.{.G.B.B.{.{.;+~ W x.K.^+^+<+x.!.z z !.!.G G f.f.f.Z Z /+Z N.!.f.N.N.Y j L z `.x.7.f.f.Z f.f./+Z _. .C j M M C j (.L.:+/+{+/+>+C (.z.7.7.7.P.G.S 4+o+p+n+G+G+G+G+",
"x k x k x k x c+y+c+A+|+=+>.B.B.>.>.>.k.{.B.=+=+) ,.>.>.=+>.) ,.=.=.u.{.{.<+N.<+^+<+~ ;+=+G+* * ) ,.-.,.,.* -.G+G+* ) k.B.) =+=+=+B.{.~ ~ {.S S S B.B.k.S `.`.G.>.>.>.k.;+6 6 {.g k.B.B.k.S ~ ~ ;+{.~ G.;+~ 6 6 W 6 6 ~ G.;+{.;+k.k.~ {.>.u.;.) * G+* 6+o+n+n+G+G+G+G+",
"x x x x k k o u+x+j+f+k+A+t+A+t+t+A+0+A+A+t+A+k+x+t+A+0+w+w+w+w+w+0+A+w+|+|+}+D+}+|+r+|+w+B+w+B+w+r+=+|+=+r+,.,.r+-.r+=+|+|+G+G+r+w+=+A+w+r+r+r+r+r+=+|+=+w+w+r+w+w+w+w+w+w+0+0+B+0+A+A+A+A+A+t+A+t+t+k+x+t+t+A+A+A+0+0+0+0+0+0+A+0+0+A+t+x+y+c+c+k+c+v+n+p+n+G+-.-.G+",
"x x x x x x !.9+u+s+f+y+x+g+t+x+x+x+c+y+c+s+u+j+s+a+c+x+t+t+g+t+g+c+u+x+t+0+A+7+A+A+g+k+c+k+k+7+A+B+B+B+r+w+r+w+A+=+A+B+w+r+G+r+x+t+A+x+A+t+0+A+A+0+0+w+0+t+t+t+t+g+g+t+t+k+k+x+x+x+c+c+y+y+y+c+c+c+c+y+s+s+b+u+y+y+y+y+y+y+u+u+j+u+q+f+f+v+p+n+p+n+o+o+p+p+p+-.*.=.G+",
"x x x x x x :+d+9+u+x+k+c+x+y+u+u+f+u+c+u+s+q+j+p+l+g+c+k+j+y+t+y+q+s+u+x+g+k+c+c+c+c+y+c+k+7+A+B+0+w+w+r+w+w+B+0+B+B+B+B+r+F+A+g+B+0+t+A+A+A+0+B+B+w+A+A+A+A+A+A+A+A+5+t+t+t+g+7+g+t+k+x+c+y+x+k+x+x+k+x+x+x+c+y+j+u+u+c+y+u+y+b+u+s+s+f+v+n+v+n+n+p+o+p+p+n+-.&.*.G+",
"x x x x x !.2+e+d+4+k+g+s+u+u+q+j+q+b+s+v+8+p+v+p+f+9+q+x+q+u+c+y+u+y+u+A+c+b+u+c+c+c+c+c+k+7+A+x+y+B+0+B+B+0+w+w+B+w+r+w+B+B+B+0+0+A+w+0+0+0+w+w+w+B+t+5+0+A+A+0+0+0+A+A+0+A+A+5+A+5+A+g+k+x+k+g+7+g+g+k+g+t+x+x+u+y+u+x+c+x+c+u+s+s+u+u+q+f+n+n+f+v+n+n+n+q+-.&.&.G+",
"V E o o V 7.e+e+h+i+5+B.e D e }+}+* =.g n n n n n n n d -.;.J &.,.) >.h e < e ' -.' &.&.c J J J c J J m -.G+G+-.-.-.G+G+G+-.G+G+-.G+G+G+G+-.-.-.-.-.-.-.-.-.-.-.-.-.-.-.-.=.=.-.G+-.-.G+G+=.&.J J J &.-.E+-.E+E+E+E+-.-.-.-.-.-.=.}+}+* -.-.}+,.,.;.J ;.,.}+}+-.*.=.G+",
"9+d+4+x+d+:+d+6+^+5+e d x k d * G+G+G+3 0 0 0 0 f f f d 3 e < : : : ] ] ] ] : * G+=.&.&.J J J J J J J m G+G+G+G+-.-.G+G+G+G+G+G+G+G+G+G+G+G+G+-.-.G+G+G+G+-.-.-.G+G+G+G+G+G+-.G+G+G+G+G+G+G+-.=.=.=.-.G+G+G+G+G+G+G+G+G+G+G+=.*.-.G+G+G+G+G+G+G+G+*.&.-.G+G+G+G+-.G+G+",
"i+i+k+;+i+q+5+: x d x x x x x e ' ) c < k k ] ] ] : : : ] ] ] ] ] : < < < e { -.-.m &.&.J J &.J J J J *.G+G+G+G+G+G+G+G+G+G+G+G+G+G+G+G+G+G+G+G+G+-.G+G+G+-.G+G+G+G+G+G+G+G+G+G+G+G+G+G+G+G+G+G+G+G+G+G+G+G+G+G+G+G+G+G+G+G+-.=.G+G+G+G+G+G+G+G+G+&.&.=.G+G+G+G+G+G+G+",
"~ G.~ {.`.E : d x x d d d d : : : : ] ] : : : : : ] ] d e e 3 { ' * -.G+-.G+G+G+-.m &.m &.&.&.&.&.&.&.*.G+G+G+G+G+G+G+G+G+G+G+G+G+G+G+-.G+G+-.-.-.-.-.G+G+-.-.-.-.-.G+G+G+G+G+G+G+G+G+G+G+G+G+G+G+G+G+G+G+G+G+G+G+G+G+G+G+G+G+G+G+G+G+G+G+G+G+G+G+&.&.=.G+G+G+G+G+G+G+",
"d d d d d d d : : : : : : : : : : < < e d k [ [ f 0 0 [ m =.*.=.G+G+G+G+G+G+G+G+-.*.&.&.&.&.&.&.&.&.&.&.-.G+G+G+G+-.=.-.-.G+G+G+G+-.G+G+-.G+-.=.=.=.-.-.G+-.-.-.=.-.-.G+G+-.-.G+G+G+G+G+G+G+G+G+G+G+G+G+G+G+-.=.=.=.=.=.=.=.G+G+G+G+G+G+G+G+-.G+G+*.&.=.G+G+G+G+G+G+G+",
": : : : : : : : : d : d d d d x d h -.-.k 0 0 0 0 0 0 f ) -.&.*.G+G+G+G+G+G+G+-.-.*.&.*.&.&.&.&.&.&.&.*.-.-.-.G+G+=.&.=.*.-.G+G+G+G+-.G+G+G+-.' *.=.-.-.-.-.-.-.-.-.-.-.G+-.-.G+G+G+G+G+G+G+-.=.-.G+G+G+G+G+*.J J J J &.J J -.G+G+G+G+G+G+-.-.-.G+*.*.-.G+G+G+G+G+G+G+"};
