/* XPM */
static const char * fs2_btn_setup_hover_xpm[] = {
"131 58 256 2",
"  	c #787172",
". 	c #565054",
"+ 	c #251D23",
"@ 	c #454046",
"# 	c #332B37",
"$ 	c #4C4550",
"% 	c #101012",
"& 	c #0F1B1D",
"* 	c #0F1D1F",
"= 	c #495253",
"- 	c #010303",
"; 	c #1A2727",
"> 	c #434D4D",
", 	c #2A3735",
"' 	c #848B89",
") 	c #6F7774",
"! 	c #646E6A",
"~ 	c #AEB5B2",
"{ 	c #8A9791",
"] 	c #020E08",
"^ 	c #010503",
"/ 	c #030705",
"( 	c #0F1914",
"_ 	c #565A58",
": 	c #05140C",
"< 	c #081D12",
"[ 	c #5A9074",
"} 	c #1A492F",
"| 	c #1B4B31",
"1 	c #19452D",
"2 	c #64A983",
"3 	c #37423C",
"4 	c #041009",
"5 	c #0A2214",
"6 	c #173D27",
"7 	c #559E74",
"8 	c #548669",
"9 	c #2F4739",
"0 	c #77A189",
"a 	c #0F301C",
"b 	c #49765B",
"c 	c #84BE9C",
"d 	c #111613",
"e 	c #D0F0DD",
"f 	c #020A05",
"g 	c #0C2616",
"h 	c #11341E",
"i 	c #08180E",
"j 	c #0B1E12",
"k 	c #5A7A66",
"l 	c #A9C8B5",
"m 	c #B9D3C3",
"n 	c #081C0F",
"o 	c #0D2B18",
"p 	c #0E2D19",
"q 	c #131E17",
"r 	c #6E967C",
"s 	c #010703",
"t 	c #31553D",
"u 	c #538062",
"v 	c #0E1410",
"w 	c #53765F",
"x 	c #CADCD0",
"y 	c #4E9062",
"z 	c #223628",
"A 	c #78827B",
"B 	c #41654B",
"C 	c #1D3022",
"D 	c #405B47",
"E 	c #9FBAA6",
"F 	c #3C6245",
"G 	c #E9EDEA",
"H 	c #010A03",
"I 	c #182F1D",
"J 	c #4D6C54",
"K 	c #637E69",
"L 	c #42714B",
"M 	c #8AAD91",
"N 	c #0A100B",
"O 	c #6E8C73",
"P 	c #060D07",
"Q 	c #18271A",
"R 	c #273C2A",
"S 	c #576F5A",
"T 	c #84A388",
"U 	c #2E4A31",
"V 	c #3C653F",
"W 	c #507C53",
"X 	c #69946C",
"Y 	c #97B299",
"Z 	c #5D7D5F",
"` 	c #415342",
" .	c #49684A",
"..	c #537054",
"+.	c #688769",
"@.	c #010701",
"#.	c #010501",
"$.	c #010301",
"%.	c #030803",
"&.	c #060A06",
"*.	c #030503",
"=.	c #4A5B4A",
"-.	c #A8B7A8",
";.	c #A6AEA6",
">.	c #CAD1CA",
",.	c #5D745C",
"'.	c #7B957A",
").	c #162315",
"!.	c #2F3E2E",
"~.	c #354634",
"{.	c #96A295",
"].	c #B6C0B5",
"^.	c #375933",
"/.	c #364E33",
"(.	c #3C5638",
"_.	c #64885E",
":.	c #0D120C",
"<.	c #475B43",
"[.	c #D0D5CF",
"}.	c #2F4A29",
"|.	c #2C4327",
"1.	c #4E604A",
"2.	c #536A4D",
"3.	c #92A28E",
"4.	c #DCE0DB",
"5.	c #D6DAD5",
"6.	c #445C3D",
"7.	c #263322",
"8.	c #697C63",
"9.	c #879483",
"0.	c #9CA699",
"a.	c #BFC6BD",
"b.	c #0A0D09",
"c.	c #5F7A56",
"d.	c #5C7155",
"e.	c #2E342C",
"f.	c #B0B9AD",
"g.	c #C6CCC4",
"h.	c #E1E4E0",
"i.	c #283C20",
"j.	c #1F2A1B",
"k.	c #65775E",
"l.	c #363B34",
"m.	c #5A734F",
"n.	c #75856E",
"o.	c #A2AB9E",
"p.	c #030701",
"q.	c #050903",
"r.	c #182611",
"s.	c #213219",
"t.	c #1D2B16",
"u.	c #33452A",
"v.	c #36482D",
"w.	c #1D2519",
"x.	c #404E39",
"y.	c #1A2315",
"z.	c #4D5E44",
"A.	c #141B10",
"B.	c #11160E",
"C.	c #3B4734",
"D.	c #54624C",
"E.	c #5C6A54",
"F.	c #626F5A",
"G.	c #707D68",
"H.	c #919B8B",
"I.	c #3A4B2F",
"J.	c #3D4E32",
"K.	c #566E47",
"L.	c #425337",
"M.	c #44543A",
"N.	c #282E24",
"O.	c #445F31",
"P.	c #27341E",
"Q.	c #313F27",
"R.	c #2B3722",
"S.	c #232D1C",
"T.	c #516444",
"U.	c #475839",
"V.	c #4B5D3D",
"W.	c #5C6C4F",
"X.	c #345418",
"Y.	c #415232",
"Z.	c #181E13",
"`.	c #4D5744",
" +	c #7F8976",
".+	c #2F3C23",
"++	c #030501",
"@+	c #49543E",
"#+	c #525D47",
"$+	c #0A0B09",
"%+	c #21241E",
"&+	c #0E0F0D",
"*+	c #3A452D",
"=+	c #5B654F",
"-+	c #839B60",
";+	c #364028",
">+	c #5C7F27",
",+	c #404A31",
"'+	c #687355",
")+	c #050603",
"!+	c #10120B",
"~+	c #464C37",
"{+	c #4D5435",
"]+	c #797F65",
"^+	c #87A121",
"/+	c #1E1F1A",
"(+	c #9EAE41",
"_+	c #ADB470",
":+	c #030301",
"<+	c #0E0E0A",
"[+	c #070705",
"}+	c #28281D",
"|+	c #16150F",
"1+	c #2E2C22",
"2+	c #343127",
"3+	c #1D1B15",
"4+	c #2B261B",
"5+	c #13110D",
"6+	c #0A0907",
"7+	c #1E1A13",
"8+	c #6B604E",
"9+	c #0D0B08",
"0+	c #585044",
"a+	c #251F17",
"b+	c #464038",
"c+	c #191510",
"d+	c #695844",
"e+	c #27231E",
"f+	c #78624A",
"g+	c #2D251C",
"h+	c #463A2C",
"i+	c #382E23",
"j+	c #332A20",
"k+	c #4C3F30",
"l+	c #554636",
"m+	c #2F271E",
"n+	c #816D57",
"o+	c #3A332B",
"p+	c #756757",
"q+	c #65523E",
"r+	c #2A221A",
"s+	c #5D4C3A",
"t+	c #403428",
"u+	c #16120E",
"v+	c #272019",
"w+	c #1C1712",
"x+	c #221C16",
"y+	c #120F0C",
"z+	c #160E07",
"A+	c #2D1D0F",
"B+	c #0D0501",
"C+	c #706C6A",
"D+	c #060202",
"E+	c #030101",
"F+	c #030303",
"G+	c #010101",
": h h a h h a 4 G+$.$.#.#.#.#.#.#.$.$.$.G+G+G+] p p p p f G+$.@.#.G+G+$.H H #.#.s s s s $.G+$.G+$.#.$.G+#.@.@.$.#.H @.$.G+G+$.G+G+$.G+G+G+$.$.#.@.#.$.G+G+G+G+G+G+G+$.$.$.$.#.i h h h o #.G+G+G+< 1 | } | | | | | 6 a a a a a h } | | | | | | | | | | | g ] ] ] ] 4 : ",
"4 a a a a h a : G+$.$.$.$.$.$.$.$.G+G+G+G+G+G+f g p p p 4 G+$.s s $.G+$.@.H H #.s @.$.G+G+G+G+G+G+$.G+G+$.@.@.$.#.s #.G+$.$.#.$.G+G+G+G+G+G+#.#.#.$.G+G+G+G+G+G+G+G+G+G+G+G+G+j h h h 5 G+G+G+G+G+5 } | } | | | } h a a a a a h | } | | | | | | | | | | 1 i @.s s f f ",
"f a a a a a h i G+$.G+$.$.$.$.$.G+G+G+G+G+G+G+- 5 p o p i G+$.s H #.$.G+$.H H s #.$.G+G+G+G+G+G+G+G+G+G+G+#.@.#.$.#.$.G+G+$.$.$.G+G+G+$.G+$.$.$.$.G+G+G+G+G+G+G+G+G+G+G+G+G+^ g h a h i G+$.G+G+G+G+5 } | } } | } h a a a a a 6 | | | } | | | } | | | } | 6 f G+$.#.^ ",
"- o a a a a h < G+G+$.$.$.$.$.$.G+G+G+G+G+G+G+G+i p o p 5 - G+#.H #.G+G+$.@.H ^ $.$.G+G+G+G+G+G+G+G+G+G+G+$.#.#.$.$.G+G+G+G+G+G+G+G+G+G+$.$.$.$.$.G+G+G+G+G+G+G+G+G+G+G+G+G+P p h a a P G+G+G+G+G+G+$.o } | } | 1 a a a a a a 6 | | } | } | } | | | } | | | a s #.#.#.",
"G+5 a a a a h 5 - G+G+$.G+$.$.$.G+G+G+G+G+G+G+G+4 o o o g f G+#.@.#.G+G+#.@.@.#.$.G+G+G+G+G+G+G+G+G+G+G+G+G+#.$.G+G+G+G+G+G+G+G+G+G+G+G+G+$.$.$.G+G+G+G+G+G+G+G+G+G+G+G+G+G+i h a a o #.G+$.<+r+4+7+7+v+}+N.l._ e.2+1+1+%+/+2+N.j.j.S.S.7.*+8.1.z 7.C C 6 | } 5 f ] ] ",
"G+n a a a a a o / G+G+G+$.$.$.$.G+G+G+G+G+G+G+G+^ g o o o i G+$.#.#.G+G+#.@.#.$.$.$.G+G+G+G+G+G+G+G+G+G+G+G+$.$.G+G+$.$.G+G+G+G+G+G+G+G+G+$.#.$.$.G+G+G+G+G+G+G+G+$.$.G+G+G+5 a a a j $.G+w+a+x+v+x++ # @ $ _ C+C+C+]+]+]+]+]+ +  C+  C+. . C+  h+h+t+g+a+j.} 1 n ] 4 ",
"G+: a a p a a a P G+$.$.G+$.$.$.G+G+G+G+G+G+G+G+G+n o g o 5 - G+#.#.$.G+@.H s $.G+G+G+$.$.$.$.G+G+G+G+G+G+G+G+G+G+G+$.$.G+G+G+G+G+G+$.@.$.G+$.$.$.G+G+G+G+G+G+G+G+$.$.G+G+f p a a a 4 G+G+x+a+2+@ C+ +9._+_+_+(+(+(+(+(+(+(+(+(+_+_+_+_+_+_+-+H.'   $ i+i+t+U | 6 4 ] ",
"G+f o a p p p a i G+$.$.$.G+@.@.q.c+|+c+a+r+c+u+c+Z.w.j.w.j b.6+6+9+6+6+b.c+a+a+w+r+<+|+v+4+4+j+g+r+g+m+o+x+x+x+r+j+i+i+i+j+j+j+j+j+i+i+j+j+j+j+j+j+m+g+g+m+m+g+g+g+r+j+g+1+R.R.j.Z.u+3+u+v+g+b+_ -+(+(+(+(+(+^+^+^+^+^+^+^+^+^+^+^+^+(+(+(+_+-+-+-+$ j+j+i+1 } | o H ",
"G+- g a p p p a j G+$.$.$.G+$.3+i+i+m+t+s+h+j+g+4+m+h+t+x+u+5+5+<+<+u+c+7+h+s+k+l+l+m+n+ +l+t+h+h+h+l+s+s+s+l+t+l+p+f+f+f+d+q+q+d+s+l+s+s+q+l+l+l+l+l+h+t+h+k+h+t+t+i+0+t+j+m+i+j+7+a+i+k+j+r+c+5+; i.X.>+_.-+-+-+-+^+^+>+>+>+>+^+^+>+>+>+>+O.X.|.N.j+i+r+w+6 } | } n ",
"G+G+n a p p p p g ^ G+G+G+<+i+h+i+j+j+h+l+l+k+i+r+t+t+r+v+x+7+w+c+w+v+j+k+s+k+l+q+l+t+s+p+s+l+s+s+q+q+0+n+d+q+l+p+n+d+d+f+f+q+q+s+s+s+s+q+q+s+s+s+s+s+k+h+h+l+k+t+t+t+t+t+t+i+v+v+v+r+r+i+k+m+r+x+z+z+u+% % ( A.r.s.s.s.I I s.I C I Q * ( % w+x+A+t+l+t+g+x+1 } } | 6 ",
"G+G+4 o o o o o o 4 G+6+t+s+t+d+i+m+t+i+v+v+}+x+u+7+c+5+u+7+3+Z.5+7+3+3+r+a+w+4+4+7+7+w+x+2+r+w+x+4+m+2+h+v+a+g+i+j+v+x+a+r+a+v+r+m+g+v+r+r+r+r+4+r+v+7+w+x+a+7+w+w+7+7+7+w+c+w+c+|+u+y+y+7+u+w+3+u+y+6+9+9+B+B+D+D+B+B+B+B+z+B+B+B+B+9+z+u+w+x+a+v+h+k+i+4+1 } } } | ",
"- P n o o o o o o j m+k+8+s+t+l+i+r+7+b.- $.$.- &.P b.b.P N :.B.B.:.:.N &.&.&./ ^ ^ / P &.&.P N N f s ^ ^ &.&.%.^ ^ f f &.%.&.)+&.&.&.%.$.$.$.*./ *.#.*./ *.^ q.&.P &.%.%.%.^ / &.&.%./ / ^ *.^ $.^ %.&.P P N P &.*.^ $.$.)+^ &.*./ / - - $.^ f ^ G+[+r+a+w+1 } } } | ",
"5 o p o o g o o I s+s+s+n+k+t+i+a+:.b.&.&.b.b.b.!+B.Z.Z.Z.Z.C C 7.j.Z.Z.B.B.Z.A.A.).).Q Q z C I Q ).Q A.r.y.A.Z.Z.Z.j.j.I Q Z.y.y.Z.A.B.!+B.A.A.).j.j.y.Z.Z.y.y.y.y.Z.A.Z.y.y.y.S.y.t.S.j.7.Z.A.r.r.t.s.w.y.t.y.Z.y.y.Z.A.A.A.q ).).B.:.b.N ( g N )+G+*.c+|+6 } } } } ",
"p o o 5 5 g p ;+t+t+l+q+q+h+4+y+&.b.6+b.:.B.B.Z.y.j.w.w.S.R.R R i.P.).t.P.R i.i.|.v.!.U U U U U !.!.u.i.P.7.z S.).).P.P.R R.Q.P.S.P.P.P.P.}+R.S.s.S.;+.+P.u.u.P.P.P.S.P.P.P.P.S..+u.v.u.(.(.P.t.P.P.P.s.s.t.s.t.y.S..+.+R.S.Q.7.R.!.R.R.R.S.w.Q !+$+- )+c+|+6 } } } } ",
"g < 4 f 5 o ~+q+i+i+h+l+t+5+/ )+&.!+A.A.y.S.S.P.Q..+.+Q.u.I.u.Q.i.R.U !.|.v.|.P..+U U ~.D B B (.!.U U i.i.|.u.R U R i.i.u.v.J.v.v.Q.*+*+;+;+I..+Q..+.+.+.+Q..+.+P.s..+.+.+;+R.P.J.U.(.(.6.6.u.P.i.t.s.s.s.s.s.t.r.r.s.r.r.A.j.s.s.P.j.j.s.t.w.A.N b.*.[+c+5+6 } } } } ",
"] ^ G+G+i o 8+q+q+h+i+!+^ )+$+A.j.w.Z.j.R.P.S.R.R.Q.Q.Q.Q.u././.u.U t t /.(.(./.I.U t /.b 8 u F U t u./.(.(./.(.t t U u./.v.u.Q.Q.;+Q.R.R.P..+Q.P.R.J.6.Q..+R.R.s.P.P..+,+Q.R.;+,+J.u.v.(.Y.J.|..+i.|.}.s.i.^.t U |.i.s.s.}.i.P.P.i.i.i./.P.y.).A.b.*.&.5+<+6 } } } } ",
"G+G+G+G+f g h+0+n+r+- #.[+<+y..+Q..+.+P.Q..+R..+.+.+Q.P.v.(.L B (.L ,...^.B B  .J ` D B F b L B B ` <.J  . .B (.,.w F (.B F J.Q..+Q..+.+.+R.Q..+R.Q.v.6.6..+.+t.R.u.Q.J.I.;+{+{+V.V.v.Q.Q.v.Q.Q..+|./.v.i.i.u.L L ^.}.i.^.y V v.;+u.}.^.(.J.|.|.Q :.*.b.u+5+6 } } } } ",
"G+G+G+G+G+n q+ +f+7+/ b.:.y.P.;+,+I.;+*+I.*+*+I.I. .6.v.6. .b  .D B L.L.(. .U.<.Z 2.=.8 W 6.L y b ` ,.d.6.z. .J.~+(.B 6.b b 2.(.(. .2.L.M.,+L.L.,+,+L.,+J.u..+S.v.T.v.u.L.V.V.V.T.T.M.J.(.(.Q..+|.|.|.|.}.6.6.6. .L V }.}.V J.I.J.I.|.u.v. .B 7.Z.B.)+&.y+5+6 } } } } ",
"G+G+G+G+G+] d+n+n+r+P Z.t.P.;+Q.P..+.+R.S.P..+;+C.<.L.C.x.b 8 ..w 8 w J k.]+#+`.D.E.=+u u (. .8 ..D.W.#+#+E. +8.S u 8 ..,.[ K =+E.8.G.F.E.=+`.`.#+D.`.@+`.@+C.*+U.U.u.Q.I.U.L.V.z.J.I.I.(.6.u.*+I.L.M.<.z.z.1.T. .u  .}.V V /.R.Q.v.v.v.J.6.6.R.Z.A.&.b.u+u+1 } } } } ",
"G+G+G+G+G+$.8+n+f+1+Z.S.R..+,+L.u.;+,+v.u.;+.+v.M.M.x.~.Q.J k E.O 0 '.'.n.k.F.G.G.8.k.8.,.D  .k.d.E.F.G.n.A  +9.T T 0 n.n.9. +A 9.{.0.0.H.9.9.9.9.9. +n.n.k.D.`.@+K.2.L.,+z.W.W.=+D.6.J.U.V.M.`.E.F.F.G.G.k.k.F.8.+._.V V L W v.Q.|.i.|..+|.I.L.R.y.b.6+u+5+1 } } } } ",
"G+G+G+G+G+G+d+f+f+2+w.P.I.*+,+L.J.I.*+J.J.v.*+*+*+,+*+;+C.1.F. +3.Y 3.3.H.H.0.0.o.-.{. +k.,.d.d.n.{ 0.0.;.-.;.o.o.0.Y 0.{.0.o.-.].a.g.g.a.a.].].f.-.;.o.0.H. +G.#+W.W.~+=+n. + +'.n.F.U.V.D.F.G.9.H.{.0.0.o.{.H.9.n.8.7 y  .Z 6.6.^.V L ^.|.Q.M.v.j.b.9+w+c+C z !.~.` ",
"G+G+G+G+G+G+s+f+f+m+w.;+Y.Q.;+U.6.U.L.M.I.;+.+.+,+*+;+L.@+`.G.H.-.a.a.a.].a.a.g.g.g.a.o.9.! k.n.H.-.].a.g.g.g.g.g.].].;.f.f.a.>.5.4.h.h.4.5.[.[.>.g.a.a.].;.0.3.G.=+x.@+8.H.o.f.f.0.'.d.`.F. +o.f.a.g.a.a.a.a.].f.0.n.d.c.J.T.L.L ^.L y L I.Q.Q.R.Z.b./+t+j+w+%+o+0+0+",
"G+G+G+G+G+G+l+d+f+4+y.U.U.J.;+V.V.V.,+6.J.u.;+*+,+*+I.M.2.K 9.].a.) = = > > > = = = ! o.o.{ 9.H.;.> > > > > > > > > > > a.a.> > = = = = = = = = > > ' >.g.> > ) {.k.D.G.9.f.' > > ].0. +k.9.;.> > > = > > > > > > ! {.T 8.@+M.Y.W y y 7 W (.I./.R ).b.c+l+t+|+%+1+b+l+",
"G+G+G+G+G+G+l+q+q+4+Z.*+Y.z.M.U.@+Y.Y.M.J.;+,+,+J.L.x.`.E.A ;.>.) & & & & & & & & & & 3 a.o.{.o.a.& & & & & & & & & & & a.a.& & & & & & & & & & & & A [.[.& & ) o.n.k.n.o.g.A & & [.].{.9.3.].& & & & & & & & & & & _ l  +D.U.U.K.W y y y B I.R R z N c+t+j+|+3+1+b+0+",
"G+$.G+G+G+G+l+s+q+1+S.*+K.T.6.,+x.U.U.C.u.*+,+U.<.M.M.z.k.9.].5.= & ) ~ ~ ~ ~ ~ ~ ' & & >.-.;.f.g.& & ! ;.;.;.o.0.{.{ ' f.].{ {.;.~ ~ & & ! ;.{.{ { ;.g.[.& & A f.H.9.H.].5.' & & 5.a.o.3.0.a.& & ! ~ ;.;.;.;.~ , & > ;. +E.z.,+Y.O.6. .T.J./.R C Q b.|+l+i+|+w+2+b+d+",
"$.$.$.G+G+G+k+s+s+1+j.*+,+;+U.z.z.m.m.1.x.L.@+T.z.M.M.<.k.H.f.[.= & { G G G G G G [.;.[.>.].-.].>.& & ' h.4.5.[.g.].;.0.H.H.o.f.g.4.G & & ' 5.a.-.o.f.a.5.& & A a.0.9.{.a.4.' & & 4.g.o.H.;.>.& & ' h.4.5.4.h.h.= & > ].9.E.@+v.Y.U.(. .z.I.v.7.C q &.y+m+t+|+e+1+0+p+",
"$.$.$.$.$.G+h+l+s+4+7.V.G.]+ +f.Y '.+.2.V.L.L.L.(.v.6.z.E.A ;.[.= & = ' ' ' ' ' ' ' ' [.g.-.-.].[.& & , = > > > A f.{.9.n.G.n.3.f.[.h.& & ' [.f.0.E ].4.G & & ' >.o.9.9.f.5.' & & 4.g.-.o.].5.& & ! ~ o.0.o.;.;., & > -. +W.x.v.Y.V.V.V.<.M.~.j.j.v / N.b+m+u+/+h+8+p+",
"G+G+G+$.G+G+h+l+l+1+~.d.'+8.E.1.m._.2./.6.~+~+V. .6.d.2.,.n.0.g.A & & & & & & & & & & > m -.E ].[.& & & & & & & ! 0.3.n.F.E.E.'.-.[.G & & ' 5.-.n.'.M ].>.& & ' 5.a.0.{.a.5.' & & 5.a.;.-.a.4.& & & & & & & & & & & _ 3.O 2.M.Y.Y.Y.Y.Y.J.v.I.j.Z.N &./+k+i+u+e+b+d+0+",
"G+G+G+$.$.$.i+k+k+1+R.x.I.v.(. .W K.T.W W D.V.m.J <.2.`.F.G.{.].[.{.' ' ' ' ' ' ' ! & & m E l m [.& & ! ;.0.{.{ {.{.9.n.k.W.D.n.o.[.G & & ' 4.].'.8.'.f.>.& & ' 5.g.f.f.g.5.' & & 5.].0.-.m 4.& & , = > > > > > > S H.'.O z.2.U.W V.I.J..+7.Q.j.B.N &.|+t+i+9+e+b+b+0+",
"G+G+G+G+$.$.j+h+h+x+S.<.2.d.+.+._._.m.J X u ..w u J V.`.E.9.0.].g.].[.h.h.G G G G ~ & & m E l ].>.& & ' 5.[.>.a.-.o.9.n.n.8.8.G.0.>.G & & ' 4.a.'.n.T l x & & ' h.>.f.f.g.5.' & & [.f.H.0.m 4.& & ' h.[.].f.;.o.o.H.n.G.d.M.6.v.V.U.I.I.I.7.w.j.Z.:.$+5+t+t+/+3+%+2+b+",
"G+G+G+G+G+G+t+k+h+}+!.k.K K D.K _.X X  .X 7 u w 8 k @+~+k.9.{.f.; & ;.h.G G G G G ~ & & E c Y f.>.& & ' 5.x x >.a.~ {.9. +8.n.G.H.g.h.& & ' 4.].'.T T E g.& & ' G 4.[.>.[.[.A & & a.o.H.o.f.[.& & ' 4.a.;.E 9. +n.8.'+#+L.I.v.u.I.M.L.6.v.w.N B.A.A.b.5+i+i+%+e./+o+0+",
"G+G+G+G+G+/ t+l+k+1+!.D.8.k.,.O +.+.T X _.2 [ ,.S ,.D.,.'.9.H.f.; & & & & & & & & & & ; Y T M f.g.& & & & & & & & & & & 9.n.'.T H.].4.& & ' x E Y M '.E a.; & & & & & & & & & & ; o.{.9.9.o.a.& & ' >.f.3.c +.F.k...L.L.J.I.M.U.L.v.L.J.w.B.6 Q q y.b.w+h+j+/+l.l.@ l+",
"G+G+G+G+] < t+k+k+}+R.<.`.D.2.S D._.X _.X X +.E.G.D.E.O 0 9.o.m ' ; & & & & & & & & ; ! '.O '.o.a.& & & & & & & & & & & l 9.9.M {.o.g.& & A l Y '.'.n. +;.A , & & & & & & & & , ) {. +F.r M o.& & A ].0.{ 0 Z M.D.u W m.W 6.U.V.U.J.L.Y.j.I V !.C 7.N 3+k+j+3+l.l.C+' ",
"G+G+$.: 5 5 j+h+h+a+N.#+#+=+..1.D.#+,.Z _.c.W.@+M.@+D.,.K A 9.;.m e e >.g.[.>.g.>.l 0.'.,.O +.'.-.a.x x >.>.g.a.x e x l 0. +O O 9.9.o.f.].f.o.'.+.,.E.G.9.o.].a.g.a.a.a.a.a.a.f.{.3.G.F.0 M 3.0.;.f.o.9.o.E '.T.<.7 2 ]+r m.M.Y.U.U.Y.J.J.L  .F t R ( !+j+g+5+/+e.b+_ ",
"G+- : 5 5 : j+t+h+}+7.x.@+E.E.2.`.D.E.+.Z #+#+F.#+#+z.c.d.O T 9.E m m ].f.a.-.0.E l T u B ,.S k T E m ].-.].a.-.m m l Y 9.T K 8.8.G.9.H.0.9. ++.+.#+E.E.n.9.H.{.0.o.;.;.0.-.-.9.n.n.k.'+O '.n.9.f.>.0.G.8.{ 0.8.6.7 _.'+k.m.@+@+V.T.J.I.K.O ,...D , d B.j+g+$+<+5+3+%+",
"/ n 5 < ] G+t+t+i+3+R.x.x.D.1.1.`.@+#++.z.@+E.'.8.#+D.c.8.'.T '.M M Y 3.3.{.3.T c 2 S J u w u 8 K O c c {.0.Y {.3.Y M T '.M n.G.8.k.G.H.H.G.#+,.Z @+`.1.2.k.8.G.n. + +9. + + +n.F.K 8.'+G.O 9.n.8.E.D.D.D.C.S.;+6.2 X -+n.W.z.(.O.Y.(.V T.k.F.` !.N.$+c+t+i+C g p I I ",
"< 5 n f G+G+i+i+h+w+w.M.1.......z.@+D.#+8.8.8.'.Z @+`.,.O +.0 0 0 0 0 '.G.8.8.+.7 y z.D 7 u 7 8 @+d.7 [ n.+.G.n.0 0 0 0 0 r +.n.d.D.=+'.'.8.n.k.#+D.@+D...+.S E.k.D.8+F.=+F.]+'+D.E.c.T.=+ +]+=+U.I.I.v.*+P..+I.V.Z c.'++.c.M.W _.V.L F C.+.8.3 w.Z.&+u+t+h+1 1 1 1 1 ",
"5 i ^ G+G+G+i+h+h+w+%+<.Z S +...`.z.1.`.z.<.2.2.8.F.S z.K +.r 0 O K 8.r '.O d. .7 y #+J 2 u 7 7 z.2.7 8 1.8.n.'.O 8.K r T r O ,.1.F.8.k.2.T.@+#+`.1.`.`.K +.,.Z k.=+=+`.@+C+k.c.c.8 [ c.9.9.W.V.T.m.K.V..+;+V.V.V.c.c.W.O _.W.<.W.z.y L !.d.k.` q Z.d 5+k+b+1 1 1 1 1 ",
": $.G+G+G+G+j+i+j+w+w.2.+.k.r 2.D.#+~+#+#+J S <.`.,.,.6...+.0 r O K d.Z 8.=.x.D.7 8 2.u 2 8 7 2 J ..[ [ `.x.D.8.Z Z K O r 0 8.1.<.K 2.z.1.,.1.1.`.~+=+z.,.+.k.+.c.`.=+k.O n.d.d.c.X 0 F.d.k.'.k.T.V.m.U.I.J.V.J.Y.W.T.d. . .L.C.z.z.2 7 *+L.k.=.z Q ( y+h+*+1 1 1 1 1 ",
"$.G+G+G+G+G+a+r+x+c+w.6.m.r r 8  .@+~+#+#+K ,.2.` <.<.w Z O 0 K k +.Z ..x.1.` ..[ 8 ..w 7 8 [ [ J W [ [ 1.<.<.J.Z K +.k r 0 +.K J <.@+=...k.Z D.#+,+#+ .+.r O m.K.~+W.+.'.k.+.d.c._.r +.3.o.o.9. +;. +D.K.W.W.O.6.V.T.z.^.V i.S.L.'+Z L !.C.k.`.R C ( <+m+N.1 1 1 1 1 ",
"G+G+G+G+G+G+w+x+7+%+%+I.T.d.n.K 2.D.@+W.E.=+E.E.D.`.J w ,.+.r O c.Z ,.z.#+2.@+..2 [ J 8 [ [ [ [ b ..2 [ 1.`.=+`.2.Z m.Z O r +.Z k 1.`.D.F.=+F.E.#+,+D.J r k.d.2.U.G.n.n.=+G.'.X '.2 2 c 9.d.M.D.D.k.G.a.3.2.V.K.c.z.2.(.6.L |.S.(.(.u.M.R.C.z.@+!.C v 9+r+N.1 1 1 1 1 ",
"G+G+G+G+G+G+c+w+7+/+N.;+m.m.]+0 8 E.F.F.E.D.`.@+=.n.k.k Z +.O 8._.w k d.D.@+x.J 8 w ..[ [ b u [ u ..k u 1.x.`.D.,.w u _.+.O +.k K G.8.@+`.`.E.=+@+1.D.u O W.T.U.~+'+'+n.F.n.'.Y Y c l M T.*+I.v.P.i.u.,+,+M.I. .K.T.L V L.J.P.7./.|.R.P.Z.y.N.!.!.%+b.9+x+w.} 1 1 1 1 ",
"G+G+G+G+G+G+7+x+7+%+N.x.n.+.+.'.+.d.+.X r k D.Z +.+.r 0 0 2 Z J J k k w <.<.2...b ,.S [ 7 b 8 2 8 S Z b d. .` 1.k k w J ..+.r 0 0 +.,.+.1.`.k Z <.z.6.J +.2.D.D.`.=+=+S ! '+'.E M M E Y 9.8.T.L.z.W.L.u.(.U.6.d.d.T.2 V Q.L U S.R.P.P.j.B.:.A.C S.Z.$+6+7+Z.1 1 1 1 1 ",
"$.$.G+G+G+G+g+x+7+}+}+C. +8.T.G.+.+.X 8.r r k.+.0 r O c c 2 Z  .b r K 8 B ` z.#+b ..k.w b B B b S D.J J #+ .<.b [ r 8 t ~.D b [ 8 ` ` J ` <.J D ~.~.~.` C.N.x.=+C.~+*+` ! G.'.+.n.G.n.Y E '.F.=+8.K m.2.Z ,.Y.L.z.6...P.t.V 6.P.j.r.s.j.Z.B.N :.v d b.6+c+|+6 1 1 1 1 ",
"@.@.@.@.@.$.g+i+h+v+Z.N.*+z.L.W.=+Z Z #+D.S `.d.+.X X 0 c 2 K u [ u S k J =.` x.` C.x.3 t B L D ` C.~.x.C.` <.J K k b t R !.9 9 !.R 7.e.!.C.3 N.e.!.e.N.w.A.y.%+N.y.Z.N.=.~+~.t C.C.<.1.,.,.n.9.E {.9.g.~ 1.s.i.Q.u.i.s.|.V U R.j.y.C C Q y.B.P :.d &.6+x+w+5 } 1 1 1 ",
"H H H H H @.t+k+s+}+<+B.y.P.7.N.!.` D *+e.l.e.C.M.` ` D J J D D D ~.!.e.e.e.!.e.R N.w.Z.z 9 t 9 N.N.R.C N.!.e.l.!.e.e.z ; Q C C z z S.w./+%+%+A.w.Q d :.:.:.b.$+B.:.b.v %+C j.l.` K r { { { {.{ +.d.`.`.`.%+Q C S.j.).A.t.z Q w.w.Z.A.).N N :.v B.N - y+g+x+f 6 1 1 1 ",
"H H H H H @.t+t+k+}+- G+- / %.q.&.v d b.b.&+:.&+v v ( q q q q d &+v d v &+d d N b.$+$+b.( v q q &+b.&.&.&.v Z.q N b.$+$+N N N N v ( v $+[+[+)+/ $+b.)+- G+G+$.- *.*.$.*.)+- - G+/ &+% /+%+%+N./+!+!+q.#.#.*./ &.[+&.&.*./ [+q.&.:.b.&.&.&.$+b.&.[+)+y+7+x+w+G+o } 1 1 ",
"H H H H @.#.h+h+h+i+7+c+x+x+x+w+u+y+y+y+y+<+<+<+<+<+<+y+y+y+u+u+w+c+5+5+y+5+y+y+y+y+y+<+9+9+9+6+6+9+6+6+6+[+6+6+[+)+[+[+[+[+[+[+6+y+)+9+6+G+G+)+)+[+6+$.[+*.*.[+)+)+[+[+6+9+9+9+6+[+[+)+:+D+:+)+[+6+y+<+9+6+9+9+9+<+y+5+w+c+5+u+y+5+<+y+5+5+5+5+y+c+j+g+w+a+[+4 6 1 1 ",
"H H H @.@.$.h+h+h+k+l+t+h+t+h+i+j+m+g+v+g+a+a+x+x+x+x+x+x+a+v+r+r+x+7+7+7+7+x+x+x+7+7+w+w+w+c+c+u+5+u+u+u+5+5+5+<+6+9+<+y+y+<+5+y+w+y+u+w+[+G+[+$+9+y+[+5+9+6+6+6+9+9+9+y+c+c+c+7+c+u+5+y+c+y+9+u+w+a+7+u+5+u+u+u+w+7+e+r+g+v+r+7+x+7+w+w+w+u+u+w+x+j+r+a+2+c+$.a 1 1 ",
"@.H H @.#.$.t+h+h+l+h+t+h+i+h+i+m+r+r+v+v+x+v+x+7+a+a+g+x+7+w+w+w+c+w+w+c+w+x+7+w+c+u+u+c+u+u+5+u+5+y+y+y+y+5+y+5+y+9+9+9+<+y+y+y+u+<+9+u+y+F+[+9+9+9+9+9+9+6+6+6+6+$+<+9+5+c+c+7+x+7+7+7+7+c+u+w+a+r+m+x+u+x+g+c+7+u+d+k+g+g+r+a+7+a+m+a+a+a+w+7+c+w+a+2+o+o+G+i 1 1 ",
"H H @.@.#.$.m+t+t+t+i+m+t+t+j+g+v+v+r+r+a+7+w+7+w+a+x+a+w+w+u+u+c+|+|+c+c+c+c+c+u+5+5+5+5+5+y+<+5+5+y+<+!+y+5+<+5+u+<+9+9+9+<+<+<+9+5+<+9+9+9+9+6+6+6+9+6+6+<+<+9+<+9+x+7+5+|+c+7+7+7+7+7+v+v+7+y+v+x+a+x+7+a+m+w+g+j+m+h+i+h+k+j+v+v+m+g+m+v+a+r+u+c+m+h+0+p+5+^ h 1 ",
"#.H @.#.G+G+:+:+*.:+:+:+*.*.:+#.@.- :+:+$.$.E+$.E+E+$.E+$.$.$.$.E+/ < < P G+$.$.$.$.$.#.#.#.^ s s %.H f f f f f f %.%.%.s ^ ^ #.$.G+G+$.$.$.$.G+$.$.#.s s #.^ ] i ] 4 i < 5 : $.$.$.$.$.$.$.$.$.$.*.*.$.$.$.s %.@.*.q.%.q.q.q.q.p.p.H H *.*.#.#.G+[+y+e+l+0+0+3+[+).6 ",
"$.#.@.$.G+G+G+G+G+G+G+G+G+G+G+$.#.G+G+G+G+G+G+G+G+G+G+G+G+$.$.G+G+: 5 i $.G+G+G+G+G+$.#.#.s s @.$.$.$.$.$.$.$.$.$.$.G+G+G+G+G+G+G+G+G+G+G+$.G+G+G+$.^ s @.#.$.f ] #.s 4 : 5 n ^ G+G+G+G+G+G+G+G+G+G+G+G+G+G+$.#.$.$.$.$.$.#.@.s s H H H H @.$.$.G+G+*.5+3+e+o+b+o+w+1+",
"$.G+G+G+G+G+G+G+G+G+G+$.G+G+G+$.#.$.G+G+$.$.G+G+G+G+G+G+G+G+G+G+/ < 5 f G+G+G+G+G+$.@.@.#.#.#.$.G+G+G+G+G+G+$.$.$.$.$.G+$.$.G+G+G+G+G+G+G+G+G+G+$.#.#.#.$.G+G+#.#.G+$.s ^ ] H #.G+G+G+G+$.$.$.G+G+G+G+G+G+G+$.$.G+$.$.$.$.#.#.@.@.@.s @.s #.G+$.$.G+G+- $.$.y+m+e+&+c+",
"$.G+G+G+G+G+G+G+G+G+G+$.$.G+G+$.$.$.$.G+G+G+G+G+G+G+G+G+G+G+G+G+- : : $.G+G+G+G+$.@.@.#.$.$.$.G+G+G+G+G+G+G+G+$.$.G+G+G+G+G+G+G+G+G+G+G+G+G+G+G+$.#.$.$.G+G+G+G+G+G+G+G+G+G+$.#.$.G+G+@.@.@.$.$.$.G+G+G+G+G+G+G+G+$.$.$.$.$.$.$.$.$.$.$.G+$.G+G+$.G+G+G+G+G+G+[+|+b.d ",
"G+G+G+G+G+G+G+G+G+G+G+$.$.G+G+$.$.$.G+G+G+G+G+G+G+G+G+G+G+G+G+G+G+G+G+G+G+G+G+$.#.@.s #.$.$.#.$.G+G+G+G+G+G+$.$.G+G+G+G+G+G+G+G+$.#.$.G+G+G+G+$.$.$.$.G+G+G+G+G+G+G+G+G+G+G+$.#.#.$.$.@.H @.$.$.@.G+G+G+G+G+G+G+G+G+$.$.$.$.$.$.G+G+G+G+G+G+G+G+G+G+G+G+G+G+G+G+G+f i ",
"G+G+G+G+G+G+G+G+G+G+G+G+G+G+G+$.$.G+G+G+G+G+G+G+G+G+G+G+G+G+$.G+G+G+G+G+G+G+G+$.#.#.#.$.G+$.#.#.G+G+G+G+G+G+$.#.G+G+G+G+G+G+G+G+#.H @.G+G+G+G+$.$.$.G+G+G+G+G+G+G+G+G+G+G+G+G+$.$.$.#.#.#.#.G+G+#.G+G+G+G+G+G+G+G+$.$.$.$.#.$.$.G+G+G+G+G+G+G+G+G+G+G+G+G+G+G+G+G+H ] ",
"G+G+G+G+G+G+G+G+G+G+G+$.#.$.$.#.$.G+G+G+G+G+G+G+G+G+G+G+G+$.$.G+$.G+G+G+G+G+G+$.#.$.G+G+G+G+$.$.G+G+G+G+G+G+G+G+G+G+G+G+G+G+G+G+#.@.@.G+G+G+$.$.$.G+G+G+G+G+G+G+G+G+G+G+G+G+G+G+G+G+$.$.G+G+G+G+G+G+G+G+G+G+G+G+G+$.#.#.#.#.#.$.G+G+G+G+G+G+G+G+G+G+G+G+G+G+G+G+G+H ] "};
