/* XPM */
static const char * fs2_btn_update_click_xpm[] = {
"131 58 256 2",
"  	c #565355",
". 	c #616367",
"+ 	c #BEDEF6",
"@ 	c #A4BACA",
"# 	c #8F9DA5",
"$ 	c #757E83",
"% 	c #DFFEFF",
"& 	c #D8F4F5",
"* 	c #010303",
"= 	c #D8FFFF",
"- 	c #E3FFFF",
"; 	c #E6FFFF",
"> 	c #EBFFFF",
", 	c #F6FFFF",
"' 	c #E5FBF9",
") 	c #D0EAE6",
"! 	c #B8D2CA",
"~ 	c #C8DBD5",
"{ 	c #A6C6BA",
"] 	c #0B100E",
"^ 	c #0F1613",
"/ 	c #99B4A7",
"( 	c #010503",
"_ 	c #5B9879",
": 	c #578D72",
"< 	c #031009",
"[ 	c #5CAF84",
"} 	c #76A88C",
"| 	c #010D06",
"1 	c #4E8264",
"2 	c #121E17",
"3 	c #010B05",
"4 	c #030805",
"5 	c #6C937C",
"6 	c #49775A",
"7 	c #51745E",
"8 	c #5A7966",
"9 	c #539B6D",
"0 	c #355641",
"a 	c #223629",
"b 	c #6AA47F",
"c 	c #8EAB98",
"d 	c #879B8E",
"e 	c #010703",
"f 	c #406B4E",
"g 	c #4B9161",
"h 	c #2D5339",
"i 	c #354239",
"j 	c #A7BBAD",
"k 	c #1F2D23",
"l 	c #6A8C74",
"m 	c #263C2C",
"n 	c #010903",
"o 	c #0A120C",
"p 	c #192A1D",
"q 	c #3E6146",
"r 	c #4C6C54",
"s 	c #405A46",
"t 	c #345D3D",
"u 	c #2D4933",
"v 	c #54835E",
"w 	c #5E8466",
"x 	c #010B03",
"y 	c #45654B",
"z 	c #779B7E",
"A 	c #010D03",
"B 	c #18241A",
"C 	c #567C5C",
"D 	c #1E3421",
"E 	c #406D47",
"F 	c #49764F",
"G 	c #2E3B30",
"H 	c #67946C",
"I 	c #374A39",
"J 	c #465D48",
"K 	c #537155",
"L 	c #4A594B",
"M 	c #3C653E",
"N 	c #425443",
"O 	c #537954",
"P 	c #4B6D4C",
"Q 	c #688669",
"R 	c #010B01",
"S 	c #010901",
"T 	c #010701",
"U 	c #010501",
"V 	c #030903",
"W 	c #010301",
"X 	c #030703",
"Y 	c #050A05",
"Z 	c #355D35",
"` 	c #030503",
" .	c #446444",
"..	c #070A07",
"+.	c #0A0E0A",
"@.	c #4C644C",
"#.	c #354C34",
"$.	c #3F593E",
"%.	c #3D553C",
"&.	c #3C503B",
"*.	c #5A6F59",
"=.	c #30412F",
"-.	c #364735",
";.	c #617A5F",
">.	c #5D755B",
",.	c #2B3D29",
"'.	c #788D76",
").	c #182816",
"!.	c #385235",
"~.	c #455C42",
"{.	c #32472F",
"].	c #1F2B1D",
"^.	c #697C66",
"/.	c #3A4F36",
"(.	c #64865E",
"_.	c #2B3529",
":.	c #3D5937",
"<.	c #536A4E",
"[.	c #74926D",
"}.	c #090D08",
"|.	c #586C53",
"1.	c #374F30",
"2.	c #4C6345",
"3.	c #1D241B",
"4.	c #2E4327",
"5.	c #4D6844",
"6.	c #56724D",
"7.	c #263222",
"8.	c #5F7B56",
"9.	c #3B4A36",
"0.	c #4E5F48",
"a.	c #2A3F22",
"b.	c #283A21",
"c.	c #182314",
"d.	c #324629",
"e.	c #3E5435",
"f.	c #455C3B",
"g.	c #394932",
"h.	c #192016",
"i.	c #4B5D43",
"j.	c #5D7354",
"k.	c #45553E",
"l.	c #73856B",
"m.	c #364A2C",
"n.	c #161E12",
"o.	c #32422A",
"p.	c #3B4E32",
"q.	c #36462E",
"r.	c #0E100D",
"s.	c #435837",
"t.	c #44553A",
"u.	c #3F4F36",
"v.	c #54634B",
"w.	c #4C643D",
"x.	c #141A10",
"y.	c #566D47",
"z.	c #36422E",
"A.	c #4B5743",
"B.	c #232E1B",
"C.	c #3E4F32",
"D.	c #4A5C3D",
"E.	c #11150E",
"F.	c #425237",
"G.	c #65735B",
"H.	c #1F2818",
"I.	c #3B4B2E",
"J.	c #2E3B23",
"K.	c #37462A",
"L.	c #334127",
"M.	c #1C2316",
"N.	c #414C37",
"O.	c #5D6C50",
"P.	c #536245",
"Q.	c #030501",
"R.	c #29341E",
"S.	c #2C3721",
"T.	c #313D25",
"U.	c #425232",
"V.	c #36422A",
"W.	c #3E4A31",
"X.	c #343E2A",
"Y.	c #060705",
"Z.	c #5A654F",
"`.	c #0A0B09",
" +	c #191F12",
".+	c #4A553D",
"++	c #3B4332",
"@+	c #3F4637",
"#+	c #525B48",
"$+	c #3B452E",
"%+	c #505B42",
"&+	c #292D23",
"*+	c #191B16",
"=+	c #21231E",
"-+	c #495534",
";+	c #384127",
">+	c #050603",
",+	c #363E25",
"'+	c #39402A",
")+	c #424A31",
"!+	c #464C3A",
"~+	c #383A34",
"{+	c #10120B",
"]+	c #C3C5BD",
"^+	c #32332C",
"/+	c #030301",
"(+	c #232318",
"_+	c #0A0A07",
":+	c #151512",
"<+	c #1F1E16",
"[+	c #1A1913",
"}+	c #29271F",
"|+	c #8E8A79",
"1+	c #605E56",
"2+	c #2E2B21",
"3+	c #9E9888",
"4+	c #1F1E1B",
"5+	c #171510",
"6+	c #2A251B",
"7+	c #13110D",
"8+	c #B1ACA2",
"9+	c #595144",
"0+	c #0F0D0A",
"a+	c #352F26",
"b+	c #262018",
"c+	c #3A342C",
"d+	c #2D251B",
"e+	c #413629",
"f+	c #362D22",
"g+	c #3C3226",
"h+	c #1E1913",
"i+	c #322A20",
"j+	c #191510",
"k+	c #201B15",
"l+	c #665949",
"m+	c #433F3A",
"n+	c #231D16",
"o+	c #574837",
"p+	c #2E261D",
"q+	c #4D4031",
"r+	c #463A2D",
"s+	c #766450",
"t+	c #7D6D5B",
"u+	c #2A221A",
"v+	c #62503D",
"w+	c #16120E",
"x+	c #1C1712",
"y+	c #120F0C",
"z+	c #0D0B09",
"A+	c #28231E",
"B+	c #4C4641",
"C+	c #050302",
"D+	c #090706",
"E+	c #030101",
"F+	c #030303",
"G+	c #010101",
"G+G+G+G+G+G+G+G+G+G+G+G+G+G+G+G+G+G+G+G+G+G+G+G+G+G+W T n W W W S n e W W W W W G+G+G+G+G+G+G+G+G+G+W W G+G+W W G+G+W W U e e T ( ( U U W U U ( e e T T n e G+G+W G+G+G+G+W W W T S S S S U W G+G+G+W G+W W W U T U W W G+G+G+G+G+W W W W U U U U W W G+G+G+W W W W W ",
"W G+G+G+G+G+G+G+G+G+G+G+G+W G+G+W G+G+G+W W G+G+G+G+G+U n U W e x | n W W W T e e U G+G+G+G+G+G+G+G+G+W G+G+W W G+W T ( T e | 3 n n U W W U U e e e ( T e U W W G+W G+G+G+W W W U T T U U W G+G+G+W T T T W W U T U W G+G+G+G+W W W W W W W U U U W W W W W W U W W W ",
"S U W G+G+G+G+U T T T T T T T T U W G+G+U W G+G+G+G+G+T n U W e 3 | n W W W n n n S U G+W W W W W W W W W W U U W U e e U e 3 3 T T W W W W W U U ( ( ( U W G+W W W G+G+G+G+G+W G+G+G+G+G+G+G+G+W W U U W W W U T T U G+G+W G+W W W W W W U U T U U W W W W U U W W W ",
"n n U G+G+G+W T n n S T T T T T T U G+G+W G+G+G+G+G+W e 3 U W e 3 | n W W W S n n n n U U U ( e e ( ( U U U S n T T e e U T n T W W G+G+W T U W W U ( ( W G+G+G+W W G+G+G+G+G+G+G+G+G+G+w+f+g+p+2+a+a+g+q+1+q+9+9+  . 1+1+B+~+^+a+a+p+f+1+B+(+<+[+5+z+W W U U W W G+G+",
"n e W G+G+G+G+W W W W W W W W W W G+G+G+W G+G+G+G+G+U n 3 ( G+e x 3 e W W W T n 3 3 n n e e ( e n 3 | < | 3 n x A 3 3 e U W W G+G+G+G+W S n S U W U ( ( W G+G+G+W W W G+G+G+G+G+G+G+G+n+i+i+f+g+q+l+t+|+3+8+]+]+]+~ ~ ~ ~ ~ ]+]+8+8+3+|+3+3+v+v+q+g+i+k+Y.T T W W W W ",
"W W W G+G+G+G+G+G+G+G+G+G+G+G+G+G+G+G+G+U W G+G+G+G+U 3 3 T G+T x 3 T W W G+W U e n n 3 e e U U e 3 < < < < n S 3 | 3 e U G+G+G+G+G+G+W S S S U W T e e W G+G+W W W W G+G+W W G+G+G+G+u+i+r+s+8+]+) ' - % % % ; ; > , , , , , , , , > - & ~ ]+8+t+r+e+q+[+U U W W W W ",
"G+G+G+G+G+G+G+G+G+G+G+G+G+G+Y.j+w+5+b+u+j+5+5+5+w+x+7+}.}._+D+z+}.}.z+j+n+b+x+6+r.5+u+6+p+i+d+6+p+2+c+(+(+(+6+f+g+a+f+f+i+i+f+i+i+f+f+f+f+f+f+i+p+p+p+2+p+d+d+p+u+f+d+u+b+b+w+0+w+k+x+i+f+B+# ; = = % = = = = % % ; , , , > % = = = = = - = % & l.e+e+e+0+W W W W G+G+",
"W G+W G+G+G+G+G+G+G+G+G+G+h+f+f+i+e+v+r+i+p+d+p+r+e+k+w+7+7+0+0+w+j+h+e+o+q+o+o+p+t+|+o+g+r+e+r+o+v+v+o+o+g+o+s+s+s+s+l+v+v+l+o+o+v+v+v+o+o+o+o+q+r+e+e+q+r+e+e+f+9+g+i+p+f+i+n+u+c+o+e+f+b+a+. # @ + & % % ; - - ; > , , > % = = = & + + @ d 1+q+r+f+u+Y.G+W W G+G+G+",
"G+W W G+G+G+G+G+G+G+G+0+f+r+f+i+i+r+o+o+q+g+u+e+e+u+b+n+h+x+j+x+b+i+q+v+q+o+v+o+e+o+t+v+o+o+o+v+v+9+t+l+v+o+s+t+l+l+s+s+v+v+v+v+o+v+v+v+v+v+v+v+o+q+r+r+q+q+e+g+e+e+e+g+g+b+u+u+d+p+e+o+g+f+i+h+u+c+B+. $ $ d # # @ @ @ ! @ / # # $ .   B+r+f+o+v+q+g+p+Y.W W W W G+G+",
"G+G+G+G+G+G+G+G+G+D+g+o+g+l+g+p+e+f+b+b+}+n+w+k+j+7+w+h+h+[+7+[+h+h+u+b+x+6+6+h+h+x+n+a+u+x+n+6+i+a+r+b+b+p+g+i+b+n+n+u+n+b+u+p+d+b+u+u+u+u+6+u+b+h+x+k+n+h+[+x+h+h+h+x+j+x+x+5+5+w+j+u+k+u+2+A+A+b+u+A+p+f+a+c+B+    . $   B+m+c+a+a+a+a+g+c+c+o+o+e+f+_+W W W G+G+G+",
"W G+G+G+G+G+G+>+2+q+l+v+e+o+f+u+h+}.* W W * Y }.}.}.}.+.{+E.E.o o o ......4 ( ( X ..Y Y ..o o Y e ( ( Y Y X ( ( 4 Y 4 4 Y >+Y ....4 W W W ` X ` U X Y.X ( Y...}.Y 4 4 X ( Y.Y ....}.}.z+0+{+{+5+*+(+}+&+&+^+c+c+~+m+m+B+  B+~+~+^+&+}+A+4+4+*+7+5+a+i+b+Y.W W G+G+G+G+",
"G+W G+G+G+G+0+o+o+o+t+q+e+f+n+{+}.....}.}.+.{+E. + + + +].D 7.]. +n.E.E.n.n.n.c.c.p p a k p p c.B n.).c.n. +n.h.].].p B  + +M. +x.E.{+E.n.n.c.H.H. + + +c.M.c.M.h.x.n.c.c.M.B.M.H.7.7.,.H.H.B.R.,+'+X.X.$+++++@+!+!+!+!+#+N N.@+X.^+&+&+_.a 3.:+y+y+b+k+V W G+G+G+G+W ",
"G+G+W G+C+p+g+e+o+v+v+r+6+y+Y }._+}.{+E.E. +M.H.H.H.B.S.,.,.b.D c.).R.,.b.b.a.{.=.u u u u u ,.=.{.b.R.7.b.B.c.c.D 7.,.b.T.R.B.R.R.R.R.B.S.B.B.B.L.J.R.d.{.B.R.7.B.R.R.R.R.B.J.o.m.{.:.$.T.R.L.L.K.V.V.V.W.$+++!+%+%+A..+Z.#+A.#+.+!+!+++X._.(+*+y+{+b+h+>+G+G+G+W W W ",
"G+G+G+W q+v+g+f+r+o+g+7+X >+..{+x.x.M.B.B.R.T.J.J.T.K.g.o.,.b.b.u =.4.m.4.b.a.#.u -.q  .y &.=.u {.b.b.4.d.,.=.,.b.J.o.q.p.K.q.,+V.$+L.L.I.T.L.T.J.J.J.4.J.J.R.B.J.T.T.K.S.R.I.s.e.e.~.~.I.T.K.b.J.L.L.d.m.L.X.X.W.$+'+X.N.!+W.N.++z.$+X.J.}+<+[+y+7+n+x+>+G+G+G+W W W ",
"G+G+G+G+l+v+v+r+f+{+( >+_+x.H.H. +H.S.R.B.R.J.L.L.T.L.L.#.#.d.h 0 0 !.e.:.!.g.{.h h 6 1 1 q u h {./.!.:.1.&.0 0 u K.#.q.V.L.L.L.T.S.S.R.J.T.R.S.C.f.L.T.S.S.B.R.R.J.W.T.S.,+W.C.d.q.e.e.t.I.K.4.1.e.L.1. .E ~.e.C.$+p. .F.W.W.U.I.I.2.z.S.7.H.[+0+7+h+w+/+G+G+G+W W W ",
"G+G+G+G+e+9+t+u+* U Y.+.c.,.4.J.J.R.L.J.S.J.J.J.4.R.q.e.E f !.f >.K !.E y @.<.k.s f M F E E q %.N r @.y E %.>.7 q !.E q C.T.J.4.J.J.J.S.T.T.R.T.m.f.f.J.J.H.S.L.T.p.I.;+-+-+D.D.m.L.L.m.T.o.d.m.:.e.d.m.e.O C  .:.U.w.9 6..+t.-+s.i.i.D./.#.7. +0+{+j+7+/+G+G+G+G+W W ",
"G+G+G+G+o+|+s+k+4 }.{+M.R.L.W.I.;+'+g.z.$+g.p. .~.q.f.P 6 P $.y u.u.!.@.t.~.;.v.J v v $.E v 7 N *.|.k.D.y 1.)+/.y %.F F 5.!.#. . .m.p.V.g.I.'+;+I.$+m.T.R.B.K.2.K.d.F.D.D.f.w.5.e.p.!.:.4.b.a.a.a.a.4.f.i.2.K O 6.s.e.P D.D.i.f.C.U.t.6.<.o.H.n._+_+y+y+/+G+W G+G+W U ",
"G+G+G+G+l+t+t+u+}.n.H.R.,+T.R.J.J.S.B.R.T.V.9.~.e.g.u.6 1 @.r 1 f q j.G.F.9.t.P.i.C v %.y w r %+P.u.9..+(.<.s F 1 J r 1 P g.g.t.~.$+X.T.B.B.S.J.S.S.,+,+R.S.U.t.d.T.K.U.I.:.s.d.m.m.!.$.T.S.b.b.a.a.4.4.p.s.~.v <.C.E P f.K.I.s.U.C.F.i.D.J. +x...+.w+7+U W G+W W W W ",
"G+G+G+G+l+s+s+2+n.B.S.J.)+F.d.;+W.m.L.L.J.q.t.t.&.-.T.y r t.P v C <.w.C.X.C.u.9.t.<.|.s J j.2.u.9.u.u.o.U.5.K C C 2.~.7 N J.&.k.k.t.o.T.o.V.m.$+L.m.F.$+R.J.K.w.5.C.,+I.-+I.K.1.m.d.F.s.L.J.a.b.B.S.b.R.S.T.f.K O Z Z F O I.L.d.a.4.a.4.1.F.S.h.+._+w+y+W G+G+G+W W W ",
"G+G+G+G+v+s+s+a+M.R.I.I.C.F.p.I.$+p.e.K.'+$+$+W.++z.$+t.k. .<.F C.1.d.-.$.u.t.K @.$.f.2.i.:.s r @.u.F.N {.d.p.%.O 5.~.k.u.$+++W.W.$+I.$+m.e.W.I.C.p.F.I.L.K.R.D.P.K.U.2.D.C.:.e.C.K.W.C.L.b.b.b.b.R.R.T.T.J.U.s.f.g g y C f.f.!.M E Z a.4.s.g.].+._+x+j+y+5+n+}+a+2+a+",
"G+G+G+G+v+s+s+2+M.,+e.L.,+t.~.s.F.t.m.L.J.T.C.$+X.u.I.,.g././. .$.t.q.&.%.%.&.2.J %.%.I &.%.N @.~.&.%.$.9.-.~.~.5.q.$.o.,.C.u.X.W.W.J.T.V.I.t.u.F.~.F.T.d.U.;+V.J.L.I.t.s.f.P f.$.1.J.L.L.!.m.t M S.b.4.b.d.s.U.J.4. .d.w.s.F :.E 9 F I.4.4.b. +}.4+e+f+[+=+c+9+o+l+l+",
"W G+G+G+o+l+s+6+M.t.t.C.'+D.D.D.N.f.C.K.;+$+W.q.I.F.~.0 #.y %./.%.~.=.=.{./.#.f.%.9.%.J s /.W.~.k.-.#.=.=.#. .&./.$.y #.q k.W.I.g.W.K.,+L.F.t.N.D.D.C.L.F.D.D.L.V.f.F..+s.s.D. .$.F.K.s.D.p.I.:.Z L.4.I.T.d.w.I.d.E :.K.U.e.F g g 9 6 :.1.1.m c.+.[+q+e+5+=+a+m+B+l+s+",
"G+G+G+G+o+v+v+6+n.$+)+2.t.t..+U.U.t.p.V.W.W.C.F.u..+t.&.%. .u.y r &.{.-.-.&.%.%.e.p.N y s &./.e.$.%.#.-.I =.N 6 %.e. .%.&..+t.F.F.W.U.W.,+u.t.U.F.D.U.D.i.W.I.V.C.u.k.F.W.T.I.D.2.v.D.p.T.d.e.1.1.L.L.m.L.o.p.I. .9 f.I.C.s.P F g 9 g  .g.,.m a o j+g+i+w+*+2+m+9+1+t+",
"W G+G+G+o+o+v+2+].$+y.5.f.W.u.s.f.g.q.$+W.f.! ! d k.D.y P  .~.d ! ! I -.I %.s ! ! ! ! ! ! ! ! ! ! / J I -.#.#.! ! ! ! ! ! ! ! j d <.D.$+q.q.9.D.s.t.W.v.! ! c A.<.2.@.F.X.! ! ! ! ! ! ! { ! ! ! ! '.o.p.! ! ! ! ! ! ! ! ! ! ! f.f. .5.p.#.m D B +.5+o+g+5+[+a+m+l+l+9+",
"G+G+G+G+q+o+v+2+].$+W.V..+i.i.j.6.0.N.F..+P.- - d F.2.0.&.&.~.d - - #.I %.&.~.- - - - - - - - - - - j &.-.9.{.- - - - - - - - - - & z t.u.F.<.6.6.k.i.j - - - ^.~.0.#+!+!+- - - - - - - - - - - - d q.m.- - - - - - - - - - - s.s.2.2.g.{.7.D 2 ..y+p+g+w+=+2+9+s+l+9+",
"G+G+G+G+r+o+v+6+7.D.^.l.'.j c z Q <.D.F.F.F.- - c k.k.N.u.J ~.c - - /.I 9.%.#.- - j 5 l l l l Q ) - ! q.I %.k.- - j l ^.^.l l.c & - - >..+2.j.[.z / j - - ~ - ) W.q.K.W.)+^.l.^.'.'.- - j ^.^.^.l 0.4.m.- - j l.^.'.Q ^.;.;.^.f.D.D.~.t.-.].].E.X &+m+p+w+4+r+l+s+9+l+",
"G+W W G+r+o+o+2+++O.G.^.*.0.O (.P 1.f.N.)+D.- - / v.@.f.k.k.<.c - - /.{.=.#.$.- - c F 6 F r s  .! - ! ,.{.g.q.- - c k..+$.<.<.<.K & - { F.$.!.8.8.K ! - { l.- - c !+P.A.%+)+V./.D.P.- - c s.d.o.e.d.,.f.- - / w.d.!.y U.C.U.C.U.U.e.p.q.g.].n.r.Y.4+q+f+w+A+m+l+9+B+B+",
"W W W G+g+q+q+2+_.u.g.m.:.y O y.w.O O v.%+K - - / .+0.A.%+<.<.c - - N s f. .f - - { c } c } z z ) - ! %.$.%.I - - c <.P.i.i.%+v.J { - & <.F F w.y.z - & i.9.j - & O.j.O.O..+u.P D.i.- - c F.I.o.f.I.q.s.- - ) ! ! ! ! d y.f.O w.I.C.J.7.o.H.E.+.Y.5+e+g+z+A+m+m+9+l+9+",
"W W G+G+i+r+r+<+B.~.<.j.Q l (.(.6.F H v K C - - c F.%+>.|.r &.c - - y f q e.f - - - - - - - - - - - j q y J N - - c <.|.*..+.+D.K / - - w H  .8.(.) - j v.@.>.- - c v.O.v..+%+G.v.t.- - c W.V.d.e.m.d. .- - - - - - - d f.m.w.f.I.I.I.7.H.H. +r...7+g+e+4+*+=+a+B+l+s+",
"W W G+W e+q+r+}+=.;.;.w @.w w [.H P H _ v C - - c $+%+>.~.J %.c - - O v q 1.f - - ) ! ~ ~ ! ! ! ~ / $.f C O J - - c ~.0.>.t.W.i.: { - & b (.P z j - - d d d d ! - - ;.F.,+$+f.v.D.v.- - c 0.q.p.C.C.%.v - - / ^.l.l.^.0.m.K.I.t.e.f.q.M.+.E.x.x.}.7+f+f+=+^+4+c+9+s+l+",
"W W G+U e+o+q+2+,.v.^.;.>.l Q Q } H (.b : >.- - c <.l *.A.@.r / - - K r r %.f - - c C v v K P F 1 q $.r @.7 6 - - c J A.w Q 0.<.^.& - ! H (.b c & - - - - - - - - - ! K .+)+C.'+P.O.- - c t.u.s.s.t.y _ - - c  .I.C.I.I.t.D.-+m.F.u.M.E.D B 2 h.+.[+r+i+4+~+~+B+B+l+t+",
"G+G+U n g+q+q+}+_.A.i.v.<.*.v.(.H (.H H H Z.- - / Q 5 >.;.} _ { - - $.N @.r 1 - - / y f q P O w 1 6 r 2.N $.6 - - { z *.w z l d ~ - - c H (.(.{ - & ~ ! ! ! ! ! ~ - - d P..+F.s.P.W.- - d F.t.E f.A.>.9 - - c v F 6.C f.t.D.-+I.s.u.B.p t ,.D 7.o <+q+i+*+~+~+^.|+1+t+",
"G+W T 3 i+e+e+(+&+0.#+Z.K @.#+P.>.;.(.>.O.k.& - - - - - - - - - - & t.r J y : - - c %.>.y $.<.6.: : J @.@.F._ - - - - - - - - - - - d O.(.j.l - - d <.<.v.#+v.W.%+) - ) >.%+F.j.D.%+- - c .+f.j.|.v.d / - - - - - - - - - - - f.e.p.W.F P $.h m 2 {+i+d+7+4+^+m+1+G.1+",
"G+W n | f+g+e+A+7.N.k.|.|.<.A.Z.|.w ;.0.#+G.d ) - - - - - - - - & / <.l r D.: - - c t <.J t F : [ C D.w Q 0.b - - - - - - - - ) j '.G.A.<.*.~ - ! 0.|.|.0.!+N.F.v.d - - / t.N.@.<.O.- - c v.d j '.v.*.d - - - - - - - - - - - P.C.m.y.l >.K s G ^ E.i+p+`.z+7+*+=+}+^+",
"G+W n | e+e+f+k+_.9.N.v.0.0.A..+0.Q i..+Z.'.^.0.v.8.^.'.z Q l l l >.>.w 8 w [ 9 y f 1 6 6 6 y P [ 9 ;.w Q >.;.5 l l Q z ^.^.j.v.v.l.l.Z.N.|.;..+A.0.~.P.i.F.A..+9+Z.A.v.P.P.F.K ;.O.l.[.[.G.A.N.9.k.0.q.B.X.~.[ H |+[.y.%+e.s.U.:.M P.G.>.s =.7.`.5+e+g+x.4 X ....}.^ ",
"W U n 3 f+f+r+h+3.k.0.K K K %+.+v.P.^.^.^.'.;.A.A.>.l.w z z 5 5 5 Q |.|.|.>.9 1 .+s 9 1 9 1 N.2.g 1 >.K |.>.l 5 5 z z 5 Q l.|.A.i.l [.G.Q >.%+v..+v.K Q <.0.<.!+o+#+.+#+G.v..+<.8.P.Z.'.G.%+I.4.d.L.V.R.J.I.D.v O j.Q 8.t.O (.D.P E g.Q ^.i 3.*+] w+g+e+^ < U G+W U 3 ",
"U e e T f+r+r+x+=+A.;.>.Q K A.%+0.%+i.A.@.<.^.*.|.0.^.l 5 } l ^.;.5 '.l.|.y 9 9 P.r [ 1 _ 9 0.|.9 1 L ;.l.5 l G.^.5 } 5 l *.0.*.G.>.@.2.k.0.%+0.%+A.w Q >.>.G.Z.Z..+!+G.G.8.8.w : 8.|+d O.D.D.y.y.D.T.V.D.D.D.j.8.O.l (.O.~.O.%+g E X.j.;.N 2 *+^ 7+q+r+o 3 W G+G+W W ",
"U e e U i+g+f+[+3.<.Q ;.5 <.v.P.!+#+0.r *.i.i.*.>.$.|.Q } 5 l ;.*.(.^.L !+v._ w <.v [ : _ [ F K _ _ A.N.v.^.;.;.^.l b b ^.0.J w <.i.0.>.@.0.A.!+v.i.>.Q ;.Q 8.%+Z.;.l l.j.j.8.H } G.j.G.'.G.P.w.j.t.I.C.D.C.C.y.P.j.P 2.F.9.i.2.b 9 $+F.;.L a p ^ y+e+f+e U W G+G+G+G+",
"W ( n e b+u+n+5+M.f.j.z z w @..+!+P.#+;.>.<.N A.~.7 ;.'.} w 8 Q w K u.@.k.|.: 1 K 7 _ : _ : r O : : 0.~.~./.C w Q 8 5 } Q w r i.k.L |.;.;.v.P.)+0.y w z [.O y.!+O.Q '.G.Q j.8.(.b Q c / / z '.j '.v.y.O.O.s.f.D.2.i.Z E a.B.s.G.C P X.g.;.A.m k ^ 0+i+k+e U W W G+G+G+",
"( W e | h+n+k+=+=+W.5.|.l.w <.v..+O.|.Z.O.|.v.A.r 8 >.Q z l 8.C >.0.#+<..+K _ : r 1 9 : : _ 6 K b : @.A.Z.A.<.C O >.5 5 Q 8 8 @.A.v.j.Z.*.O.P.@+v.P 5 ;.j.5..+l.[.l.Z.^.'.[.z b [ c z j.k.v.v.G.^.]+3+<.%+y.8.i.P e.f.E 4.B.%.:.d.$._.g.i.k.G k ^ z+u+k+e ( U W W W W ",
"< 3 3 | 5+x+h+<+&+'+6.j.l.z w O.*.G.O.v.A..+L l.;.8 8 Q l ^.(.C 8 *.v.k.N.r : 8 K : : 6 1 _ v K 8 1 @.N.A.v.>.8 C (.Q l w 8 8 ^.^.N A.A.|.Z.A.0.v.C [.O.@.t.)+G.j.l.*.'.'.c / c { d P.$+I.K.R.b.L.)+)+t.I.5.y.P.F M s.p.B.7.1.a.b.R.n.h.k z.=.].}.z+n+5+e e T U U U U ",
"| < | 3 h+k+h+=+&+N.l.l.Q z w j.Q [.z 8 v.;.l Q 5 } } b w r r 8 8 7 A.~.P K 6 *.K _ _ 6 1 _ w *.;.6 K y k.0.8 8 7 r K w b b z Q ;.l 0.A.8 w J 0.k.r Q <.v.Z.A.Z.Z.*.8 G.z j c c j c z ^.2.F.i.|.s.d.:.f.f.j.j.5.[ M L.E 1.B.S.R.b.].E.r.n.k k *+.._+k+5+3 3 n n n n n ",
"3 3 3 n p+n+k+}+&+@+'.^.P.^.Q Q H (.b 5 G.Q } 5 l c } } C y 6 5 w 1 y $.2.%+6 |.;.7 6 y f 6 7 v.r r #+2.~.6 : 5 : 0 -.s 6 : 8 &.N r N A.r s -.-.-.N ++&+@+1+@+!+$+N . ^.'.Q l.l.l.c j '.>.Z.^.^.6.<.;.>.u.F.2.f.6.b.B.M $.R.B.c.B.].n.E.+.r.E.:++._+j+5+| | | 3 3 3 3 ",
"n n e T d+f+r+(+h.&+++2.F.Z.Z.;.;.#+v.*.A.*.Q [.H } } } w v _ 8 K 8 r J %.N.k.9.&.i 0 f f s N @+-.&.9.N J r w 8 6 0 m G u u G _.7.,.G ++i &+_.=._.&+3.x.h.3.&+h.h.&+L !+++0 9.9.A.0.>.>.'.d / c d ]+j 0.B.b.4.o.b.B.4.M {.b.B.M.D D p M.E...r.:+Y _+k+[+| | | 3 3 3 3 ",
"e 3 e U e+q+o+2+r.x.c.7.7.7.X.N J z.^+~+^+++k.N 0 s r r 0 s s i G G _._.G _._.7.3.*+a u 0 I &+&+_.k 7.G ^+~+G _._.a k p k k a a k 3.3.=+=+*+3.B ^ r.r.r.}._+E.r.+.E.3.k k G N 8 5 d d d # d Q *.A.#+#+].).D ].].c.x.).a B M.H.c.x.h.r.o o E.E.+.* y+d+k+e e e e e e e ",
"3 | n U e+e+q+}+* G+* X X Y...r.^ `.`.r.r.r.E.^ 2 2 B 2 2 ^ r.E.^ r.r.^ ^ ] }.`.`.+.^ ] 2 2 r.`.......E.*+*+] }.`...+.o +.] ^ ^ ] `.Y.Y.Y.4 _++.>+* G+G+W * ` ` W ` >+* * G+Y.] ^ 4+=+=+&+h.{+{+Y U U ` X 4 Y...Y ` X Y.Y...o +.Y ......}...Y.>+y+h+n+x+U U U U T U U ",
"n 3 n U e+r+r+f+k+j+k+k+k+x+w+y+0+0+y+0+0+0+0+0+0+y+y+y+w+w+x+j+7+7+y+7+y+y+y+y+y+0+z+z+z+_+_+z+_+_+_+D+D+D+Y.>+Y.D+D+D+D+D+D+y+Y.z+D+G+G+>+C+Y.D+W D+` ` D+Y.>+Y.D+_+z+z+z+_+Y.D+C+/+C+/+>+Y._+0+0+_+_+z+z+z+0+y+7+x+j+7+w+y+7+0+y+7+7+7+7+y+j+i+d+x+4+Y W U U U U U ",
"e 3 e U r+r+r+q+q+g+r+e+r+f+f+i+p+b+d+b+b+n+n+n+n+n+n+b+b+u+u+n+k+k+h+k+k+n+n+h+h+x+x+x+j+j+w+7+w+w+w+7+7+7+0+_+z+0+y+y+0+7+y+x+y+w+x+D+G+D+_+z+y+Y.7+z+D+_+D+z+z+z+y+5+j+j+h+j+w+7+y+5+y+z+w+x+b+k+w+7+w+w+w+x+h+A+u+d+b+u+h+n+h+x+h+x+w+w+x+k+i+u+b+a+[+W W W W W W ",
"n 3 e T e+r+r+o+r+g+e+f+e+g+i+u+u+b+b+n+b+n+k+b+b+d+n+k+x+x+x+j+x+x+j+x+k+h+x+j+w+w+5+w+w+7+w+7+y+y+y+y+7+y+7+y+z+z+z+0+y+y+y+w+0+z+w+y+F+D+z+z+z+z+z+z+_+_+D+_+_+0+z+7+5+j+h+k+h+h+h+h+j+w+h+b+u+p+n+w+n+d+5+h+w+l+q+d+p+u+b+h+b+i+b+b+n+x+h+j+x+n+a+c+c+W W W W W W ",
"3 | 3 e p+g+e+e+f+i+e+g+i+p+b+b+u+u+n+h+x+h+x+b+n+b+x+x+w+w+j+w+w+5+w+j+x+j+w+7+7+7+7+7+y+0+y+y+0+z+0+y+y+0+7+7+z+_+_+z+0+0+0+z+7+0+0+z+z+z+_+_+_+z+_+_+0+z+z+z+_+k+x+y+5+j+h+h+h+h+h+b+b+h+y+b+n+b+n+h+b+p+h+p+i+p+r+f+e+q+i+b+b+p+d+p+b+n+u+w+[+2+r+9+s+7+W W W W W ",
"| | 3 3 | < < o o < < < < < < < | | | | | n W U U W E+E+E+W E+W U e n n n n n n n e U U ( e ( W W W T T W W W W W ( 3 < < < n T T T T U T U U T S T U U U W U U ( ( U U U W W U U W W W U U U ` ` U W W U ` W ` >+` C+C+>+>+C+C+W * ` ` W W G+D+y+A+B+9+9+<+..+...>++.",
"| | 3 n 3 | < < < < < < | 3 | | | | | | 3 e W W W G+G+G+G+G+G+G+W S n n S n n x e W W W W W W W G+U S T W G+G+G+W e 3 3 | 3 e W W W W W U T W W T T W W U W W U U U U U W G+G+W W W W W W W W W G+G+W G+G+G+W W G+G+G+G+G+G+G+G+G+G+G+G+W W W W ` 7+*+A+c+r+c+[+2+c+2+",
"| | 3 n n 3 | | < | | 3 3 3 x 3 3 n n n n U W W W G+G+G+G+G+G+G+W T n n S S n x n G+G+G+G+G+G+G+G+W S S W G+G+G+U e e e 3 n T W W W W W W W W W W U W W U W W T ( T U U W W W W G+W W W W G+G+G+W W W G+G+G+G+W W G+G+G+G+G+G+G+G+G+G+G+G+G+G+G+W * U U y+}+A+r.:+}+}+",
"n 3 n e e e n 3 3 n e T T e T W ( n n n e U W W W G+G+G+G+G+G+G+W T n n S S x x n U G+G+G+G+G+G+G+G+U U G+G+G+G+W W ( n | 3 e U U U W W W U U U G+G+W U U W U U ( T U U U U W W W G+W W W G+G+G+G+G+W W W G+G+G+W G+G+G+G+G+G+G+G+G+G+G+G+G+W W W U U U W D+:+_+r.+.r.",
"( e e T T T e e e ( U U U U U W W ( n n n T U W W G+G+G+G+G+G+G+W T n n T T x 3 e W G+G+G+G+G+G+G+G+W W G+G+G+G+W W ( 3 | 3 e U U W W W W W W U U G+G+U U W W U ( T T T T U U W W W G+G+W W W W W G+G+W W W G+G+G+G+G+G+G+G+G+G+G+G+G+W W W W W ( e e T U U U U e n 3 ",
"W U U U W U U U U W W W W W U T U G+( 3 x n T W W G+G+G+G+G+G+G+G+W S e T T n n T W G+G+G+G+G+G+G+G+W W G+G+G+G+W U e 3 3 e U W W W W W G+G+G+W U U G+W U W W U U U U U U U U U W W G+W G+W W W G+W W G+G+G+G+G+G+G+W G+G+G+G+G+G+G+G+W W W W W U U ( U W W W W U U T ",
"W W W W W W W U U W W U W U T n n U G+( 3 3 T U W G+G+G+G+G+G+G+G+W U U U U T T U G+G+G+G+G+G+G+G+G+W W G+G+G+G+W W e 3 | 3 T W U T T U W W G+G+W U W W W W W U U U U U U U U U U U U T T U U T T T U U U U U S T U U S T U U U T T T T W G+W W W W U W W W W W W W U ",
"W W W G+G+G+W W W W W W U U n n n n U G+e 3 T S T G+G+G+G+G+G+G+G+G+G+G+G+W W W W G+G+G+G+G+W G+G+W W G+G+G+G+G+G+W U n | | n U T n S T W G+G+G+G+W W U W W W U U U T U U U U U W U n 3 3 R S S n n x S S S S n x R T S n n n n n x x x U G+G+W W U U U U U U U U W W "};
