/* XPM */
static const char * fs2_btn_play_xpm[] = {
"131 58 256 2",
"  	c #121619",
". 	c #151C21",
"+ 	c #212B32",
"@ 	c #30444E",
"# 	c #2C4D57",
"$ 	c #47686E",
"% 	c #336165",
"& 	c #677E7F",
"* 	c #010303",
"= 	c #57786D",
"- 	c #5F9C83",
"; 	c #67BC97",
"> 	c #03100A",
", 	c #4B5651",
"' 	c #558A70",
") 	c #010503",
"! 	c #030705",
"~ 	c #111513",
"{ 	c #071A10",
"] 	c #5DB184",
"^ 	c #5B9275",
"/ 	c #69A787",
"( 	c #A3D1B9",
"_ 	c #0A2215",
": 	c #1A492F",
"< 	c #579F78",
"[ 	c #79C299",
"} 	c #719682",
"| 	c #06140C",
"1 	c #153F27",
"2 	c #18452B",
"3 	c #19472D",
"4 	c #174129",
"5 	c #1A422B",
"6 	c #163523",
"7 	c #78A58B",
"8 	c #4F8364",
"9 	c #49785C",
"0 	c #020A05",
"a 	c #83D6A3",
"b 	c #223529",
"c 	c #0C1A11",
"d 	c #529A6C",
"e 	c #131E17",
"f 	c #72AC86",
"g 	c #2D3B32",
"h 	c #020E06",
"i 	c #010703",
"j 	c #162B1D",
"k 	c #6EB887",
"l 	c #365641",
"m 	c #77B78D",
"n 	c #1D3A26",
"o 	c #4B9160",
"p 	c #2D5339",
"q 	c #75B188",
"r 	c #84C097",
"s 	c #6A8E75",
"t 	c #354239",
"u 	c #6DA27C",
"v 	c #426B4D",
"w 	c #699C76",
"x 	c #54735C",
"y 	c #4D865A",
"z 	c #557C5E",
"A 	c #415F48",
"B 	c #010A03",
"C 	c #335D3C",
"D 	c #2D4933",
"E 	c #5C8665",
"F 	c #4D6C54",
"G 	c #45644B",
"H 	c #3E6E46",
"I 	c #66926D",
"J 	c #48754F",
"K 	c #172519",
"L 	c #405A44",
"M 	c #90A593",
"N 	c #7FAD85",
"O 	c #3D6541",
"P 	c #283C2A",
"Q 	c #374A39",
"R 	c #668669",
"S 	c #A8BBAA",
"T 	c #1E2C1F",
"U 	c #537255",
"V 	c #5F7B61",
"W 	c #2C412D",
"X 	c #3D5B3E",
"Y 	c #547955",
"Z 	c #4C6D4D",
"` 	c #010901",
" .	c #010701",
"..	c #010501",
"+.	c #010301",
"@.	c #030703",
"#.	c #060A06",
"$.	c #030503",
"%.	c #0B110B",
"&.	c #456345",
"*.	c #3C543C",
"=.	c #0A0E0A",
"-.	c #415741",
";.	c #3B4F3B",
">.	c #354735",
",.	c #4C644C",
"'.	c #0E110E",
").	c #365A34",
"!.	c #7A9779",
"~.	c #455444",
"{.	c #20351E",
"].	c #354C33",
"^.	c #455C43",
"/.	c #5E745C",
"(.	c #182816",
"_.	c #385235",
":.	c #4B6847",
"<.	c #41513F",
"[.	c #162214",
"}.	c #3A4F36",
"|.	c #73916D",
"1.	c #2D4328",
"2.	c #435D3D",
"3.	c #596C55",
"4.	c #304A29",
"5.	c #3D5936",
"6.	c #33452E",
"7.	c #56704F",
"8.	c #66845E",
"9.	c #263123",
"0.	c #536A4D",
"a.	c #697965",
"b.	c #798975",
"c.	c #375030",
"d.	c #4C6245",
"e.	c #5C7255",
"f.	c #2C3629",
"g.	c #273B20",
"h.	c #3D5435",
"i.	c #3B4A36",
"j.	c #4E5F48",
"k.	c #617B57",
"l.	c #718669",
"m.	c #172511",
"n.	c #2B4022",
"o.	c #3A4E31",
"p.	c #425739",
"q.	c #394932",
"r.	c #030701",
"s.	c #050903",
"t.	c #213119",
"u.	c #090D07",
"v.	c #1E2A18",
"w.	c #435B37",
"x.	c #3E4F36",
"y.	c #415239",
"z.	c #46573E",
"A.	c #4C5D44",
"B.	c #1A2315",
"C.	c #36492C",
"D.	c #4C653E",
"E.	c #313E2A",
"F.	c #314227",
"G.	c #34452A",
"H.	c #11160E",
"I.	c #4A5C3F",
"J.	c #54624C",
"K.	c #141A10",
"L.	c #566F46",
"M.	c #1E241A",
"N.	c #46523E",
"O.	c #46573A",
"P.	c #3B4B2E",
"Q.	c #495C3A",
"R.	c #3F4F32",
"S.	c #232C1C",
"T.	c #414C38",
"U.	c #4C5743",
"V.	c #242F1A",
"W.	c #28341E",
"X.	c #2E3B23",
"Y.	c #2B3721",
"Z.	c #181E13",
"`.	c #5C6B4F",
" +	c #3B4433",
".+	c #313E25",
"++	c #435235",
"@+	c #536245",
"#+	c #030501",
"$+	c #425331",
"%+	c #4F5F3F",
"&+	c #576648",
"*+	c #060705",
"=+	c #282D23",
"-+	c #67735A",
";+	c #0A0B09",
">+	c #373B33",
",+	c #3A452D",
"'+	c #465139",
")+	c #515B46",
"!+	c #5A6350",
"~+	c #364128",
"{+	c #3F4A31",
"]+	c #38412B",
"^+	c #4B543D",
"/+	c #363F25",
"(+	c #050603",
"_+	c #4A5534",
":+	c #666862",
"<+	c #10120B",
"[+	c #1E1F1A",
"}+	c #434630",
"|+	c #474938",
"1+	c #8C8E7D",
"2+	c #030301",
"3+	c #0A0A07",
"4+	c #17160F",
"5+	c #33322A",
"6+	c #25241E",
"7+	c #2D2A21",
"8+	c #44423D",
"9+	c #13110D",
"0+	c #312D25",
"a+	c #595246",
"b+	c #1E1A14",
"c+	c #0F0D0A",
"d+	c #494135",
"e+	c #50493F",
"f+	c #251F17",
"g+	c #3B352D",
"h+	c #403528",
"i+	c #2D261D",
"j+	c #372D22",
"k+	c #32291F",
"l+	c #4D3F30",
"m+	c #43372A",
"n+	c #282119",
"o+	c #2A231B",
"p+	c #090705",
"q+	c #63503D",
"r+	c #574736",
"s+	c #473A2D",
"t+	c #3C3126",
"u+	c #16120E",
"v+	c #1C1712",
"w+	c #221C16",
"x+	c #120F0C",
"y+	c #7C6854",
"z+	c #191511",
"A+	c #6A5A49",
"B+	c #0D0B09",
"C+	c #261F19",
"D+	c #16100C",
"E+	c #050303",
"F+	c #030303",
"G+	c #010101",
"G+G+...... .B B i  . .{ 2 : 3 3 3 3 3 3 3 3 3 3 3 3 3 3 3 3 3 3 3 3 3 3 3 3 : 4 { ` h { _ _ { > > | | | | | B G+G+G+G+G+G+G+G+G+G++.+.+.G+G+..i B ` ...... . . .+.+.G+G+G+G+ .+.G++.+.G+G+....+.G++.G++.+.+...+.G+G+G+G+G+G+G+G+G+G+G+G+G++...i B h h ..G+G+G+G++.+.+.",
"G+G++.+.G+G++.G+G+G+> 1 : 3 3 3 3 3 3 3 3 3 3 3 3 3 3 3 3 3 3 3 3 3 3 3 3 : 2 { B B  .B { _ _ { h > > > > h ..G+G+G+G+G+G+G+G+G+G+G++.+.G+G++... . ...+.+.+...+.+.+.G+G+G+G++.+.G++.+.G++.+.+.+.+.+.+.G++.+.+.+.+.G+G+G+G+G++.G+G+G+G+G+G+..`  ...h h ) G+G+G+G+G+G+G+",
"G+G+G+G+G+G+G+G+G+* 6 : 2 2 3 2 2 3 3 3 3 3 3 3 3 3 3 3 3 3 3 3 3 3 3 3 : 2 { G++.+.+.G++.> _ _ { 0 i B B  .G+G+G+G+G+G+G+G++.G+G+G++.+.+.G+G++.+.+.+.G+G++.+.+.+.+.G+G+G+G+G+G+G+G+G+G++.+.G++.+.+.+.G+G++.+.G++.G+G++.+.+...+.+.G+G++.i ` i +.+.B h ) G+G+G+G+G+G+G+",
"G+G+G+G+G+G+G+G++._ 3 3 2 3 2 2 2 3 3 3 3 3 3 3 3 3 3 3 3 3 3 3 3 3 3 3 2 _ G+G+G+G+G+G+G+G+h { _ { h .. .+.G+G+G+G+G+G+G+G++.G+G+G++.+.+.G+G+G++.+.G+G+G+G+G+G++.+.G+G+G+G+G+G+G+G+G+G++.+.+.G++.+.+.G+G+G+G+G+G++.+... . .+... . . .B B B ..G++.h h ) G+G+G+G+G+G+G+",
"G+G+G+G+G+G+G+c+4+M.S.=+:+1+}+7+6+o+6+[+t+l+i+0+m+h+l+s+a.l+k+k+j+i+o+i+i+z++.G+G+G++.+...+.+.0 { _ { h +.G+G+G+G+G+G+G+G+G+G+G+G+G+G+G+G+G+G+G+G+G+G+G+G+G+G+G+G+G+G+G+G+G+G+G+G+G+G+G+G+..+.G+G+G+G+G+G+G+G+G++.G+..i B ) +.+.` B B B B B ..+...h > i G+G+G+G+G+G+G+",
"G++.+.G+G+p+b+f+o+h+l+l+1+y+A+a+:+:+:+:+a.:+:+:+:+:+:+:+:+!+a+e+s+j+i+n+w+f+w+G+G+ .B ` B B ` ` h { _ _ > +.G+G+G++.G+G+G+G+G+G+G+G+G+G+G+G+G+G+G+G+G+G+G+G+G+G+G+G+G+G+G+G+G+G+G+G+G+G+G+..+.G+G+G+G+G+G+G+G+G+G+G++.B B i G+G+G++...i  .+.+... .> | i G+G+G+G+G+G+G+",
"G++.+.G+G+o+h+j+j+A+1+b.& = & & } & & & = $ $ $ $ $ $ $ $ = & & a.a.:+a+5+f+n+* +.` B B B B B ` B h { _ _ | * G+G+ . .+.G+G+G+G+G+G+G+G+G++.+.G+G+G+G+G+G+G+G+G+G+G+G+G+G+G+G+G+G+G+G+G+G++.G+G+G+G+G+G+G+G+G+G+G++...` h B +.G+G+G++.+.+.+... .i > | i G+G+G+G+G+G+G+",
"G++.+.G+G+9+j+k+j+e+:+$ $ = $ $ $ % % % % % % % % % % % % $ $ = $ $ $ , d+i+o+w+i+b+u+b+t+t+h+m+d+t+s+s+s+l+l+m+m+s+l+l+l+l+l+l+l+l+l+l+l+l+l+r+r+r+l+t+k+k+j+r+s+m+h+m+l+m+h+t+b+u+t+o+j+k+f+x+B+c+x+c+c+B+B+b+n+w+f+f+w+n+h+j+f+w+n+B++.+. .B B > | i G+G+G+G+G+G+G+",
"G++.G+G+G+%.v+o+t+j+7++ + g @ @ @ # # # # # # # # % $ $ $ $ , @ + + . 9+z+o+k+l+t+f+b+k+j+i+k+t+a+j+h+m+s+l+m+h+s+r+r+r+r+r+q+q+q+r+r+A+q+q+A+y+y+y+y+r+t+r+r+q+q+r+m+m+s+t+r+1+y+i+r+r+l+r+m+v+z+u+c+c+9+9+u+w+h+s+k+o+i+k+s+q+h+k+j+h+0+....B 0 > > i G+G+G+G+G+G+G+",
"G+G+G+G+) j w+i+h+r+m+n+w+v+x+'.~   . . . . . . . . .     ~ ~ u+z+D+x+w+n+i+l+t+n+n+n+n+n+t+t+h+h+h+t+h+l+r+s+s+l+r+q+q+q+q+q+q+q+r+q+q+q+q+A+A+A+A+y+y+r+q+A+y+a+q+q+r+r+r+q+y+r+m+r+q+r+d+q+l+k+n+v+z+v+b+w+n+n+m+h+n+t+l+r+r+m+k+k+j+s+s+v+..B > > i +.+.G+G+G+G+G+",
"G+G++.G+_ n o+j+l+s+n+f+w+v+D+c+B+p+p+(+E+9+3+p+3+p+E+E+3+3+B+B+3+x+u+b+v+u+b+x+x+u+u+z+v+z+v+b+b+b+v+v+b+f+b+v+b+n+o+o+o+n+o+o+n+i+i+o+C+f+o+f+w+n+k+t+i+f+n+s+0+k+o+w+v+o+0+w+v+b+b+o+o+v+f+n+b+b+v+9+Z.b+b+u+9+z+b+u+w+i+n+n+j+m+i+t+a+h+r+r+<+h h  .+...+.+.G+G+G+",
"+.+.) { 4 n v+C+o+*+G+) 0 ) +.* * ! ! $.#.) (++.+.) $.#.u.=.u.u.#.@.) +.) $.) ! ! ! #.#.*+) @.! ! #.u.#.s.) @.*+@...$.! $.+.+.+.! #.#.#.(+#.! #.0 0 ) ) @.#.#.) ) i 0 =.%.#.#.#.#.! ) ) ! #.#.#.%.%.%.H.H.<+%.u.u.u.u.#.* +.+.* u.b+n+j+r+m+q+A+r+d+%...+.+.+.+.G+G+G+",
"....> 6 3 6 u+z+$.G+(+%._ c %.u.%.H.[.[.[.K.K.K.Z.B.B.Z.B.v.B.v.t.t.m.m.Z.[.9.T T (.B.S.B.B.m.Z.K.Z.B.B.B.B.Z.Z.B.v.v.[.K.K.H.<+H.K.Z.B.B.Z.K T v.T Z.Z.Z.K.B.(.Z.K B.K j T b j K [.B.K.Z.Z.H.H.Z.Z.T 9.{.T Z.Z.Z.Z.H.<+=.u.u.#.#.u.<+f+j+h+l+y+r+r+q+v++.+.+.+.+.+.+.",
"...._ 3 2 6 u+z+(+* ;+<+K v.S.Y.f.Y.6.f.9.E.V.Y..+X.V.B.v.t.v.t.t.W.W.{.v.W.h.h.G.C.G.X.V.W.W.W.W.V.W.W.V.6.G.W.X./+V.t.V.Y.S.W.W.W.W.V.W..+Y.P W.{.[.[.t.g.W.W.g.6.W W D D D D D W 6.n.g.g.P W.(.[.{.g.P P Y.S.v.v.v.B.Z.H.H.<+u.3+u.#.x+i+s+q+q+r+h+m+s+p++.+.+.+.+.",
"G+> 1 3 2 6 9+z+*+$.u.%.K.v.v.t.v.T W.t.t.v.K.m.m.t.m.m.(.t.t.t.t.t.v.n.W.F.p.2.h.h.p.P.W.Y.~+.+.+X.V.W.X.X.F.X.X.X..+.+.+P.~+~+,+]+/+,+C.o.6.6.X.g.W W P G.1.g.g.4.D W *.G &.A >.D ].n.g.1.C.1.W W g.g.E.6.q.G..+X.X.E.W.S.S.B.K.K.<+#.(+! 9+t+r+s+j+t+q+q++.+.+.+.+.",
"* j 3 2 2 6 c+9+#.$.=.K.K B.W._.g.g.g.W.W.g.4.{.t.g.n.D C ).n.{.4.1.g.n.F.}.h.h.C.F.R.{+/+Y..+{+X.W.W.V.Y.Y..+F.2.R.Y.W..+X.W.Y.Y..+~+.+F.G.C.].G.D l l *.o.X *.}.6.p D A 8 8 9 p p 6.q._.5.h._.l l p G.].].G.F..+.+E.X.Y.V.W.Y.v.Z.v.v.K.3+(+) <+j+s+q+q+y++.+.+.+.+.",
"{ 2 2 2 2 6 x+u+u.$.%.K W 1.o.h._.4.G.F.C.O o ).n.4.).J H 4.g.g.C.c.n.n..+.+C.F.F.C.I.Q._+_+~+P.o..+F.Y.v.X.X.2.w.C..+Y..+.+Y.X.X.X..+X..+x.O H _.O x /.X H G ,.F ~.*.A v H J O v L <.F ,.G H ).U /.v h.v H h.C.W.F.X.X.X.Y.X.F.W.X.X.F.X.B.=.*+..* n+y+a+s++.+.+.+.+.",
"6 3 2 2 2 6 9+x+#.*+H.Z.g.G :.C.G.1.c.}.P.o.O 4.4.O J G X *.X n.g.g.g.n.X.F.5._.o.h.D.D.Q.Q.I.++G.C.d.C.V.W..+C.,+P.~+]+P.q.]+x.C.&.&.o._.:.J J *.A }.{+].:.I.z.3./.~.x y v X y 8 A J.V ^.p.:._.R.x.G L Z 9 Z 2.6.2.&.o.q.,+]+q.]+~+P.{+~+W.B.<+u.! b+y+1+A++.+...+.G+",
"2 2 2 2 2 6 u+u+=.#.K.Z.Y.z.I.o.C.C.C.F.Y.c.O O 4.:.8 X ++o.F.1.n.n.g.g.Y..+2.h.C.C.G.5.5.P.++,+.+G.p.$+Y.W./+/+Y.Y.X.Y.S.V.X.~+,+I.p.q.q.Z 8 F &.8 J L 0.8.^+i.y.@+U.F E G *.z z A.@+O.i.++-+e.A v 9 F ,.8 9 x.q.p.I.i.]+.+W.S.Y.X.X.W..+/+W.v.Z.u.n+y+y+y+G++.`  .G+",
"2 2 2 2 2 6 x+u+3+=.B.Y.y.o.1.n.1.n.F..+C.J J C ).Y U O..+Y.W.g.Y.t.g.X.X.F.p.++G.C.c.G.P._+P./+R.0.D.G.X.W.,+++C..+,+C.G.G.X.E.y.N.z.;.f.-.x ^.&.z z U D.$+E.R.x.i.x.d.e.&.L 7.0.y.i.x.x.E.R.D.0.z z Z y.F G X.>.y.'+N.,+X.~+F.C.{+~+G.++{+X.Y.V.Z.7+y+y+y+G++.B ` +.",
"|+U.|+>+=+M.z+v+3+=.T q.p..+n.).H O h.2.2.z :.o o 2.p.$+X..+.+W.W.g.g.g.g.F.R.{+G.R.h.5.R.Q.d.$+]+@+Q.W.G.F.P.y.o.R.P.{+h.C.,+P.,+{+{+ +,+x.N.^.:.Y p.o.4.6.-.y.x.,.F L 5.I.:.2.X ,.U p.x.-.>.F.c.x.J 0.&.<.y.,+]+ +{+,+,+]+C.h.R.,+P.o.y.R.,+P.W.B.0+A+y+y+G++.` ` G+",
"a+e+a+g+C+v+j+m+[+u.Z.Y.F..+P.J d H ).J p.D.6.O F.X.$+w.G.Y.F.g.Y.O C C._.F.~+X.P.X 2.Z 2.w.p.P..+X.~+~+++G..+++I.p.R.p.o.G..+X.{+{+E.x.R..+E.X C.:.^.^.>.i.X *.*.^.,.-.*.;.Q *.*.G d.;.*.*.;.6.p.-.&.}.}.q..+P.x.]+,+R..+X.~+P.p.++O.2.O./+E.h./+M.7+y+y+A+G++. ...G+",
"A+e+d+0+6+z+h+l+z+=.[.P c.].5.y d o o J h.++C.5.H F.P.D.G..+P.1..+).).P.o.Q.w I w w w w w w w w E q./+I.I.w I Y I.I.++p.y.F./+]+{+q.P.{+z.A *.u w E ;.&.].W 6.}.E w w z }.L A *.i.p.E w w X W 6.L *.}.*.G ].l ^.++P.,+{+,+~+G.R.z.R.Q.I.I.]+R.O.O.B.o+A+A+q+G+G++.G+G+",
"A+a+d+0+b+u+k+h+z+%.b P P q.&.o d o J L.O.R.P.2.d O P.o.F.F.C.F.~+c.c.h.F..+m m m m m m m m m m m R ~+P.{+m m z I.++++'+x./+{+++{+y.y.O.^+<.I m m m ' -.6.Q >.Q L u m m z A A -.}.E m m Y >.>.6.;.F G x.&.*.;.'+^+x.y.R.{+{+]+{+O.++++z.O.'+d.R.,+Z.o+q+q+q+G+G+G+G+G+",
"A+a+d+5+v+z+t+r+4+=.K 6 P ].o.:.&.2.w.$+P.++P.C.o.C.R.2.h.F.o.F.X.h.{+F.4.V.m m I Z 2.2.&.^.0.f m u U.}+%+m m z p.p.Q.i.G.,+,+Q.&.I.T.O.I.,.m m w m f }.].>.Q *.L L u m m z l &.Y m m z *.Q >.Q q.A G 2.&.Z G I.z.y.O.^.Q.{+,+G.q.O.O.x.{+z.:.&+,+S.7+q+q+q+G+G+G+G+G+",
"A+y+a+0+6+u+h+i+x+#.e {.9.6.q.d.d.p.w.R.G.R.R.$+J 5.R.:.c.F.C.G.C.~+W.X.G.W.m m E p./+{+'+'+'+u m w y.q.{+m m E -.7.7.0.y.R.'+%+d.z.'+{+z.u m I :.m m Y i.>.;.;.-.*.2.f m q z z m m z L ;.*.Q ].6.i.x.^.*.;.j.d.y.'+'+d.@+^+++T.j.7.e.A.A.^+~+{+,+T 7+q+r+r+G+G+G+G+G+",
"a+y+A+s+[+u+k+8+=+! H.T T >.p.^.I.Q.Q.++G.G.o.$+D.R.w.).1.P.C.F.P.2.c.P.o.R.m m I k.0.7.0.0.:.u m w y.I.-+m m M S !.|.e.d.z.++O.h.C.p.z.U m f ,.A.I m q 2.Q q.h.;.].*.F q m q q m E ].].*.i.Q }.z.A.z.z.^.T.T.z.z.z.q.h.y.++++I.0.R !.M S b.l.a.I.9.i+q+r+l+G+G+G+G+G+",
"e+a+A+d+6+u+j+d+[+*+%.Z.v.q.6.o.h.$+$+R.$+R.$+G _.G.D.y -.P.2.1.G.5.F.G.O.I.m m m m m m m m m m m I -+-+-+m m E U k.k._.2.y.++^+&.L 0.0.f m E z.j.x m m E 6.E.q.X l &.L z q m m I A X X ].E.6.}.q.i.,.0.z.z.z.:.,.e.2.:.I.|+T.2.c.Z 8.Y j.3.a.-+e. +0+r+r+r+G+G+G+G+G+",
"A+a+d+d+6+B+t+h+u+*+%.H.v.E.W.X.R.P.Q.Y w.&+++J 2.P.p.Z {+o.p.6.P.2.G.P.++2.m m f w u w w u u u I )+j.O.i.m m E Y L.D.J J 0.^+7.Z A &+E m m V V V x I m m G *.p.A 9 x x ' u m m x U 9 v 2.2.L -.<.<.^.0.0.)+I.j.z.0.^.Z U I.J.Y Y D.L.Y G 5.C.q.x.f.7+l+l+s+G+G+G+G+G+",
"A+|+5+6+b+[+h+t+9+;+<+Z.v.v.9.P.P.P.Q.D.C.p.++@+@+$+p.2.,+p.&.6.C.h.G.G.{+I.m m V J./.)+N.&+`.J.]+X.P.&.,.m m u E 8.k.&.I E U z z U d.q m m m m m m m m m u A 2.L 8 G &.E / m m F ^.8 v h.A v G -.L <.y.F 3./.A.'+z.F 8 Y U z I Z 7.8.E I R e.0.^.S.w+s+s+t+G+G+G+G+G+",
"y+a+g+[+0+6+j+j+9+u.K.K.H.=.B.C.z.++O.P.G.C.P.P.++O.R.C.{+p.8 *.R.o.o.,+j.z.m m R I.J.O.,+/+y.0.0.p.0.V V m m w R 8.w Z 8.w 8 z 8 ' I m q u w w w w w u m m 8 _.A 8 &.^.d.w m m ^.^.9 v o.O z Y G A l *.^.^.e.%+,+N.E ' z 8 < I Z I |.E V ,.R V /.6.6+s+l+s+G+G+G++.G+",
"A+e+8+>+>+[+k+s+v+=.B.e K n H.M.x.++C._+Q.p.P.P.R.P.2.d.R.v < G '+w.w.x.'+z.m m I @+]+R.}+^+U 7.k.,.e.3.V m m m m m m m m m m I U V m m w V U.A.G 8 8 z f m f 2.A 8 J Z U w m m Z F 9 v *.Z Z U z 9 ' F ,.~.e.s 0.J./.3.x ' / 8.I N l.R s x a.a.J.E.7+l+r+s++.+.+.G++.",
":+1+a.>+>+Z.k+l+b+%.9.6 W C j S.R.p.P.O.I.O.Q.Y 7.J y A.q.Y d /.U.2.:.p.++o.m m z %+p.++^+@+F 7.&+^+%+0.A.m m m m m m m m m m I -+u m u } R /.} - / / 9 z m m I 9 8 E Y Z E m m U z 8 9 F ,.-.-.v - / - 7 a./.} R 3.J.a.!+I I I 8.I 8.J.x 0.J.A.z.f.6+l+l+m+`  .+...+.",
":+!+8+5+[+9+i+k+<+e P p X Z J {+o.h.Q.O.++'+7.u l.u d I.d.!.S M J.e.e.O.z.0.w ^ A.I.Y y.)+/.x &+&+'+{+J.)+J.0.0.)+)+3.z e.8.`.I.++^+U./.x /.!+V ^ [ a w y.,.,.^.' ' 7.0.X G x *.:.7.9 ' G ^.F y.z a a < V !+/./.e.J.'+'+N.`.k.8.V /.)+J.,.U !+)+j.9.f+m+m+t+ . .+...+.",
"6+[+b+9+B+;+i+k+H.~ g L U /.s L.C.o.@+%+^+z.e.8.-+8.d 2.a.M 1+3.J.b.S M J.&+|.R `.0.,.T.'+k./.N.J.J.y.T.'+j.3.3.)+J.)+E e.0.U.-+@+)+A.7.`.x s 3.E k r u j.R E I.z ] ^ J C A 0.C O E ] ' I.F s 0.E m k I 3.R V `.k.A.)+)+-+@+j.V R 3.J.U.0.3.3.N.T.9.6+m+t+t+ . .....+.",
"e e e c | M.t+m+z+;+9.E.L /./.@+O 5.R.w.h.%+`.|.!.I ] 2.~+V.,+)+z.i.T.U.-+|.|.l.`.V U '+@+@+J.U.!+a+^+I.y.U.@+^.A.U.^+V 7.T.!+l.l.J.J.e.a.a.7 R s s s V /.R R V < ] Z G 9 9 9 9 v &.d ] E V R /./.s I s R } b.a.k.J.j.a.!.3.^+A.R )+N.U.j.j.J.T.i.f.b+j+h+s+`  .....+.",
"4 1 1 4 4 5 s+t+u+%.Z.M.t a.R q.H J Q.8.Y '+k.l.e.Y z Q.P.X.W.]+F.F.F.P.%+-+b.!+@+k.0.^+&+-+a+^+)+e+|+0.j.,.R U J.^+J.)+/.R /.|.|.A.U.`.l.R s } } } } s /.3.U /.8 o d.T.8 d 8 < L z.y d /.3.7.3.R } s } } } R l./.U.U.V !.a.a.8.)+J.^+)+U U 7.j.N.M.v+s+j+h+ . .....+.",
"1 1 1 1 1 4 r+l+9+~ Z.e <.a.e.E.H o %+`.^.`.8.s `.k.e.Q.I.Q.]+.+I.L.L.%+Q.`.1+1+k.^ E k.k.-+:+|+^+!+!+/././.R V U.)+j.U.j.N.d.,./.-+3.j./.s s 7 } a.-+s } b.V j.8 < 7.A.< < 8 ] F @+d d G 3.l.b.s /.a.s 7 } s a.j.3./.a.0.,.I.A.U.j.)+U.U R e.V U.6+v+m+s+h+ . .....+.",
"1 1 1 4 1 1 s+m+x+~ j b , -+y.,+d u %+A.i.y.:.Z e.@+`.R.R.I.R.P.O.e.D.@+-+!.-+e.-+f I k.e.e.l.s V &+)+k.R V R /.A.&+'+U.j.,./.j.U.0.R ^.j.a.u } s R V V a.J.T.U.^ ^ 7.J ] < ' ; 8 0.E - J.T.)+a.8.e.V s s / l.3.-././.A.A.e.F j.)+'+@+J.0.w /.R 0.M.v+j+t+j+ ...+.+.+.",
"1 1 1 1 1 1 i+k+c+~ b P U.k.q.E.Z z -+p.S.n.H ).I.d.%+w.w.`.`.L.&+b.S b.!.S S M R w 8.k.e.l.-+!.R `.'+L.Y |.u E :.)+}+@+J.V V 3.A.~.A.F E R 7 s /.R E z }.^.^.j.' ^ Y F ^ ^ ' - z 7.8 ^ 3.N.,.x.U V R V R 7 s V x ^.U.~.0./.V )+@+|+^+:.E u !.7.2.M.z+w+o+n++.+.+.+.G+",
"1 1 1 1 1 1 i+o+B+'.9.g z.A.q.f.p.4.X p.S.1.H 2.h.Z %+k.L.%+&+M ( a.-+J.J.N.e.!.r ] u !.|.!.a.!+l.|.l.O.:.e.-+s Z &+}+@+`./.!+/.J.U.,.V V R s s k.Y z 0.U.!+U.,.^ - U 9 ^ ' ' d 8 F ^ - U z.0.)+j./.z k.s } R /.x F U.J.3.`.!+3.`.^+&+0.E l.3.:.q.6+M.b+w+w+G+G+G+G+G+",
"1 1 1 1 1 1 b+w+B+;+T g 6.=+B.Z.W.Y.1.].9.V.o.p.2.J &+L.D.P.y.}+}+F.g.W.C.P.,+%+M ( r r M !.b./.l.e.-+}+O.,.`.|.z J.J.~.!+3.U.U.~.a.l.V V R s R 8.z x /.J.U.T.,.8 = U 8 ^ 8 9 ' ' U x ' F T.N.J.e.= z 8.a.s R V V /.l.)+N.U.J.`././.`.E 7 l.e.7.~+=+[+b+v+v+G+G+G+G+G+",
"1 1 1 1 1 1 b+b+3+;+Z.T 9.Z.%.H.v.g.W.Y.S.].v F.O ] :.e.e.Q.Q.5.G.p.`.A.y.d.a.!.M S M N S !.-+a.x !+!+U.!+J.0.l.F z.j.^.E = ~.j.R V R } / u E U F x = z j.-.G e.9 V e.E - 8 9 < ^ x /.9 U Z -.z.x = = F F E u f 7 } R R V J./.u |.R e.E !.8.l.l.T.=+6+b+w+w+G+G+G+G+G+",
"1 1 1 1 1 1 b+z+3+=.~ '.%.%.H.Z.v.t.m.v.W.X O t.W.7.I.d.++x./.V 7.7.a.a.!+/.!.S M l.l.l.R !.l.:+<.,+|+ +!+T.=+ +<.>.>.>.A F ~.<.F -.;.= ' 9 L >.l ' s ^ 9 ^.&.)+F Z J.x 9 v G 9 x V 7.9 )+d.X G 8 R - 9 G z / ; [ s w N R -+s u 8.I l.l.a.@+a.b. +=+7+b+w+k+G+G+G+G+G+",
"1 1 1 1 1 1 f+w+3+#.~ %.u.H.B.v.{.{.B.S.Y.4.O 1.V.g.G.F.g.t.j.S ( !.M S !.b././.j.~.i. +l  +'+, 9.Z.B.=+M.B.K.M.9.f.g f.=+t  +>+f.9.P g D D g P l 9 V = F ~.-.i.;.>.i.~.A v v l t <.i.-.T.<.^.F = 3.= ^ z E / [ 7 I |.l.3.U.x J.)+V V `.`.++d. +=+Z.n+s+j+k+G+G+G+G+G+",
"1 1 1 1 1 1 i+i+x+* =.H.H.%.%.%.[.K.[.M.M.K n v.K.[.S.S.{.(.S.)+)+U.e.R M M 7 M 7 } = ~.g T T M.H.=.<+H.3+u.'.'.%.~ M.M.K.M.6+M.M.T b b T T j T b f.f.g >+f.g 9.9.f.=+=+Q l D b Z.M.9.P f.g f.f.g g t ~.A l F F L l -.N. +5+>+5+,+A -.E.9.W.W.B.H.%.7+r+l+s+G+G+G+G+G+",
"1 1 1 1 1 1 w+w+b+x+(+*+#.;+;+#.#.#.=.%.u.*+*+! $.#.#.*+#.! $.....s.<+<+[+=+[+6+[+'.'.*+G+* * (+$.+.$.$.* +.G+G+* (+=.3+! *+*+*+;+'.~ ~ %.=.%.=.3+;+;+%.e Z.H.#.#.#.;+'.e e '.c =.;+;+;+%.~ ~ '.'.~ '.'.~ e e e e e ~ '.'.'.%.;+;+~ '.#.s.@.! * G+* i+l+m+s+..+.+.+.G+",
"1 1 1 1 1 6 C+v+i+k+z+x+9+9+9+9+x+c+9+x+u+9+z+v+9+x+c+B+B+B+3+3+c+c+3+*+(+2+E+2+E+p+*+3+B+B+B+3+p+*+(+*+p+$.$.p++.p+*+E+E+G+G+p+B+*+x+3+p+p+p+p+p+*+(+*+3+3+p+3+3+3+B+3+3+B+B+B+c+x+x+x+x+x+9+x+9+9+z+v+u+u+x+x+x+c+c+c+c+c+c+x+c+c+x+u+v+w+b+b+z+b+j+m+s+l+i  ...+.+.",
"1 1 1 1 1 f.5+C+n+k+w+v+u+u+v+v+v+b+w+b+n+n+i+o+o+b+v+u+u+u+9+u+b+C+v+u+B+x+4+x+9+u+z+b+z+z+4+x+B+B+B+p+3+p+B+9+*+x+B+3+p+G+p+v+u+x+v+x+9+c+x+x+c+B+3+c+9+9+9+u+u+u+9+u+z+z+v+v+v+b+b+w+w+w+b+b+b+b+w+n+o+n+f+w+w+w+w+w+w+f+f+o+n+i+k+j+j+s+m+s+h+l+l+s+s+l+......+.+.",
"1 1 1 1 1 e+g+0+f+z+z+b+v+f+C+C+k+f+b+C+o+i+o+d+A+u+b+z+o+w+u+w+i+n+C+v+u+z+b+b+b+b+w+b+z+4+9+B+c+3+3+3+3+3+B+B+B+B+B+B+p+E+x+u+B+c+u+x+x+x+c+B+B+B+x+9+x+9+x+x+x+x+9+u+9+u+u+4+u+u+z+v+b+w+v+z+v+v+z+v+v+v+b+w+i+f+f+b+w+n+w+n+n+o+n+k+t+m+j+m+t+s+r+s+m+s++.+.+.+.+.",
"1 1 1 1 ].y+a+m+7+z+u+o+f+o+k+k+k+o+o+j+r+s+t+l+k+j+k+b+k+n+w+f+n+C+o+9+w+o+o+w+b+w+w+b+v+z+9+b+w+B+c+B+c+c+B+3+B+B+3+3+B+c+c+c+x+9+B+c+c+c+B+B+B+c+u+u+c+9+x+x+c+x+9+9+x+x+u+u+u+u+u+4+v+v+v+z+z+z+4+v+z+u+b+b+n+f+n+b+b+b+w+n+o+i+o+o+k+j+m+s+j+t+m+s+h+j+i  .....+.",
"K j T n  +a+a+e+6+x+p+G+$.2+E+(+$.(+*+*+3+3+u.#.s.u.#.s.#.s.@.(+$.(+*+* $.(+(+$.2+$.$.$.$.$.* 2+) 0 h 0 0 0 i B 0 0 B i ) 0 | | > h  .) * * +...* * * * * * * * +.* * ) i * * * * * i h B * * * * * * 2+* 2+2+2+2+2+2+2+2+2+2+$.E+*+s.(+$.E+p+p+*+s.u.u.u.> B B `  .+.",
"g+7+v+g+d+g+i+6+9+(+G+G+G+G+G+G+G+G+G+G+G+G+....+................. .` i ....+.G+G+G+G++.+.G+G+G+..h > B B B i i B B ........h > h ` +.G+G+G++.+.+.+.G+G+G+G++.+.G+G+G++.G+G+G+G+G++.+. .+.G+G+G+G+G+G+G+G+G++.+.+.+.G+G+G+G+G+G+G++.+.G+G+G+G++.+.....i i  .i i ....+.",
"6+z+x+6+i+9+{ G+E+G+G+G+G+G+G+G+G+G+G+G+G+G++.+.G++.+.+.+. .i i ` B B B B ..+.G+G+G+G+G++.G+G+G+..> > B i i i 0 0 B ..+.G+G+i B ` ..+.+.+.+.+.+.G+G+G+G+G+G+..+.G+G+G+G+G+G+G+G++.+.+.+.G+G++.G+G+G++.G+G+G+ .` B ..+...G+G+G+G++.+.G+G+G+G++.+...+.+...i ....+.+.+.+.",
"H.~ '.[+e _ > G+G+G+G++...+.+.G+G+G+G+G+G+G++.G+G++.+.+.+......... .......+.G++.G+G+G+G++.G+G+G+..h > B i i 0 h h B ` ..G+G++. .+.+.....+...+.G+G+G+G+G+G+G+..+.G+G+G+G+G+G+G++.+.G+G++.G+G+G++.G+G+G++.+...` B B ..+...+.G+G++.G+G+G+G+G+G++.+.............+.+.+.G+G+",
"1 1 1 1 4 j ..+.+.G++.` `  .+.+.+.G+G+G+G+G+G+G+G++.+.+.+.+.+.+.+.G+G+G+G+G+G+G+G+G+G+G+G+G+G+G+..h > i ..i h h B ..+.+.G+G+G++.G+G++.i ..+.+.G+G+G+G+G+G++...+.G+G+G+G+G+G+G+G+G+G+G+G+G+G+G+G+G+G+G+G+G+G+ .i  .+.G++.G+G+G+G+G+G+G+G+G+G++.+.+.......+.G+G+G+G+G+G+",
"1 1 1 1 1 { G++...+...` ` ..G+....G+G+G+G+G+G+G+G++.+.+.+...+.+.G+G+G+G+G+G+G+G+G+G+G+G+G+G+G+G++.h h i B B B i +.G+G+G+G+G+G+G+G+G+G++...+.+.+.G+G+G+G+G++.+.G+G+G+G+G+G+G+G+G+G+G+G+G+G+G+G+G+G+G+G+G+G+G+G+G+G+G+G+G+G+G+G+G+G+G+G+G+G++.+.+.+...) ..G+G+G+G+G+G+G+",
"1 1 1 1 6 ! G++.+.+. .....+.G+G++.G+G+G+G+G+G+G+G++.+.+.+.....+.G+G+G+G+G+G+G+G+G+G+G+G+G+G+G+G++.B h i B B ..G+G+G+G+G+G+G+G+G+G+G+G+G+G++.+.+.+.G+G+G+G+G++.G+G+G+G+G+G+G+G+G+G+G+G+G+G+G+G+G+G+G+G+G+G+G+G+G+G+G+G+G+G+G+G+G+G+G+G+G+G++.+.....) ) ..G+G+G+G+G+G+G+"};
