/* XPM */
static const char * fs2_btn_volition_click_xpm[] = {
"90 108 256 2",
"  	c #7A7B7B",
". 	c #F5F6F6",
"+ 	c #E8E9E9",
"@ 	c #BABBBB",
"# 	c #0B0F0E",
"$ 	c #1E3329",
"% 	c #092115",
"& 	c #727473",
"* 	c #929493",
"= 	c #081F13",
"- 	c #0F261A",
"; 	c #07190F",
"> 	c #081C11",
", 	c #0D2116",
"' 	c #454E49",
") 	c #05130B",
"! 	c #121E17",
"~ 	c #18261E",
"{ 	c #1D2922",
"] 	c #121915",
"^ 	c #2C3831",
"/ 	c #434A46",
"( 	c #8B928E",
"_ 	c #25342B",
": 	c #34453B",
"< 	c #181D1A",
"[ 	c #575C59",
"} 	c #10301C",
"| 	c #14241A",
"1 	c #264130",
"2 	c #171F1A",
"3 	c #1A221D",
"4 	c #3C4E43",
"5 	c #1D2520",
"6 	c #4D5A52",
"7 	c #A6AEA9",
"8 	c #092212",
"9 	c #0F2E1A",
"0 	c #07150C",
"a 	c #12311D",
"b 	c #1D3B28",
"c 	c #152B1D",
"d 	c #1D3A27",
"e 	c #1B3123",
"f 	c #35493C",
"g 	c #384C3F",
"h 	c #3F5346",
"i 	c #4D6154",
"j 	c #495A4F",
"k 	c #54655A",
"l 	c #010D05",
"m 	c #173320",
"n 	c #18211B",
"o 	c #202923",
"p 	c #435549",
"q 	c #161C18",
"r 	c #46584C",
"s 	c #252E28",
"t 	c #131614",
"u 	c #66756B",
"v 	c #6D7C72",
"w 	c #3A403C",
"x 	c #1E211F",
"y 	c #636C66",
"z 	c #5C625E",
"A 	c #A3ACA6",
"B 	c #858B87",
"C 	c #A0A6A2",
"D 	c #9CA29E",
"E 	c #979D99",
"F 	c #ABB1AD",
"G 	c #676A68",
"H 	c #737674",
"I 	c #A3A6A4",
"J 	c #000A03",
"K 	c #031007",
"L 	c #0B2513",
"M 	c #0E2816",
"N 	c #0E2515",
"O 	c #102617",
"P 	c #2D4133",
"Q 	c #314537",
"R 	c #526257",
"S 	c #5D6D62",
"T 	c #858F88",
"U 	c #020904",
"V 	c #040B06",
"W 	c #293E2F",
"X 	c #101712",
"Y 	c #57685C",
"Z 	c #2C332E",
"` 	c #09200F",
" .	c #182E1E",
"..	c #233929",
"+.	c #8E9991",
"@.	c #081E0D",
"#.	c #020603",
"$.	c #0E2413",
"%.	c #060E08",
"&.	c #132B19",
"*.	c #203525",
"=.	c #0E1610",
"-.	c #151D17",
";.	c #0D110E",
">.	c #59695D",
",.	c #363E38",
"'.	c #212522",
").	c #232724",
"!.	c #7D8980",
"~.	c #2B2F2C",
"{.	c #767E78",
"].	c #7A827C",
"^.	c #3E423F",
"/.	c #434744",
"(.	c #535754",
"_.	c #616562",
":.	c #636764",
"<.	c #959996",
"[.	c #BCC0BD",
"}.	c #B7BBB8",
"|.	c #B5B9B6",
"1.	c #000902",
"2.	c #051709",
"3.	c #071E0C",
"4.	c #0C2311",
"5.	c #9EA7A0",
"6.	c #010602",
"7.	c #071B0B",
"8.	c #030804",
"9.	c #132917",
"0.	c #0B150D",
"a.	c #141915",
"b.	c #191E1A",
"c.	c #252A26",
"d.	c #323733",
"e.	c #353A36",
"f.	c #4D524E",
"g.	c #555A56",
"h.	c #5B605C",
"i.	c #757A76",
"j.	c #101611",
"k.	c #AFB5B0",
"l.	c #040B05",
"m.	c #0B120C",
"n.	c #000901",
"o.	c #020B03",
"p.	c #050D06",
"q.	c #09110A",
"r.	c #0D160E",
"s.	c #121A13",
"t.	c #000A01",
"u.	c #000600",
"v.	c #000400",
"w.	c #000200",
"x.	c #010501",
"y.	c #020802",
"z.	c #010301",
"A.	c #050805",
"B.	c #070B07",
"C.	c #060906",
"D.	c #040604",
"E.	c #020302",
"F.	c #080B08",
"G.	c #030403",
"H.	c #0A0D0A",
"I.	c #101410",
"J.	c #131713",
"K.	c #191D19",
"L.	c #0D0F0D",
"M.	c #070807",
"N.	c #171A17",
"O.	c #101210",
"P.	c #080908",
"Q.	c #1B1E1B",
"R.	c #1C1F1C",
"S.	c #141614",
"T.	c #0A0B0A",
"U.	c #282B28",
"V.	c #1B1D1B",
"W.	c #101110",
"X.	c #323532",
"Y.	c #3A3D3A",
"Z.	c #131413",
"`.	c #424542",
" +	c #2B2D2B",
".+	c #161716",
"++	c #525552",
"@+	c #343634",
"#+	c #1A1B1A",
"$+	c #191A19",
"%+	c #1C1D1C",
"&+	c #212221",
"*+	c #4A4C4A",
"=+	c #484A48",
"-+	c #252625",
";+	c #313231",
">+	c #2E2F2E",
",+	c #3D3E3D",
"'+	c #393A39",
")+	c #515251",
"!+	c #4E4F4E",
"~+	c #4C4D4C",
"{+	c #454645",
"]+	c #414241",
"^+	c #767776",
"/+	c #707170",
"(+	c #6B6C6B",
"_+	c #656665",
":+	c #616261",
"<+	c #5E5F5E",
"[+	c #5B5C5B",
"}+	c #585958",
"|+	c #555655",
"1+	c #F5F6F5",
"2+	c #E6E7E6",
"3+	c #E3E4E3",
"4+	c #E0E1E0",
"5+	c #DDDEDD",
"6+	c #D7D8D7",
"7+	c #D2D3D2",
"8+	c #C8C9C8",
"9+	c #C1C2C1",
"0+	c #B4B5B4",
"a+	c #A6A7A6",
"b+	c #9B9C9B",
"c+	c #8B8C8B",
"d+	c #868786",
"e+	c #848584",
"f+	c #838483",
"g+	c #808180",
"h+	c #FFFFFF",
"i+	c #FDFDFD",
"j+	c #FCFCFC",
"k+	c #FAFAFA",
"l+	c #F9F9F9",
"m+	c #F8F8F8",
"n+	c #F7F7F7",
"o+	c #F6F6F6",
"p+	c #F5F5F5",
"q+	c #F4F4F4",
"r+	c #F3F3F3",
"s+	c #F1F1F1",
"t+	c #ECECEC",
"u+	c #CFCFCF",
"v+	c #ABABAB",
"w+	c #A1A1A1",
"x+	c #373737",
"y+	c #2B2B2B",
"z+	c #282828",
"A+	c #191919",
"B+	c #131313",
"C+	c #0F0F0F",
"D+	c #0D0D0D",
"E+	c #070707",
"F+	c #040404",
"G+	c #000000",
"G+G+G+G+G+G+w.v.1.J 1.v.w.v.v.v.v.u.n.u.w.x.l.` 8 8 8 8 = = = = = = = = = = = = = 8 8 8 L L 8 p.z.w.N a } } } } } 9 8.v.n.u.G+G+G+G+w.G+w.w.w.u.n.u.n.n.n.n.t.t.n.u.v.w.w.w.w.u.n.u.",
"G+G+G+G+G+G+G+G+G+G+z.6.6.o.l K K ) 0 ; > > = = = = = = = = = = = 8 8 8 8 L L L L L L L L L L 7.w.G+8 } 9 9 9 9 9 9 V w.1.n.w.w.v.v.v.v.w.G+G+w.w.u.n.n.n.J J J 1.w.w.w.w.w.G+w.w.w.",
"G+G+G+w.#.#.V p.%.) 0 ; > = % % % % % % % = > ; > 8 8 8 8 L L L L L L L L L L L L L L L L L L L K G+> } 9 9 9 9 9 } ) w.J 1.v.v.v.v.v.v.v.G+G+G+G+v.u.x.x.x.u.x.v.w.w.w.w.w.w.G+G+w.",
") 0 ; ; > = = % % % = = = = > ; 0 ) K K K l y.6.K 4.L L L L L L L L L L L L L L L L L L L L L L ` 6.0 9 9 9 9 9 9 } > w.J J v.w.v.v.v.v.v.w.G+G+w.G+G+G+G+G+w.G+G+w.w.w.w.w.G+w.G+G+",
"% % % = = > ; ; 0 ) ) > ; l l l #.E.E.y.o.8.#.G.U ` M M M M M M M M M M M M M M M M M M M M M M M ; %.9 } } } a } a M 8.l.K #.#.#.#.#.#.E.E.E.#.#.z.w.w.w.z.z.w.G+w.w.w.w.w.G+G+G+G+",
") ) %.V U 8.G.w.w.E.%., % K %.%.B.E+M.%.%.F.F.F.F.0.&.&.&.&.&.&.&.&.&.&.&.&.&.&.&.&.&.&.&.&.&.&.&.9.r.c m m m m m m m m.q.q.F.F.F.F.F.B.M.E+M.B.C.D.F+D.G.E.z.z.z.z.v.v.u.u.u.v.u.w.",
"G+G+G+G+w.w.w.E.G.D.%., - r.0.r.;.L.O.j.j.I.I.I.j.I.| m m m m m m m m m m m m m m m m m m e m m m e c  .b d d d d d d -.X j.O.W.O.O.O.W.C+L.L.L.D+T.F.M.E+D.D.E.z.z.x.v.J l J n.t.u.",
"G+w.w.G+w.z.G.F+D.M.m.|  .! s.-.N.A+$+b.b.Q.Q.Q.Q.b.3 ..................................................1 1 1 1 1 1 1 $ 3 3 #+V.V.V.#+#+A+A+N..+Z.O.C+D+T.M.C.D.G.z.z.v.l l J n.J x.",
"G+w.w.z.w.E.D.E+P.T.;.~ $ { 3 5 '.'.-+c.s s U.U.c.-+-+Z Q P P P P P P P P P P P P P P P P P P P P Q P Q Q f f f f f f Q s s U.z+z+z+-+-+-+'.'.5 3 K..+B+C+T.P.E+F+G.z.z.u.n.u.u.u.w.",
"w.w.w.z.z.G.D.P.T.C+Z.{ W _ s ~.>+>+;+d.e.e.@+@+d.X.;+d.f g g g g g g g g g g g g g g g g g g g g g 4 4 h h h h h h h h : e.@+@+@+@+X.;+;+>+>+ +U.'.R.A+Z.W.D+P.E+F+E.z.w.v.w.v.w.w.",
"v.w.w.z.E.D.E+T.C+B+A+s Q P d.,.Y.,+]+`././.`./.`.]+]+]+/ r r r r r r r r r r r r r r r r r r r j j j j i i i i i i i i r /.]+]+]+]+]+]+,+,+'+x+;+>+z+&+#+S.W.D+P.D.E.w.w.v.v.v.v.w.",
"u.w.G+w.G.E+F.D+B+$+x ^ g 4 ^./ *+~+!+++(.(.++++++++)+)+++R Y k k k k k Y Y k k k k k k k k k Y Y >.>.>.S S S S S S S S >.(.)+)+)+)+)+)+!+~+=+{+,+'+;+z+&+#+Z.C+T.E+F+w.v.v.v.v.v.w.",
"u.w.G+w.F+E+T.W..+x z+e.p j f.++}+<+:+:.y G _+:.:._.:+:+:+:.u u u u u u u u u u u u u u u u u u u v v v v v v v v v v v v y _+_+_+:.:._.:+<+}+|+!+{+,+X.z+&+A+B+D+P.F+z.v.v.w.v.v.w.",
"u.w.G+w.F+P.L.Z.%+-+>+^.h+k+k+k+k+k+k+k+k+k+k+k+k+k+k+k+k+k+j+j+j+h+j+k+k+k+k+j+j+k+k+k+h+j+k+k+k+k+k+k+k+j+j+k+k+k+k+k+k+k+k+k+k+k+k+k+k+k+k+j+i+j+h+=+;+z+x .+W.T.D.E.w.v.w.w.G+G+",
"u.w.G+w.D.T.W.A+&+ +x+/.i+h+h+h+h+h+h+h+h+h+h+h+h+h+h+h+h+h+i+l+s+5+q+h+h+h+h+2+5+h+h+h+4+o+h+h+h+h+h+h+h+h+h+h+h+h+h+h+h+h+h+h+h+h+h+h+h+h+h+k+m+h+h+)+Y.>+&+$+B+H.E+E.G+w.G+w.G+G+",
"u.w.G+E.E+T.B+#+-+;+,+~+i+h+h+h+h+h+h+h+h+h+h+h+h+h+h+h+h+h+0+* <.+.9+h+h+h+h+k.+.q+h+h+I 4+h+h+h+h+h+h+j+}.k.l+h+h+h+h+h+h+h+h+h+h+h+h+h+h+h+8+  b+h+[ `.d.s R.Z.L.E+E.G+G+G+v.v.G+",
"u.w.G+E.E+D+Z.%+z+@+]+)+i+h+h+s+i+h+h+h+i+h+h+h+h+k+l+l+h+h+s+6+a+5.8+h+h+h+h+4+@ j+o+C 5.0+2+2+6++ h+h+h+8+}.l+h+h+h+i+k+j+h+h+h+h+i+h+l+r+l+k+3+3+h+z ' w Z 5 N.D+E+G.G+w.w.u.u.G+",
"v.w.G+E.E+D+.+x y+x+{+|+i+j+* e+w+u+i+8+}.8+7+h+6+a+w+w+0+m+h+h+h+A 7 h+h+t+6+5+h+h+s+5.A A A 7 F }.h+h+n+k+h+h+h+i+8+A 7 F 8+k+t+@ 9+u+w+<.E @ h+h+h+_.f.^.^ '..+L.E+G.w.w.w.u.u.G+",
"w.w.G+E.E+L..+x  +'+=+}+i+j+0+* b+v+h+I v+v+[.v+I I }.0+w+D 6+h+h+F A h+h+8+7 7 7 6+h+t+I A 9+8+6+3+h+t+F k.D h+h+|.F A [.F 7 0+k+a+I I a+F <.( p+h+h+:.f.^.^ '..+C+P.G.w.w.w.v.w.G+",
"w.w.G+E.E+L..+&+>+'+*+h.i+h+h+0+b+3+h+u+v+4+3+a+v+2+h+h+9+I a+h+h+v+b+h+h+h+2+C 7 6+h+h+D D j+h+h+h+h+j+8+k.C h+2+F 7 2+j+p+8+7 2+[.I |.j+h+7+<.p+h+h+:.f.^.Z '.A+W.P.G.w.w.w.w.w.w.",
"w.G+G+G.P.C+A+'.>+,+f.z i+h+h+r+b+w+h+v+0+h+6+a+7+h+h+h+j+w+b+h+h+a+* h+h+h+h+|.A 2+h+h+8+I o+h+h+h+h+h+k+A [.h+F 7 w+h+h+h+h+7 [.+ I |.h+h+l+w+o+h+h+:.f.^.;+&+A+W.F.D.z.w.w.G+w.w.",
"w.w.w.F+P.W.#+-+;+^.f.<+i+h+h+h+* w+@ w+2+h++ I w+h+h+h+u+D I h+h+0+0+h+h+h+h+9+5.+ h+h+8+C j+h+h+h+h+h+h+8+}.h+9+A <.h+h+h+7 A k.t+I 9+h+h+j+w+k+h+h+:.f.^.;+-+#+W.T.D.z.z.w.w.w.w.",
"w.w.w.D.T.B+%+z+@+]+++:+i+h+h+h+8+w+a+D h+h+k+b+w+a+0+0+b+b+8+s+6+w+w+6+3+4++ 8+E |.6+n+[.E k.7+9+D D o+t+D 7 6+j+E 5.|.u+[.5.D u+0+w+I o+n+F * w+j+h+_.)+]+X.-+%+B+T.D.E.z.z.w.w.v.",
"w.w.G.E+D+Z.x y+x+{+++_+i+h+h+h+h+a+I 6+h+h+h+h+8+b+b+b+@ 2+p+b+c+c+d+d+w+F +.( ( +.E 2+u+( ( ( ( +.}.[.+.+.+.+.7 5+7 E D D [.t+2+A a+w+u+5+<.* c+4+h+:+)+`.@+z+x S.D+E+G.z.z.w.w.v.",
"w.E.F+P.L..+&+>+'+=+}+_+i+h+h+h+h+h+t+h+h+h+h+h+h++ 9+s+h+h+h+t+8+4+m+o+i+j+2+u+4+. k+h+h++ 7+5+}.7+h+j+8+}.9+9+3+h+h+l+l+o+h+h+h++ l+k+h+h+s+l+l+h+h+_+|+=+'+ +&+.+C+P.F+E.w.w.w.w.",
"w.G.D.T.W.$+-+;+,+~+[+(+i+h+h+h+h+h+h+h+h+h+h+h+h+h+h+h+h+h+h+h+h+h+h+h+h+h+h+h+h+h+h+h+h+h+h+h+h+h+h+h+h+h+h+h+h+h+h+h+h+h+h+h+h+h+h+h+h+h+h+h+h+h+h+(+[+~+,+;+).#+I.T.D.G.w.w.w.w.",
"w.F+E+D+Z.%+z+@+`.)+:+/+h+<.b+w+I a+v+v+v+v+a+I w+b+b+* d+  & /+G _.<+[+}+}+|+h.Y >.>.>.>.>.>.>.>.S S y u u v v {.!.!.T ( +.+.E E D D D b+<.* ( c+f+h+/+:+)+]+@+U.R.S.L.M.D.E.w.w.w.",
"E.F+P.L..+&+ +'+=+}+_+^+h+b+b+I a+v+v+F F v+v+a+w+b+<.* d+g+^+/+_+<+}+|+)+~+=+*+j i i i i i i i i R k Y S y u v ].B ( +.E 5.A A F F k.k.k.7 I D <.( h+^+G [ =+Y.~.'..+C+F.D.E.w.w.w.",
"E.D.T.W.$+-+;+^.!+:+/+g+h+I I v+k.0+0+|.|.0+0+F v+I b+* c+f+^+(+:+}+!+=+{+]+,+'+w 4 h h h h h h h p j i R >.u v ].T +.E 5.A F k.|.}.}.}.}.|.F v+w+E h+g+/+:+)+]+;+-+#+O.T.H.> V w.w.",
"G.E+H.Z.%+U.@+*+h+h+h+h+h+h+h+h+h+h+h+h+h+h+h+h+h+h+h+h+i+c+  (+<+)+=+]+'+@+;+>+ +^ Q Q Q Q Q Q f g 4 p 6 k S v ].<.h+h+h+h+h+h+h+h+h+h+h+h+h+h+h+h+h+h+h+h+h+h.x+U.R.J.L., - ; x.G+",
"G.E+D+S.x  +'+{+3+h+h+h+h+h+h+h+h+h+h+h+h+h+h+h+h+h+h+h+h+s+& (+<+)+{+'+;+ +c.'.&+&+s W W W W W P Q f 4 r R S v !.0+h+h+h+h+h+h+h+h+h+h+h+h+h+h+h+h+h+h+h+h+h+g.Y.Z 5 -.! - , p.v.w.",
"G.M.L.S.x ~.Y.~+( h+h+h+h+h+h+h+h+h+h+h+h+h+h+h+h+h+h+h+h+h+f+/+:+)+`.x+>+-+x #+N..+q e *.*.*.*...W Q g p R S v {.r+h+h+h+h+h+h+h+h+h+h+h+h+h+h+h+h+h+h+h+h+@ !+,+Z '.~ c - 0 z.w.G+",
"U B.L.S.x >+,+!+_.h+h+h+h+h+h+h+h+h+h+h+h+h+h+h+h+h+h+h+h+h+u+^+_.)+]+@+U.x $+Z.O.O.W.X &. . .e *...P f p R y {.<.h+h+h+h+h+h+h+h+h+h+h+h+h+h+h+h+h+h+h+h+h+(+)+,+>+).e c > 8.w.G+w.",
"o.%.m.S.x  +,+!+<+3+h+h+h+h+h+h+h+h+h+h+h+h+h+h+h+h+h+h+h+h+q+/+_+++]+X.z+%+S.;.H.H.H.F.0.9.&.c e *.W f p R u {.4+h+h+h+h+h+h+h+h+h+h+h+h+h+h+h+h+h+h+h+h+r+_.)+,+>+_ $ | F.G.z.G+G+",
"o.p.m.Z.x  +Y.!+:+f+h+h+h+h+h+h+h+h+h+h+h+h+h+h+h+h+h+h+h+h+h+* (+|+`.;+-+$+O.H.B.l.8.#.G.0 N O  .*.W f p k u {.j+h+h+h+h+h+h+h+h+h+h+h+h+h+h+h+h+h+h+h+h+v+_+!+,+d.W e X E+E.w.w.G+",
"o.V T.B+%+y+'+*+:+/+l+h+h+h+h+h+h+h+h+h+h+h+h+h+h+h+h+h+h+h+h+3+(+}+{+X.-+$+W.F.l.6.x.v.G+z.0 N c e W f p Y v ( h+h+h+h+h+h+h+h+h+h+h+h+h+h+h+h+h+h+h+h+h+H _.!+w Q W n T.D.E.z.w.w.",
"x.D.F.W.#+z+x+=+<+& 6+h+h+h+h+h+h+h+h+h+h+h+h+h+h+h+h+h+h+h+h+h+(+[+=+x+z+#+W.F.D.x.v.w.w.w.#.> c *.W f r >.v + h+h+h+h+h+h+h+h+h+h+h+h+h+h+h+h+h+h+h+h+3+{.z *+4 Q $ Z.T.D.z.w.G+G+",
"w.F+E+C+A+-+@+{+}+/+c+h+h+h+h+h+h+h+h+h+h+h+h+h+h+h+h+h+h+h+h+h+8+<+*+x+z+%+I.F.D.x.w.w.w.z.G.F.| *.W g j S v h+h+h+h+h+h+h+h+h+h+h+h+h+h+h+h+h+h+h+h+h+E {.z f.4 P 3 W.P.F+w.w.w.G+",
"w.G.E+L..+&+;+]+|+(+  + h+h+h+h+h+h+h+h+h+h+h+h+h+h+h+h+h+h+h+h+n+<+~+'+U.%+I.H.8.x.v.w.w.z.G.E+I.e W g j S ( h+h+h+h+h+h+h+h+h+h+h+h+h+h+h+h+h+h+h+h+h+].v >.r g s .+L.M.G.w.w.w.G+",
"w.E.D.T.Z.x  +Y.!+:.  8+h+h+h+h+h+h+h+h+h+h+h+h+h+h+h+h+h+h+h+h+h+/+*+x+z+R.O.H.D.z.w.w.w.z.G.E+D+b.W g j S 3+h+h+h+h+h+h+h+h+h+h+h+h+h+h+h+h+h+h+h+h+4+].u k p Q 5 B+T.D.E.w.w.w.G+",
"G+w.F+P.W.#+z+x+*+z H f+h+h+h+h+h+h+h+h+h+h+h+h+h+h+h+h+h+h+h+h+7+:+=+x+z+#+O.F.D.z.w.w.w.w.G.E+D+.+c.f j >.C h+h+h+h+h+h+h+h+h+h+h+h+h+h+h+h+h+h+h+h++.].y i 4 P *.] P.F+w.w.w.w.G+",
"G+z.G.M.L.N.).X./.[ /+g+h+h+h+h+h+h+h+h+h+h+h+h+h+h+h+h+h+h+h+9+/+[+{+@+-+A+C+P.D.z.w.w.G+w.E.E+D+S.x d.r Y u <.h+h+h+h+h+h+h+h+h+h+h+h+h+h+h+h+h+h+h+( {.S j g W *.c r.A.z.w.w.w.w.",
"G+z.E.C.L.a.&+>+]+++(+  h+h+h+h+h+h+h+h+h+h+h+h+h+h+h+h+h+h+u+  (+|+]+;+&+.+D+E+G.z.w.w.w.z.E.D.T.Z.x  +`.k u !.9+h+h+h+h+h+h+h+h+h+h+h+h+h+h+h+h+h+h+T v Y p : ..e &.N @.K u.w.w.w.",
"G+G+z.A.H.J.x  +w f._+^+i+h+h+h+h+h+h+h+h+h+h+h+h+h+h+h+h+h+* g+_+)+,+>+x Z.D+E+E.z.G+w.w.z.z.D.F.O.%+z+'+6 u !.!.j+h+h+h+h+h+h+h+h+h+h+h+h+h+h+h+k+j+!.u R h Q .. .9.4.` @.2.l v.G+",
"w.w.z.D.H.I.R.U.,.f.<+& l+3+h+h+h+h+h+h+h+h+h+h+h+h+h+h+h+h+f+  :+~+'+y+%+B+T.D.E.w.w.w.G+G+w.F+P.C+$+-+@+{+_.{.( + h+h+h+h+h+h+h+h+h+h+h+h+h+h+h+3+o+].y 6 g P *.c O 4.` @.@.@.) #.",
"w.w.z.D.F.I.K.-+e.' [ (+n+a+h+h+h+h+h+h+h+h+h+h+h+h+h+h+h+i+<.& <+=+x+z+#+W.T.F+E.w.w.z.w.w.E.F+E+L..+'.;+`.}+& ( 4+h+h+h+h+h+h+h+h+h+h+h+h+h+h+h+k.n+{.S r f W e &.N 4.` @.3.@.@.7.",
"w.w.z.D.F.O.N.'.X.`.|+G n+* t+h+h+h+h+h+h+h+h+h+h+h+h+h+h+h+c+/+[+=+x+z+#+B+T.E+D.D.F+F+D.F+F+E+T.W.A+'.;+]+|+(+B 3+h+h+h+h+h+h+h+h+h+h+h+h+h+h+j+C n+v Y r : ..e 9.$.` @.3.3.3.@.@.",
"w.w.x.D.M.L.N.&+>+,+!+_+n+b+u+h+h+h+h+h+h+h+h+h+h+h+h+h+h+h+& /+[+=+x+y+x .+C+T.T.P.F.P.P.F.T.T.L.B+%+-+@+`.|+(+f+2+h+h+h+h+h+h+h+h+h+h+h+h+h+h++ D m+u R h Q .. .9.$.` 3.3.3.3.3.> ",
"w.1.o.l.B.L.S.x  +'+*+<+n+* <.h+h+h+h+h+h+h+h+h+h+h+h+h+h+h+^+/+<+~+,+>+-+%+.+B+W.W.O.W.W.W.W.B+S.#+&+ +'+=+}+(+e+3+h+h+h+h+h+h+h+h+h+h+h+h+h+h+a+E n+y i 4 Q .. .9.4.` 3.3.3.3.3.= ",
"u.l l K B.L.t R.U.@+{+[+n+c+d+q+h+h+h+h+h+h+h+h+h+h+h+h+h+k+f+^+:+)+`.x+ +-+x %+#+< < < A+A+#+V.R.'. +@+]+!+<+/+f+9+h+h+h+h+h+h+h+h+h+h+h+h+h+j+B +.n+S j g P *. .9.$.` 3.3.3.3.> = ",
"6.l l K B.L.J.b.-+;+]+|+n+d+( 8+h+h+h+h+h+h+h+h+h+h+h+h+h+u+c+  G [+~+]+x+>+y+-+-+).o '.&+'.-+-+z+>+@+,+=+|+_+^+c+a+h+h+h+h+h+h+h+h+h+h+h+h+h+4+<.( n+Y r f W *. .9.N 4.` @.3.@.= = ",
"u.l K ) %.m.j.< '.>+,+)+o+g+d+c+i+h+h+h+h+h+h+h+h+h+h+h+h+* * g+/+_+}+~+]+'+@+;+>+>+ + +y+>+>+;+@+'+]+=+|+:+/+  ( * h+h+h+h+h+h+h+h+h+h+h+h+h+E ( T o+R h Q ..*.c 9.$.8 @.@.@.> = = ",
"6.l K 0 ) 0.X q x  +'+!+o+  g+( 3+h+h+h+h+h+h+h+h+h+h+h+k+* b+d+  (+:+}+!+{+]+,+Y.x+@+@+@+x+'+,+]+{+~+|+<+(+^+e+* <.p+h+h+h+h+h+h+h+h+h+h+h+h+B T !.o+6 4 P ..e &.O $.` ` ` ` = = @.",
"u.l K 0 q.m.X q x U.@+=+o+H {.( a+h+h+h+h+h+h+h+h+h+h+h+7+F D * f+^+(+:+}+)+~+=+{+]+^.,+,+]+{+{+*+)+}+:+(+^+g+c+b+v+v+h+h+h+h+h+h+h+h+h+h+h+6+( !.].o+r g P .. .&.O 4.4.` @.= = = ` ",
"z.J l K %.H.=.a.R.-+;+{+o+(+& f+( h+h+h+h+h+h+h+h+h+h+h+6+v+a+<.c+g+b+8+9+w+c+/+|+*+=+=+=+=+}+_+g+b+[.8+a+e+d+* w+a+@ h+h+h+h+h+h+h+h+h+h+h+( T {.v . p : W *. .&.O $.` @.` = = ` @.",
"w.n.J l.M.H.;.J.K.'.>+]+o+G G   d++ h+h+h+h+h+h+h+h+h+h+h+5+9+5+r+h+h+h+h+h+h+h+q++ f+)+/++ s+h+h+h+h+h+h+h+p+3+[.6+h+h+h+h+h+h+h+h+h+h+h+q+T !.v v 1+h Q ..e  .&.O 4.` @.= = = @.@.",
"w.u.n.D.M.T.;.J.K.&+y+,+o+_._.& d+( h+h+h+h+h+h+h+h+h+h+h+h+h+h+h+h+h+h+h+h+h+h+h+h+:+(.[+i+h+h+h+h+h+h+h+h+h+h+h+h+h+h+h+h+h+h+h+h+h+h+h+6+( ].u u 1+g P ..e c 9.O 4.` = = = @.@.@.",
"G+w.z.F+E+T.L.Z.q x z+'+o+h.z (+g+d+j+h+h+h+h+h+h+h+h+h+h+h+h+h+h+h+h+h+h+h+h+h+h+5+|+(.|+8+h+h+h+h+h+h+h+h+h+h+h+h+h+h+h+h+h+h+h+h+h+h+h+( T v S S p+f W *.e c 9.N 4.` = = ` @.@.@.",
"G+G+w.F+E+T.L.I.N.R.-+x+o+[ g.:.^+d+5+h+h+h+h+h+h+h+h+h+h+h+h+h+h+h+h+h+h+h+h+h+j+c+++f.)+^+m+h+h+h+h+h+h+h+h+h+h+h+h+h+h+h+h+h+h+h+h+h+3+B ].u Y S p+Q W *. .&.9.O 4.8 = > @.@.@.@.",
"G+G+w.F+E+T.L.I.N.R.'.@+1+|+!+h.(+g+* h+h+h+h+h+h+h+h+h+u+k.a+5+h+h+h+h+h+9+( /+_+f.~+*+*+!+[+_+e+0+j+h+h+h+h+s+I v+0+h+h+h+h+h+h+h+h+h+w+g+/+S R k q+P ..*. .&.9.O $.% = ` 3.@.@.@.",
"G+G+w.F+E+T.L.I.a.#+&+X.p+f.*+|+_+^+g+t+h+h+h+h+h+h+h+h+v+k.I c+( I * f+_+[+|+!+*+=+/ /.{+{+*+!+|+}+(+d+c+w+* B w+F v+k+h+h+h+h+h+h+h+h+d+  _+g.f.R q+P ..e  .c 9.N , % ` @.@.3.@.3.",
"G+G+z.F+E+T.L.I.a.$+x ;+p+~+`.f.<+/+f+u+h+h+h+h+h+h+h+i+F v+D * f+^+(+:+}+)+*+{+`.]+^.w ,+]+`.{+*+!+}+:+(+^+g+( b+v+0+m+h+h+h+h+h+h+h+4+g+/+<+!+`.f.q+W ..e  .9.9.O , % @.3.@.@.@.3.",
"w.w.z.D.M.T.L.I.a.$+x >+p+=+^.*+}+G   f+h+h+h+h+h+h+h+h+v+v+b+c+  /+_.}+!+{+]+,+Y.'+x+@+x+x+'+,+]+{+!+}+:+(+  d+<.a+b+h+h+h+h+h+h+h+h+c+  G [ *+,+{+r+..*.e  .9.9.- , ` @.3.@.@.@.3.",
"G+v.y.8.M.H.L.I.a.A+%+>+p+/.Y./.)+:+H   s+h+h+h+h+h+h+h+2+w+<.d+^+G [+)+{+^.'+x+X.;+>+>+>+;+X.x+'+,+{+!+[+G ^+B * D 8+h+h+h+h+h+h+h+l+g+H :+++/.e.]+r+'.{  . .9.&.- , ` @.3.@.3.@.3.",
"G+w.6.l.M.T.L.I.a.A+%+ +p+]+e.^.*+[ (+].<.h+h+h+h+h+h+h+h+b+<.e+H _+|+=+]+x+;+>+>+y+ +y+y+y+>+>+;+x+,+=+++:+H T E * h+h+h+h+h+h+h+h+6+g+(+[+*+,+d.^.r+R.$+2 c &.c - , ` 3.3.@.@.3.3.",
"w.w.z.D.B.H.L.I.a.A+%+ +p+^.X.Y./.++_.^+  i+h+h+h+h+h+h+h+k+e+e+& :+)+{+'+X.>+y+z+z+z+z+z+z+z+y+>+;+'+`.!+<+& T ( 6+h+h+h+h+h+h+h+h+d+i.:.++/.'+>+Y.r+%+.+B+] c c O 4.` @.@.3.3.3.3.",
"G+w.x.D.B.H.L.I.a.N.%+y+p+,+>+@+^.~+[+(+  3+h+h+h+h+h+h+h+h+0+e+& :+)+`.'+;+y+;+z+z+-+-+-+z+z+,+y+;+x+]+!+<+/+e+a+h+h+h+h+h+h+h+h+t+  /+<+~+^.@+ +'+r+%+.+B+] c c N 4.` @.@.3.3.3.3.",
"G+w.x.D.M.H.L.I.a.N.V.U.p+Y. +;+Y.{+|+_+i.b+h+h+h+h+h+h+h+h+h+d+^+_+++{+'+;+>+& {+y+z+z+z+y+{+v+;+;+'+`.)+:+&   k+h+h+h+h+h+h+h+h+u+  G |+=+Y.;+U.e.r+V..+t ~ c ! m.` ` 3.3.3.@.3.3.",
"G+w.z.D.E+T.;.j.a.N.V.U.p+Y.U.>+@+]+!+<+/+^+r+h+h+h+h+h+h+h+h+t+^+(+}+=+,+x+;+X.D u+  =+(+8+@ ,+;+@+,+=+|+_+/+u+h+h+h+h+h+h+h+h+h+  H _.)+]+@+~.c.e.r+#+.+n e c # P.C.) 3.@.@.3.@.3.",
"G+G+w.F+E+T.L.j.a.N.V.U.p+e.c.U.X.w =+g.G   u+h+h+h+h+h+h+h+h+h+c+& :+)+{+,+x+X.;+f+j+h+h+w+x+X.x+Y.`.!+<+/+c+h+h+h+h+h+h+h+h+h+s+i.(+[ *+Y.;+U.'.d.r+A+q  .e ] T.P.D.E.U 2.3.3.@.3.",
"G+G+w.F+E+T.L.I.a.q Q.U.p+,.o s Z ,./ 6 _.H g+h+h+h+h+h+h+h+h+h+t+^+(+[+~+`.,+'+x+@+'+' ' w e.,.w /.~+[ G {.}.h+h+h+h+h+h+h+h+h+8+{._.++`.e.~.c.&+X.r+A+5 e ~ L.T.P.D.E.G+z.K 7.@.3.",
"w.G+w.F+M.T.L.O.a.N.R.~.p+,.o c._ e.^.f.h.(+^+m+h+h+h+h+h+h+h+h+h+e+H _+|+*+`.^.Y.'+Y.4 h h 4 ^./.*+(._.&   p+h+h+h+h+h+h+h+h+j+]./+h.~+^.d.~.o 5 X.r+R.$ e ] D+T.P.D.E.G+G+G+U 2.3.",
"u.v.z.D.B.H.L.I.a.N.V.U.p+e.5 '.c.Z ,./ (.:.i.9+h+h+h+h+h+h+h+h+h+v+g+/+:+(.~+{+]+`.]+^.' j j j f.++<+(+  d+h+h+h+h+h+h+h+h+h+5+{.G g./ ,.Z s o 5 X.r+o $ ~ W.D+T.P.A.E.w.w.w.w.v.K ",
"v.v.z.D.B.H.L.O.a.N.V.U.p+@+x x ).~.d.w ~+h./+^+h+h+h+h+h+h+h+h+h+t+g+  (+z g.d+@ i+s+@ 4+h+8+<.S _.G ^+g+7+h+h+h+h+h+h+h+h+h+<.H z f.^.d.U.'.5 3 ;+r+$ $ N.W.D+H.F.A.#.u.u.v.w.v.u.",
"w.w.z.F+M.T.L.W.S.N.V.z+p+@+x x 5 s Z e./.(.G   + h+h+h+h+h+h+h+h+h+b+e+i.(+H e+g+  b+[.a+^+g+B B v {.f+g+h+h+h+h+h+h+h+h+h+h+  (+}+=+Y.Z c.x R.b.X.r+..5 B+W.L.H.F.D.#.u.u.v.G+u.n.",
"G+G+w.F+E+T.D+O.S.N.V.U.p+@+5 3 { s ~.d.^.~+z i.u+h+h+h+h+h+h+h+h+h+5+c+g+& G <+[+++!+!+!+)+}+<+G {.T +.I h+h+h+h+h+h+h+h+h+5+H :.++`.e.~.o 5 n b.,.r+$ q B+W.;.m.P.D.E.v.v.v.w.u.n.",
"G+G+w.F+E+T.D+O.S.N.V.U.p+X.3 3 5 o s ~.'+{+g./+H n+h+h+h+h+h+h+h+h+h+c+c+g+& G g+u+0+k.[.4+c+:./+g+( ( t+h+h+h+h+h+h+h+h+h+g+/+[+*+w Z c.5 n < n : r+5 .+Z.I.r.m.P.D.E.G+w.w.w.u.n.",
"G+G+w.F+E+T.D+O.S.N.V.U.p+d.Q.b.~ { o U.X.^.++y ].6+h+h+h+h+h+h+h+h+h+9+* c+g+H (+/+v+}.a+  G H ].B <.[.h+h+h+h+h+h+h+h+h+m+^+G ++`.@+U.'.R.q N.{ f r+< .+J.X r.m.F.D.E.G+w.w.w.u.n.",
"G+G+w.F+E+T.D+W.S.N.V.U.p+d.Q.K.3 ~ 5 ).>+Y.' z H ( h+h+h+h+h+h+h+h+h+h+E <.c+g+i./+(+(+(+/+i.].T <.* h+h+h+h+h+h+h+h+h+h+6+i.:.f.w ;+c.x < N.n $ f r+A+.+J.X r.0.%.A.E.G+w.w.w.u.n.",
"G+G+w.F+E+T.D+W.S.N.Q.U.p+d.R.< n ~ 3 x U.e.`.g.(+H j+h+h+h+h+h+h+h+h+h+s+c+E ( e+    ^+  ].e+( <.* 5+h+h+h+h+h+h+h+h+h+h+g+/+z ' ,.~.o 3 q -.{ $ Q r+A+.+J.X r.0.q.l.E.G+G+w.w.u.n.",
"G+G+w.F+E+T.D+W.S.N.Q.U.p+@+R.< n n 2 R.).Z w f.:.i.5+h+h+h+h+h+h+h+h+h+h+2+<.D * c+c+d+d+( <.b+* 6+h+h+h+h+h+h+h+h+h+h+2+  G ++^.;+c.x < a.n e e X.r+$+.+Z.j.r.0.q.l.E.w.G+w.w.v.u.",
"w.w.w.F+E+T.L.W.S.N.Q.U.p+@+b.q 2 ! N.$+x U.e.=+h./+* h+h+h+h+h+h+h+h+h+h+h+q+v+<.w+b+b+b+D D w++ h+h+h+h+h+h+h+h+h+h+h+8+i.<+*+e. +'.K.a.] { $ ~ >+r+$+.+B+O.;.H.F.A.E.w.w.w.w.v.v.",
"w.G+z.D.M.T.D+W.S.N.V.U.p+X.b.q -.! t .+R.).>+^.)+G ^+t+h+h+h+h+h+h+h+h+h+h+h+h+r+v+v+9+|.F t+h+h+h+h+h+h+h+h+h+h+h+h+h+].{.h.`.X.c.x q J.| e e < >+r+$+.+B+W.D+T.P.D.E.v.w.w.w.v.w.",
"w.w.z.D.M.T.D+O.S.N.R.U.p+@+R.K.q -.S..+V.'.~.Y.!+:+  8+h+h+h+h+h+h+h+h+h+h+h+h+h+h+h+h+h+h+h+h+h+h+h+h+h+h+h+h+h+h+h++ ].v Y ' d.c.R.q -.e e ~ < ;+r+$+.+Z.W.L.T.P.D.E.w.w.w.w.v.v.",
"v.u.x.D.M.T.L.O..+$+R. +p+e.x R.b.K.N.$+R.'.~.Y.~+<+^+d+h+h+h+h+h+h+h+h+h+h+h+h+h+h+h+h+h+h+h+h+h+h+h+h+h+h+h+h+h+h+h+(   y k r f _ x K.{ $ e Q.R.X.r+R.A+a.I.;.T.P.A.#.w.w.w.v.u.u.",
"u.u.6.8.M.T.L.Z.N.b.x ~.p+Y.-+'.&+x x x '.z+>+,+~+<+& g+o+h+h+h+h+h+h+h+h+h+h+h+h+h+h+h+h+h+h+h+h+h+h+h+h+h+h+h+h+h+j+].i._.++p g Q _ s _ ..o x '.e.r+x b.N.J.I.m.F.A.y.v.w.v.u.u.n.",
"n.n.J l.M.T.L.Z.N.R.'.>+p+^.U.U.c.-+-+-+U.~.X.^.!+<+& d+[.h+h+h+h+h+h+h+h+h+h+h+h+h+h+h+h+h+h+h+h+h+h+h+h+h+h+h+h+h+5+c+i.:.++/ f : Q P P ^ s s s w r+'.R.K.J.I.m.q.l.#.u.u.u.u.n.n.",
"n.n.J o.M.T.C+Z.K.R.'.;+p+`.>+>+>+ + + +>+;+x+]+f.<+/+d+c+h+h+h+h+h+h+h+h+h+h+h+h+h+h+h+h+h+h+h+h+h+h+h+h+h+h+h+h+h+D T i.:.g.' w ,.: : Q P ^ Z ^ ^.r+c.x K.a.I.;.q.l.#.v.n.n.n.u.n.",
"n.u.6.#.M.T.C+Z.K.x ).X.p+/.X.@+X.X.;+X.@+x+,+{+++:+/+f+* + h+h+h+h+h+h+h+h+h+h+h+h+h+h+h+h+h+h+h+h+h+h+h+h+h+h+h+t+( B i.:.g.' ^.w g g g g f ,.d./.r+c.&+#+.+I.L.F.A.#.v.v.u.u.u.u.",
"w.w.w.G.E+T.C+Z.K.x -+@+p+=+x+e.'+'+'+'+Y.,+]+=+(.:+/+f+* b+h+h+h+h+h+h+h+h+h+h+h+h+h+h+h+h+h+h+h+h+h+h+h+h+h+h+h+8+<.d+H :.g.~+`./ p 4 w 4 h 4 : / r+U.&+%+.+O.L.F.D.E.w.G+G+w.w.w.",
"G+G+G+G.E+T.L.Z.$+x c.x+p+'+Y.,+,+^.^.^.]+`.{+!+}+_./+g+* I s+h+h+h+h+h+h+h+h+h+h+h+h+h+h+h+h+h+h+h+h+h+h+h+h+h+i+a+* f+& :.[ f.*+j j / ,+^.4 h h g q+U.'.%+.+W.D+P.D.E.G+G+G+G+G+G+",
"w.w.w.G.E+H.;.Z.$+x z+@+l+Y.^.]+`.{+{+{+=+=+~+)+[+_+/+g+( w+3+h+h+h+h+h+h+h+h+h+h+h+h+h+h+h+h+h+h+h+h+h+h+h+h+h+m+I * f+& _+[+++6 R 6 / /.`.]+/.h h 1+^ ).R..+W.D+P.F+E.G+G+w.G+G+w.",
"v.u.u.y.l.q.0.t $+x z+X.i+h+h+h+h+h+i+i+i+i+i+i+i+i+i+i+i+h+h+h+h+h+h+h+h+h+h+h+h+h+h+h+h+h+h+h+h+h+h+h+h+h+h+h+h+j+l+l+l+l+l+l+l+l+l+m+m+m+m+m+m+n+i+: ^ x .+W.D+P.F+E.G+G+G+w.G+G+",
"u.v.u.o.p.q.r.Z.N.x c.X.l+h+h+h+h+h+h+h+h+h+h+h+h+h+h+h+h+h+h+h+h+h+h+h+h+h+h+h+h+h+h+h+h+h+h+h+h+h+h+h+h+h+h+h+h+h+h+h+h+h+h+h+h+h+h+h+h+h+h+h+h+h+h+: W 5 .+W.T.E+F+w.G+G+G+G+G+G+",
"n.v.u.o.p.%.m.I..+R.'.>+j+h+h+h+h+h+h+h+h+h+h+h+h+h+h+h+h+h+h+h+h+h+h+h+h+h+h+h+h+h+h+h+h+h+h+h+h+h+h+h+h+h+h+h+h+h+h+h+h+h+h+h+h+h+h+h+h+h+h+h+h+h+h+~.c.#+S.C+T.M.F+z.w.w.w.w.w.w.",
"n.n.u.x.l.%.H.;.Z.N.x -+>+X.x+Y.,+]+]+`.{+{+{+=+~+)+}+:+G ^+g+c+h+h+h+h+h+h+h+h+h+h+h+h+h+h+h+h+h+h+h+h+h+h+h+8+f+i./+u S k R i r /././.`.^.^.Y.e.d.Z ).R.N.j.;.H.C.#.x.v.v.v.v.v.u.",
"v.u.u.z.G.A.F.H.O.S.$+x -+ +>+X.@+x+'+Y.Y.,+,+^.`.=+!+}+:+(+  g+t+h+h+h+h+h+h+h+h+h+h+h+h+h+h+h+h+h+h+h+h+h+o+].]./+_.[ R R j r `.w w w w ,.e.d.Z ~.s 5 < s.=.q.%.l.o.n.n.n.n.n.n.n.",
"w.v.v.x.E.F+M.H.L.I..+b.x ).U. +>+>+;+X.X.X.@+@+'+,+`.*+++<+G ^+7+h+h+h+h+h+h+h+h+h+h+h+h+h+h+h+h+h+h+h+h+h+7+  (+:+|+~+/ p h 4 g ,.d.d.d.^ Z Z s c.{ n a.j.m.q.p.l.o.6.u.u.u.u.u.u.",
"v.v.v.x.x.G.D.B.H.;.I.a.b.x '.'.-+z+U.U. + + +~.>+X.x+^.{+!+}+:.(+q+j+j+j+j+j+j+j+j+j+j+j+j+j+j+j+j+j+j+j+j+  G z ++=+^.^.4 : : : : P Z Z Z s s o { ~ -.j.;.H.B.8.8.6.x.v.v.v.v.v.v.",
"w.v.w.x.x.y.D.C.F.H.;.I.t q K.R.R.x &+&+'.'.&+'.-+U.~.X.'+]+=+++<+4+p+h+h+h+h+h+h+h+h+h+h+h+h+h+h+h+h+h+h++ z g.f./ Y.e.f Q _ s ^ W W _ s o { 5 3 n ! ] r.H.M.A.8.#.x.x.w.w.w.w.w.w.",
"w.w.w.w.z.x.#.D.C.B.H.L.;.j.J.S..+N.N.$+$+$+$+#+R.x '.c. +X.Y.]+*+(._.u v /+/+H ^+^+      ^+i.^+& /+(+:.h.g.f./ w e.Z ^ P _ 5 3 3 { $ ..{ 2 2 -.q ] =.r.m.B.D.D.U x.z.w.w.w.w.w.w.w.",
"v.w.w.w.z.x.x.#.D.A.B.F.H.m.;.;.O.O.O.O.I.I.j.s.s.-.2 5 o s Z d.w / 6 k k [ [+z _._._._._._._.z h.[ (.)+*+/.w e.Z c.s ..$ 2 ] ] ] ] 2 | X X =.=.0.0.m.q.B.D.F+E.6.6.z.G+G+w.w.v.v.v.",
"v.w.G+G+G+z.z.x.#.E.G.A.C.B.%.B.B.F.F.F.F.F.H.q.0.r.=.s.-.n o s Z f h h / ' ' =+*+f.f.f.f.f.f.f.' /.]+w ,.d.Z s x R.e e ! L.H.H.q.H.F.F.F.F.B.%.%.%.p.V #.E.w.z.6.6.v.w.G+G+w.w.v.u.",
"w.w.G+G+G+w.w.z.6.x.z.z.6.#.#.#.G.G.G.G.G.G.G.8.V %.%.m.r.X -.n s P P ^ ^ d.e.e.e.Y.,.,.,.w w : ,.d.;+Z U.c.5 b..+2  .- H.E+D.D.#.#.G.G.G.G.G.#.U U #.6.x.w.w.z.x.x.v.w.G+G+w.v.u.J ",
"G+G+G+G+G+G+G+w.v.v.v.w.w.v.v.v.w.w.w.w.w.w.w.z.x.#.8.A.B.H.;.! e $ { x '.).c.c.z+z+U.U.U.U.~._ s ).'.5 3 b.a.I.=.- - 0 F+E.z.z.w.w.w.G+G+G+w.w.6.1.6.u.v.G+G+w.x.x.v.w.G+G+w.v.6.J ",
"G+G+G+G+G+G+G+w.v.x.v.v.w.v.v.v.w.w.w.w.w.w.w.w.z.z.E.G.D.E+H.-  .| J.S..+N.K.$+#+#+#+#+V.V.Q.3 n q N.a.] X ;.H.=.- = G.E.z.z.w.w.w.w.G+G+G+G+G+w.u.J 6.w.w.G+v.6.6.v.w.G+w.w.v.v.v.",
"G+G+G+G+G+G+G+w.v.v.v.v.v.v.v.v.w.w.w.w.w.w.w.w.w.z.z.z.G.D.; - , H.H.L.L.L.;.W.O.W.W.W.W.O.O.I.I.;.;.L.q.q.F.C.B.0.%.E.z.z.v.v.v.w.w.w.G+G+G+w.G+w.u.u.v.w.w.v.6.6.v.w.G+G+w.w.v.v.",
"G+w.w.G+G+G+G+w.v.v.w.v.v.u.v.w.w.w.w.w.w.w.w.w.w.w.z.z.w.K % , %.F+A.C.C.M.M.M.M.P.F.F.F.F.B.B.B.B.B.B.V l.A.G.E.z.z.z.z.w.v.v.w.v.w.w.G+w.w.G+G+w.w.w.w.w.w.v.x.v.w.G+G+G+G+w.w.w."};
