/* XPM */
static const char * fs2_btn_help_hover_xpm[] = {
"131 58 256 2",
"  	c #767071",
". 	c #251D23",
"+ 	c #554D55",
"@ 	c #4D464E",
"# 	c #332B37",
"$ 	c #433D47",
"% 	c #0F1112",
"& 	c #0F1B1D",
"* 	c #0F1D1F",
"= 	c #4C5556",
"- 	c #010303",
"; 	c #46504F",
"> 	c #2B3836",
", 	c #6A7371",
"' 	c #3D4543",
") 	c #16251F",
"! 	c #0F1915",
"~ 	c #414B47",
"{ 	c #010503",
"] 	c #010E07",
"^ 	c #071C11",
"/ 	c #092215",
"( 	c #64947B",
"_ 	c #091F13",
": 	c #1B4C31",
"< 	c #1D4F34",
"[ 	c #153925",
"} 	c #588F71",
"| 	c #67A483",
"1 	c #77AE90",
"2 	c #37423C",
"3 	c #031109",
"4 	c #07170E",
"5 	c #1A482E",
"6 	c #121E17",
"7 	c #0F2D1B",
"8 	c #11321E",
"9 	c #0E2919",
"0 	c #020A05",
"a 	c #0A2213",
"b 	c #06130B",
"c 	c #060E09",
"d 	c #559D70",
"e 	c #335640",
"f 	c #213328",
"g 	c #8CC0A0",
"h 	c #AEB6B1",
"i 	c #0B2715",
"j 	c #091A0F",
"k 	c #4C775B",
"l 	c #BBD1C3",
"m 	c #D1DFD6",
"n 	c #010703",
"o 	c #0F2416",
"p 	c #4E8962",
"q 	c #040705",
"r 	c #587E65",
"s 	c #AFC7B7",
"t 	c #0D2715",
"u 	c #2D5339",
"v 	c #3F6B4D",
"w 	c #747E77",
"x 	c #0B2613",
"y 	c #0D2915",
"z 	c #3E5D46",
"A 	c #010903",
"B 	c #0D2513",
"C 	c #0E1E12",
"D 	c #647067",
"E 	c #335E3C",
"F 	c #192B1D",
"G 	c #6D8E74",
"H 	c #76977D",
"I 	c #010B03",
"J 	c #46774F",
"K 	c #4F6D55",
"L 	c #0F1410",
"M 	c #455B49",
"N 	c #121713",
"O 	c #A6BAAA",
"P 	c #E3E8E4",
"Q 	c #2D4932",
"R 	c #0A100B",
"S 	c #3F6E46",
"T 	c #4A584C",
"U 	c #DAE1DB",
"V 	c #030C04",
"W 	c #152617",
"X 	c #46664A",
"Y 	c #3B533E",
"Z 	c #66866A",
"` 	c #1C331E",
" .	c #93A895",
"..	c #3C653E",
"+.	c #283C29",
"@.	c #4B6E4D",
"#.	c #415442",
"$.	c #436444",
"%.	c #6B956C",
"&.	c #5C775D",
"*.	c #010B01",
"=.	c #010901",
"-.	c #010701",
";.	c #010501",
">.	c #030903",
",.	c #010301",
"'.	c #030703",
").	c #060A06",
"!.	c #030503",
"~.	c #4C644C",
"{.	c #CAD3CA",
"].	c #ECEFEC",
"^.	c #365A34",
"/.	c #3E5A3C",
"(.	c #1F2C1E",
"_.	c #2F3E2E",
":.	c #354634",
"<.	c #394938",
"[.	c #395236",
"}.	c #455B42",
"|.	c #162214",
"1.	c #5A6E57",
"2.	c #889486",
"3.	c #B9C0B8",
"4.	c #D0D7CF",
"5.	c #0D120C",
"6.	c #55724F",
"7.	c #65855F",
"8.	c #5A7555",
"9.	c #D7DCD6",
"0.	c #2D4428",
"a.	c #4D5F49",
"b.	c #687B64",
"c.	c #304A29",
"d.	c #263223",
"e.	c #536A4D",
"f.	c #919C8E",
"g.	c #385430",
"h.	c #3D5636",
"i.	c #384B32",
"j.	c #C6CDC4",
"k.	c #283D21",
"l.	c #445D3C",
"m.	c #1C2519",
"n.	c #0A0D09",
"o.	c #74866E",
"p.	c #4D6843",
"q.	c #2D352A",
"r.	c #4D6244",
"s.	c #030701",
"t.	c #050903",
"u.	c #182611",
"v.	c #1E2A18",
"w.	c #364A2C",
"x.	c #404F39",
"y.	c #4B5B43",
"z.	c #373B35",
"A.	c #A7B1A2",
"B.	c #B3BBAF",
"C.	c #C0C6BD",
"D.	c #1A2315",
"E.	c #3E5233",
"F.	c #34452B",
"G.	c #808B7A",
"H.	c #223119",
"I.	c #141B10",
"J.	c #435837",
"K.	c #11160E",
"L.	c #3D4E33",
"M.	c #44543B",
"N.	c #54624C",
"O.	c #556F44",
"P.	c #272D23",
"Q.	c #64735A",
"R.	c #314026",
"S.	c #3B4B2F",
"T.	c #4B5E3D",
"U.	c #27341D",
"V.	c #232D1B",
"W.	c #425235",
"X.	c #47583A",
"Y.	c #5C6B50",
"Z.	c #5A6551",
"`.	c #A0A999",
" +	c #345418",
".+	c #436725",
"++	c #2B3721",
"@+	c #181E13",
"#+	c #49563E",
"$+	c #3B4433",
"%+	c #4B5443",
"&+	c #2F3C23",
"*+	c #536245",
"=+	c #030501",
"-+	c #0A0B09",
";+	c #0E0F0D",
">+	c #3A452D",
",+	c #515B46",
"'+	c #747D68",
")+	c #414C30",
"!+	c #608424",
"~+	c #889F62",
"{+	c #374028",
"]+	c #495337",
"^+	c #454C37",
"/+	c #22241D",
"(+	c #1E1F1A",
"_+	c #8BA222",
":+	c #10110B",
"<+	c #A1AF4A",
"[+	c #030301",
"}+	c #050503",
"|+	c #0A0A07",
"1+	c #28271F",
"2+	c #2A261B",
"3+	c #17150F",
"4+	c #2E2B22",
"5+	c #38352C",
"6+	c #0F0D09",
"7+	c #13110D",
"8+	c #716B60",
"9+	c #0D0B08",
"0+	c #1E1A14",
"a+	c #120F0B",
"b+	c #251F17",
"c+	c #191510",
"d+	c #5A5146",
"e+	c #2D251C",
"f+	c #332A20",
"g+	c #574837",
"h+	c #45392C",
"i+	c #2F271E",
"j+	c #77634D",
"k+	c #4B3F31",
"l+	c #372E24",
"m+	c #675949",
"n+	c #3F3327",
"o+	c #2A221A",
"p+	c #62503D",
"q+	c #16120E",
"r+	c #272019",
"s+	c #1C1712",
"t+	c #221C16",
"u+	c #806C57",
"v+	c #080706",
"w+	c #595857",
"x+	c #2D1D0F",
"y+	c #170F08",
"z+	c #28231F",
"A+	c #2F231B",
"B+	c #271C15",
"C+	c #0D0501",
"D+	c #060202",
"E+	c #030101",
"F+	c #030303",
"G+	c #010101",
",.;.;.;.-.,.,.;.;.;.,.,.;.;.,.,.,.,.,.;.;.,.,.,.,.,.,.G+G+,.-.;.;.,.G+G+G+G+G+b [ : : : 5 : : : : : 5 _ _ ^ ] ] ] ] ] ] ] ] I A n =.=.=.=.,.G+G+G+G+,.;.-.-.;.,.;.,.G+G+G+,.;.,.G+G+G+G+G+G+G+G+G+G+G+G+G+G+G+G+- ^ / 3 G+G+G+,._ 5 < < < [ ^ / 5 < < < 9 G+G+G+,.,.;.",
",.,.;.;.;.,.,.,.;.;.,.G+G+,.,.,.,.,.,.,.,.,.G+G+G+,.,.,.G+G+G+G+G+G+G+G+G+G+c [ : 5 5 5 5 5 5 5 : 5 7 4 / ^ n -.n { n n n n n ;.,.;.;.-.-.;.,.G+;.;.;.;.;.;.-.-.-.-.-.,.G+G+G+G+G+G+G+G+G+G+G+G+G+G+G+G+G+G+G+G+n ^ ^ - G+G+G+G+G+c [ < 5 / ^ [ < : : < < 9 ,.G+,.,.,.",
"G+,.,.,.,.G+,.,.,.,.,.,.G+G+G+G+G+G+G+G+G+G+G+G+G+G+G+G+G+G+G+G+G+G+G+G+G+c [ : 5 5 5 5 5 5 5 : 5 a G+n ^ _ ] G+,.,.,.;.;.,.,.G+G+G+,.;.,.,.,.G+G+,.;.;.;.;.;.;.-.-.;.,.G+G+G+G+G+G+,.,.,.,.G+G+G+G+G+G+G+G+G+G+G+{ q G+G+,.,.,.G+G+q 8 7 ^ 9 : : : : : < < o G+G+,.,.",
"G+,.,.,.,.,.,.,.,.,.,.G+G+G+G+G+G+G+G+G+G+G+G+G+G+G+G+G+G+G+G+G+G+G+G+G+c [ : 5 5 5 5 5 5 5 : [ 4 G+,.,.3 / ^ { ,.,.,.;.;.,.,.G+G+G+G+G+G+G+G+G+G+G+G+G+G+G+G+G+,.,.G+G+G+G+G+G+G+;.=.=.=.-.;.G+G+G+G+G+G+G+G+G+G+G+G+G+,.-.-.-.;.,.,.3 ^ / 5 : : : : : : < < a G+-.A ",
";.-.-.;.,.,.G+,.,.,.G+G+G+,.G+G+,.-.-.;.,.,.,.,.G+G+G+G+G+,.,.;.,.G+G+{ [ : 5 5 5 5 5 5 5 : [ b { A A A 0 ^ / 3 ,.n 0 A { ,.,.G+G+G+G+G+G+G+G+G+G+G+G+G+G+G+G+G+G+G+G+G+G+G+G+G+G+;.-.-.-.-.,.G+G+G+G+G+G+G+G+G+,.G+G+G+G+,.,.,.,.G+n ^ ^ / 5 < : : : : : : : 5 ^ -.A ",
"A I I { ,.,.,.G+v+6+6+7+3+z.d+o+c+3+q+q+a+t+A+q+s+B+r+i+z+@ 4+t+t+b+0+/+4+i+f 5 5 5 5 5 : [ b ] 3 3 3 3 ] 4 _ ^ 0 ] 3 ] I ;.,.,.G+G+G+G+G+G+G+G+G+G+G+G+G+G+G+G+G+G+G+G+G+G+G+G+G+G+;.;.;.,.G+G+G+G+G+G+G+G+G+G+G+G+G+G+G+G+G+G+G+G+b / ^ { 4 5 < : : : : : : < 5 4 ,.",
"A I A ;.,.,.}+c+b+e+n+k+h+  8++ + 8+      G.'+'+'+'+'+8+    w+@ $ # . t+r+t+b+(.5 5 5 5 [ b ] 3 3 3 ] ] ] ] ^ _ 3 0 ] ] n ;.,.,.G+G+G+G+G+G+G+G+G+G+G+G+G+G+G+G+G+G+G+G+G+G+G+G+G+G+G+G+G+G+G+G+G+G+G+G+G+G+G+G+G+G+,.G+G+G+,.,.,.G+n 4 0 G+G+b 5 : : : : : : : < 5 c ",
";.-.;.,.,.,.c+n+f+l+@   2.2.~+<+`.A.`.<+<+<+<+<+<+<+<+<+<+<+<+<+`.2.G.D $ l+b+1+5 5 : [ 3 0 ] 0 ] ] A n A A ] V ,.;.n -.,.,.,.G+G+G+G+G+G+G+G+G+G+G+G+G+G+G+G+G+G+G+G+G+G+G+G+G+G+G+G+G+G+G+G+G+G+G+G+G+G+G+G+G+G+G+G+,.,.,.;.;.;.,.,.G+G+,.G+G+4 5 : : : : : : : < [ ",
"G+,.,.,.,.,.|+l+f+f+@ ~+~+~+<+<+<+_+_+_+_+_+_+_+_+_+_+_+_+_+<+<+<+<+<+~+w+z.e+2+f _.(.:+q+r+o+o+e+f+o+e+e+e+i+i+e+e+i+f+f+f+f+f+f+f+f+f+f+f+f+f+l+l+n+f+o+t+t+t+n+i+e+o+e+f+e+o+r+q+6+o+s+b+b+c+9+|+|+|+|+|+v+v+7+s+q+3+3+3+c+2+b+3+q+c+}+G+G+G+G+j 5 : : : : : : : : ",
"G+G+G+,.,.,.!.s+o+l+f+P.0. +.+!+!+!+!+!+!+!+!+!+!+!+_+~+~+~+~+7..+ +k.) 7+c+o+f+k+l+b+0+f+l+i+f+n+d+l+n+n+h+k+h+n+k+g+g+g+g+g+p+p+p+g+g+m+p+p+m+j+j+j+j+g+n+g+g+p+p+g+h+h+h+n+g+G.u+i+g+g+k+g+h+s+c+q+6+6+7+7+q+t+n+k+i+e+e+f+h+p+n+i+l+l+0+G+G+G+G+^ : : : : : : : : ",
"G+,.,.,.,.,.}+t+e+n+g+n+x+B+s+% ! * ) 8 [ ` ` ` F ` H.H.u.I.! % % q+y+y+t+o+i+k+n+o+o+r+r+r+l+n+n+n+n+n+n+k+g+h+k+k+g+p+p+p+p+p+p+p+g+p+p+p+p+j+j+m+m+u+j+g+p+m+u+d+p+p+g+g+g+p+u+g+h+g+p+g+k+p+k+f+r+s+c+s+0+t+r+o+h+n+o+l+k+g+g+h+f+f+f+k+l+:+n ;.G+9 : : 5 5 : 5 5 ",
"G+,.,.,.,.,.v+o+l+k+h+r+b+t+s+y+6+9+C+C+C+C+y+C+C+C+C+D+D+C+C+9+9+|+a+q+0+s+q+0+a+a+q+3+c+s+c+s+0+0+0+s+s+0+b+0+s+0+r+o+2+o+o+o+o+r+e+i+o+r+b+o+b+t+r+f+n+e+b+r+h+l+i+2+t+s+o+4+t+s+0+0+2+2+s+b+o+0+0+s+7+@+0+0+q+7+c+0+q+t+1+r+r+l+n+i+l+m+n+g+n+R ;.G+8 : 5 5 5 5 5 ",
"G+,.,.,.,.,.}+s+b+o+}+G+{ 0 { ,.- - q q !.).{ '.,.,.{ !.).n.R n.n.).>.{ ,.{ !.{ q q q ).).q { '.q q ).|+).t.{ '.q '.;.!.q !.,.,.,.q ).).).'.).q q 0 0 { { '.).).{ { n 0 R R c ).).c '.{ { q ).).).R 5.5.K.K.5.R |+n.n.|+).- ,.,.- n.0+o+l+g+n+p+m+k+4+}+0 [ : 5 5 5 5 ",
"G+,.,.,.,.,.[+q+c+!.G+q R o C R n.5.K.|.W |.I.I.I.@+D.D.@+D.v.D.v.H.H.u.|.I.|.d.(.(.v.D.V.D.D.D.@+I.@+D.D.D.D.@+@+D.v.v.|.I.I.K.:+K.I.@+D.D.@+m.` v.(.@+@+@+I.D.u.I.m.D.F F (.f F W |.D.I.I.@+K.K.@+@+(.d.` (.@+@+@+@+K.:+n.|+n.).).|+5.b+l+n+k+u+g+g+g+6+4 5 : 5 5 5 ",
";.,.,.,.,.,.!.7+c+q - -+5.W m.(.d.d.++_.+.d.R.V.++&+&+H.D.v.H.v.H.H.U.U.U.v.U.h.[.F.w.F.&+V.U.U.U.U.H.U.U.U.F.F.U.&+R.V.H.V.++V.U.U.U.U.V.U.R.+++.U.U.|.|.V.+.d.U.k.F._._.Q Q Q Q Q _.w.+.k.k.+.U.v.|.U.k.+.+.++V.m.v.v.D.@+K.K.:+n.|+|+).:+2+h+p+p+g+n+n+e+o : 5 5 5 ",
"V ,.,.G+G+G+[+7+c+q !.n.R I.m.v.H.v.(.U.H.H.v.I.|.u.H.u.u.v.` H.H.H.H.v.k.U.R.M.l.h.h.J.S.U.++{+&+R.&+H.U.&+&+R.&+&+&+&+R.&+S.R.R.>+>+R.>+F.L.F.F.k.+++.Q +.F.0.k.k.Q Q _.Y X $.z :.Q Q k.U.0.w.0._.Q ++++R.F.i.F.R.&+&+R.U.V.V.D.I.I.:+).'.'.7+n+g+h+l+l+p+k+[ 5 5 : ",
"3 G+,.G+G+G+- 6+7+).!.n.I.W D.U.[.k.U.k.U.U.k.c.` H.U.k.Q E ^.k.H.c.0.k.&+0.[.E.h.w.F.E.)+{+++R.)+&+U.U.H.++++&+R.l.L.++U.R.&+U.++++R.{+R.R.F.w.i.F.Q e e Y i./.[.i.F.u Q z p p k u u Q i.[./.h.[.e e u F.i.i.F.R.R.R.R.++++V.U.++v.@+v.v.I.|+'.{ :+l+h+p+p+m+b 5 5 [ ",
"j ,.,.-.;.;.'.a+q+n.!.5.m.0.0.L.[.[.c.F.R.F...p g.k.c.^.J S c.k.k.w.g.0.k.R.R.w.R.R.w.T.T.]+]+{+S.L.R.F.++v.&+&+l.l.w.R.++&+R.++&+&+&+R.&+R.E.$.v [.z k &./.S X ~.~.}.Y X v v J ..v z #.K ~.X v ^.K &.@.[.v S h.F.++R.&+&+&+++&+R.U.&+&+R.+.D.n.v+;.- o+u+d+n+G+9 8 ^ ",
"a ;.;.I I A >.a+:+).q K.@+d.X p.w.F.0.w.[.S.S...c.c...J X /.h./.k.k.k.k.k.&+R.h.[.L.h.p.p.T.T.T.J.F.>+r.w.V.U.R.w.>+S.{+{+S.i.{+L.w.X $.i.[.p.J J /.X [.)+i.X l.M.1.1.#.k p S /.k p M N.&.}.M.~.[.L.W.X z @.k @.l.:.$.X i.S.>+F.S.{+{+S.L.{+U.D.5.|+q 0+j+G.g+0 4 _ _ ",
"y 0 ,.-.n =.-.7+q+n.).I.@+++l.l.L.w.w.w.R.++g.....c.X k /.W.i.0.0.k.k.k.&+&+R.l.[.w.w.w.J.J.E.X.S.R.F.J.E.++++{+R.++++&+++V.V.&+{+>+}.M.i.L.@.r K $.p J z e.7.#+L.x.*+,+K r X /.r r ,+*+M.L.^+Q.8.z v k @.~.r k x.i.h.}.L.{+&+U.V.++&+&+U.R.{+U.v.@+n.o+u+u+m+_ / ^ [ ",
"7 b G+;.,.,.;.a+q+|+n.D.++W.S.R.&+0.k.0.R.w.J J E ^.8.8.X.R.++U.k.++U.R.w.>+S.X.W.F.w.L.S.]+*+y.)+]+e.r.F.&+++)+#+L.>+W.M.x.L.>+>+M.M.}.#.$+~.r ~.~.k k 6.p.E._.L.L.<.x.e.&.K ~.&.&.a.y.y.M.$+W.p.e.&.r @.M.K X &+:.x.M.M.>+&+{+R.w.S.{+F.W.)+&+++V.@+4+j+u+j+/ 4 A [ ",
"$+q.l+1+(+3+:+c+s+9+n.(.>+J.R.k.^.S ..g.l.l.&.X p p l.J.W.&+R.R.++++i.M.#+#+#+y.W.F.E.J.r.Y.Q.b.Y.#+Y.T.&+W.M.,+1.Y.1.1.Q.Q.Y.N.y.^+^+M.%+N.Q.b.&.&.r /.L.c.F.#.x.x.1.&.1.&.b.o.'+o.G.H b.1.1.}.i.E.E.@.e.$.M.M.>+{+$+L.>+>+>+F.E.L.>+S.L.W.)+>+S.U.m.l+j+j+m+3 ;.,._ ",
"m+d+g+d+5+/+s+f+h+(+n.@+++R.R.S.J d S ^.J J.r.F.$.0.&+E.J.F.++0.+.$+&.Z '+o.Y.,+>+L.}.e.Z o.G.G.'+Z.M.^+]+Y.Q.b.G.2.2.2.f.2.G.8+Z.N.y.%+Q.'+w G.G.Q.&.X }.:.<././.}.1.o.G.2.f.f. .`.A.A. .f.G.b.N.a.}.$.L.[.i.&+S.W.{+>+)+&+&+R.w.M.W.J.l.X.{+R.E.{+m.i+j+j+p+G+,.;.V ",
"j+m+g+k+4+/+3+n+k+c+n.|.+.i.i.h.k d p p J E.W.w.h.S F.S.T.F.&+S.w.,+Z 2.f.f.2.b.#+X.r.&.o.2.`.A.f.2.1.,+b.G.2.f.A.h B.B.B.B.`.f.G.Q.Z.Q.G.`.h h A.2.Q.M $.i._.F.Y M b.2.`.h C.j.j.j.{.{.C.3.A.2.w b.~.M./.X i.Y }.W.S.>+)+>+{+F.L.l.)+X.T.T.{+L.X.X.D.2+j+m+g+G+,.;.G+",
"8+m+d+k+4+0+q+f+n+c+R f +.+.i.$.p d p J O.J.)+S.l.d $.S.L.R.R.w.L.Y.G.`.B.A.f.o.Q.Y.1.'+G.`.3.C.C.`.G.b.o.f.B.C.j.{.{.j.{.j.3.A.f.'+b.o.`.3.{.4.j.A.G.Z #.F.<.<.#.1.G.A.C.4.9.U P P P P P U {.3.f.G.Z K x.X Y x.M.#+x.W.L.)+)+{+L.M.W.W.#+X.M.r.)+>+@+2+p+p+g+G+,.,.,.",
"d+m+m+k+l+s+3+n+g+3+n.) ` +.i.L.p.$.l.l.W.S.W.S.w.g.w.L.l.g.R.g.#+Q. .B.~ ~ D 2.o.Q.Q.'+`.C., ; , j.O f.2.B.~ ; ; ; ; ; ; ; ~ ' 2 2.o.2.B.4.; = 2.C. .Z Y i.:.<.a.Z  .3.; ; = = = = = = = = w j.3.f.G &.r.$.@.X y.#+x.X.}.X.)+>+F.i.X.X.x.)+X.p.O.>+V.4+p+g+g+G+,.,.,.",
"d+m+8+d+4+/+q+n+i+:+).6 ` d.F.i.r.r.J.J.E.F.)+)+E.J /.E.p.g.F.w.y.o.`.3.& & , `.2.G.2. .C.U = & = 9.C.`.`.3.& & & & & & & & & & & G.o.f.C.U & & G.{.`.D <.i.:.Y a.G.A.4.& & & & & & & & & & & D {.A.G.1.e.Y [.a.r.W.^+M.r.r.]+W.W.a.6.8.y.y.X.{+)+>+(.4+p+g+k+G+,.;.,.",
"m+d+8+m+h+(+q+i+k+P.q L (.(.:.M.}.T.T.T.W.F.F.S.W.r.E.l.^.0.S.w.M.o.O j.& & w C.B.A.B.C.9.].= & = P j.B.B.4.& & , 3.h A.`.f.2.w D b.b.`.j.P & & 2.9.A.o.a.h.<.$+e.G.h 9.& & , h h h h h B.> & = 9.3.f.b.N.M x.x.M.}.M.i.h.x.W.W.y.e.Z H  .h o.'+'+y.d.2+p+g+h+G+;.-.;.",
"k+g+d+m+k+z+q+f+k+(+q R @+(.i.F.L.E.E.E.E.E.L.E.X [.F.p.p /.S.l.#.o.O {.& & G.4.{.j.{.9.P ].= & = ].9.j.j.9.& & 2.P U 4.3.O  .G.'+&.Z A.4.P & & 2.9.B.'+x.i.:._.a.2.C.U & & 2.].].P P ].].= & = 9.3.2.o.&.y.X.l.~.~.1.}.X T.^+^+l.[.@.7.8.a.1.b.Q.Y.$+4+g+g+h+G+;.=.=.",
"d+m+d+k+k+z+9+n+n+3+q R K.v.R.d.&+E.S.T.6.l.e.W.k l.S.J.@.S.S.l.a.G.B.4.& & > ; ; ; ; = = = f & = ].9.j.C.4.& & > ; ; ~ ' , f.'+b.&.b.A.{.P & & 2.9.h w #.#.}.}.Q. .{.P & & , h h h h h h > & = 9.B.f.b.&.e.,+y.*+#+e.}.@.8.y.N.8.J p.O.6.X /.w.i.x.q.4+k+k+n+G+,.-.=.",
"8+m+^+l+/+0+(+n+n+7+-+5.@+v.m.d.i.S.S.X.T.w.J.W.*+r.E.J.l.>+h.X a.G.B.4.& & & & & & & & & & & & = ].4.C.C.9.& & & & & & & D  .G Z Z G `.{.P & & 2.9.h G.1.&.&.k b.`.m ].& & & & & & & & & & & D {.h 2.D y.K 1.&.y.]+X.K r k K r %.@.6.7.7.Z Z 8.e.}.V.t+h+h+f+,.;.;.;.",
"m+8+d+5+(+q./+l+l+7+n.I.I.L R m.w.X.W.J.S.F.w.S.S.]+X.E.w.S./.} K 2.B.9.& & D `.`.f.`.A.h 3.' & = ].9.j.{.U & & , A.`. .G. .O 1 H ( 1 `.j.P & & 2.9.3.`.2.f.f.G G.O m ].& & > = = ; ; ; = ; , {.l `.G.K M a.y.8.r.>+M.r p k r d %.@.%.%.7.r ~.Z b.&._.1+h+k+n+G+,.,.,.",
"'+m+%+~ z.z.(+f+h+s+n.D.6 W [ K.m.L.W.w.]+X.M.S.S.E.S.$.r.L.X ( &.f.3.9.& & G.{.3.B.3.{.P ].= & = ].U j.j.U & & 2.P 4.m {.s s s  .H 2.`.j.P & & 2.P U l s s O A.`.3.U ].& & f.].P U m m m 4.{.3.O  .H ( k ~.%+1.G e.N.&.1.&.} | 7.%.1 Z Z G &.b.b.N._.4+k+g+n+,.G+,.,.",
"8+Z.2., z.z.@+f+k+0+R d.` _.E F V.E.J.S.X.#+X.l.8.6.J p y.S.k d G f.3.9.& & w l O G.`.3.U ].= & = ].4.3.C.4.& & 2.P 9.m 4.4.{.C.A.f.2.`.{.P & & 2.].].P m {.j.C.C.{.U ].& & 2.P 9.4.{.{.l 3.h  .2.G 1 1 | 1 b.&.( Z Z.N.b.Z.Z %.%.7.%.7.N.1.e.N.y.}.q.1+k+k+l+G+G+G+G+",
"Q.D w+' q.(+L e+f+7+! +.u z @.J L.S.E.X.X.W.M.6.| '+| d }.r.H O `.f.C.9.& & w l g '+o.B.{.].= & = P j.A.3.4.& & & & & & & & & & & f.G.f.C.U & & & & & & & & & & w m U ].& & 2.U j.B.O O s  .f.2.b.G g g d &.Z.&.&.8.N.]+]+M.Y.&.7.&.8.,+N.~.1.Z.,+a.d.b+h+h+f+G+G+G+G+",
"5+1+/+0+7+n.-+e+f+K.N > z K Q.G O.w.E.*+T.#+#+Y.7.Q.7.d l.b.`.f.o.f.j.].& & , B.f.Q.Z f.B.9.= & ; 9.3.`.`.C.& & & & & & & & & & & `.2.2.O {.& & & & & & & & & & w {.U P & & G.{.O  . .g 1 o.G 2.b.G g 1 %.1.Z r Y.8.r.,+,+Q.*+*+&.Z Y.N.y.e.Z.Y.#+x.d.1+h+n+f+G+,.G+G+",
"W C C C j 4 |.l+h+c+-+d._.#.Q.Q.*+..h.E.J.h.r.Y.o.~+%.| }.{+V.L.Q.o.f.B.j.j.C.O 2.Q.o.2.`.j.4.9.4.C.`.2.f.A.C.{.{.j.j.C.{.j.3.3.3.A.G.G.`.C.9.P P P ].].P P U m {.{.m 4.9.m 4.s g G b.| 1 G G o.b.&.( ( G Z H G b.Q.N.*+b.G.Z.#+y.Z ,+#+%+a.a.N.x.L.d.0+l+n+n+G+,.G+G+",
"i i i y y t 9 h+n+q+;+@+m.2 b.Z i.S @.#+7.k ]+Q.Z Q.8.7.X.w.&+U.x.N.o.f.`.A.A.`.b.Y.b.o.G.A.3.3.A.`.G.8+G.f.A.3.B.B.A.A.A.B.3.A.O  .b.Q.G.O 3.{.m U U U m {.j.3.B.O s B.B.l s g 1 K N.p d b.1.1.1.Z ( ( H H H Z o.Q.y.#+b.H b.b.b.,+N.%+,+K 8.K a.M./+s+h+l+f+G+G+G+G+",
"i i i i i i 9 h+k+7+N @+6 ~ b.8._.S p T.Y.y.Y.7.G Y.Q.8.T.T.X.{+F.Y.o.2.2.G.2.`.f.Q.} G o.2. .`.G.'+'+8+o.H 2. . .2.G.G.G.G.o.G.o.o.'+b.Q.G.A.O l s B.B.s s h `.2.1 g  . .O g 1 1 &.N.} d ~.1.o.G G Q.b.G 1 H Z b.a.1.1.b.e.~.#+r.,+a.,+%+K Z 8.&.y./+s+h+h+l+G+G+G+G+",
"i i i i i i y 5+h+a+! ) f T Q.x.>+d | r.T.<.x.X @.8.*+Y.E.)+T.L.S.T.7.Q.'+G.f.'+Q.Q.1 G 7.Z o.2.2.o.Y.*+7.G o.H o.Q.Q.N.1.Q.D Z 1.N.1.Z ~.1.G. .g  .f.2.2.2.w Q.D 1 1 G.H g 1 ( 1 p e.r ( N.x.T b.7.8.b.Z ( | Z e.}.&.1.y.y.1.K ,+,+^+*+N.e.H &.Z e.m.s+f+l+f+G+G+,.G+",
"i i i i i i i /+i+6+! f +.y.Q.i._.@.&.Q.J.V.k.S ^.y.r.T.l.J.Y.Y.e.e.G.O G.2.A.A. .Z ( 7.&.Q.o.'+H Z Y.^+O.8.G H Z @.*+^+*+N.b.b.1.T %+y.K Z o.1 H b.G G Z }.~.a.Z.( ( 7.r | | ( | r 6.p } 1.M.~.x.6.r Z r Z 1 G &.&.}.y.#.e.&.b.,+*+^+%+~.r H H 8.l.m.c+t+o+b+G+,.G+G+",
"i i i i i i i /+o+9+L f _.#+y.$+++/.0./.h.V.0.S l.h.@.y.7.O.T.e.f.C.'+D Z.Z.#+1.2.g | | ~+%.H '+Y.o.o.'+]+e.8.b.G @.N.^+*+Y.Q.Z.Q.N.%+~.r &.Z H G &.8.r e.y.Z.y.~.} | 8.r ( } } } p K } | K #+e.,+r.&.&.8.G H Z &.&.K %+N.Y.Y.Z.Y.Y.#+N.e.Z o.1.p.S./+/+0+t+s+G+G+G+G+",
"i i i i i i i @+t+6+n.(._._.P.D.@+U.++0.i.d.U.L.J...J *+O.p.S.M.)+)+F.k.U.w.L.>+*+ .s g g  .H o.Q.o.Q.Q.^+X.~.Y.G r N.N.%+Z.1.%+%+%+b.'+r r Z G Z 7.r &.&.N.y.x.~.r r 1.r ( p k } } K &.} K x.#+N.1.r &.7.b.G Z r r D o.T #+%+N.Y.Q.Q.Y.r H o.8.6.{+P.(+0+s+3+G+G+G+G+",
"i i i i i i i @+0+|+-+@+(.P.I.5.K.v.U.U.++V.w.S R...| p.8.8.l.X.h.F.J.Y.y.W.r.b.2. .O  . .O H Q.D 1.Z.Z.#+N.N.e.Z K M.a.y.7.r %+a.Z &.Z H | | Z K K k r r a.#.X 8.k r 1.r | p k d } 8.1.k 6.@.}.}.k r r K K 7.| 1 1 H Z Z b.N.&.H %.Z 8.Z H 7.o.o.x.P./+0+t+0+G+G+G+G+",
"i i i i i i i @+c+|+n.N L 5.R K.@+v.H.u.V.++/...v.U.6.l.r.W.W.&.&.e.6.b.b.Z.Q.H O `.o.'+o.Z H '+D ~ >+^+$+Z.^+P.$+#.:.:.:.z K %+#.K #.Y r } k z :.Y } ( } k }.X ,+K @.N.K k v X k k &.6.k ,+r./.X p Z ( k X &.| 1 g G G 1 Z Q.( | 7.%.%.Z '+*+b.G.$+P.1+0+t+e+G+G+G+G+",
"i i i i i i i (+t+|+).N 5.).K.D.F ` ` D.V.++c...0.H.k.F.R.k.H.a.h j.2. .O 2.o.Q.&.a.}.$+<.Y $+^+T d.@+D.P./+D.I.m.d.q._.q.P.2 $+_.q.d.+._.Q Q _.+.e k &.r K M #.<.x.:.<.%+z v v e 2 x.<.#.x.#.M K r K r } r Z | 1 | %.%.Z 1.%+1.N.,+&.7.Z.Y.W.r.$+P.@+r+h+l+e+G+G+G+G+",
"i x i i i i i /+e+a+- R K.L 5.R R |.I.|.m.m.m.f v.I.|.V.V.` W /+,+,+y.1.Z f. .2.f.2.H b.%+z.(.(./+L n.5.K.|+|+5.5.5.N ) m.N /+/+(+m.(.f f (.(.F F f q.q._.z.q._.d.d.q.P.P.:.e Q f @+(+P.+.q._.q.q.q._.:.M z e K K z Y #.M.$+5+z.q.>+M #._.d.d.U.D.K.5.4+g+k+n+G+G+G+G+",
"x i x i x i x 0+t+0+a+}+).).n.-+).).).n.5.|+t.q q !.).).).q '.!.;.;.t.5.5.(+P.(+/+(+% ;+q G+- - q !.,.!.!.- ,.G+G+- q n.|+q q q v+-+L ! L R R R R |+-+n.R @+@+L ).).).n.;+6 6 L ! n.-+-+n.R N L ;+L N L ;+L 6 6 6 6 ! L L ;+L ;+n.n.L L ).t.'.q - G+- 1+k+h+n+G+G+G+G+",
"x x x x i i o b+s+e+f+c+a+7+7+7+7+a+6+7+a+q+7+c+s+7+a+6+9+9+9+|+9+6+a+|+}+}+[+}+[+}+v+}+|+9+9+9+|+v+}+}+}+v+!.!.v+,.v+}+}+}+G+G+v+9+}+a+|+v+v+v+v+v+}+}+v+|+|+v+|+|+9+9+|+|+6+6+9+6+a+a+a+a+a+7+a+7+7+c+s+q+q+a+a+a+6+6+6+6+6+6+a+6+6+a+q+s+t+0+0+c+0+f+h+h+h+G+,.,.G+",
"x x x x x x (.l+b+o+f+t+s+q+q+s+s+s+0+t+0+o+r+e+o+z+0+s+q+q+q+7+q+0+b+s+q+6+a+3+a+7+q+c+0+c+c+3+a+9+9+9+v+|+v+9+7+v+a+9+|+v+G+v+s+q+a+s+a+7+6+a+a+6+6+|+6+7+7+7+q+q+q+7+q+c+c+s+s+s+0+0+t+t+t+0+0+0+0+t+o+o+r+b+t+t+t+t+t+t+b+b+e+r+e+i+f+l+h+n+h+n+k+k+k+k+h+,.-.;.G+",
"x x x x x x $+5+l+b+s+c+0+s+b+b+b+i+b+0+b+o+e+e+k+m+q+0+c+e+t+q+t+i+o+b+s+q+c+0+0+0+0+t+0+c+3+7+9+6+|+|+v+|+|+9+6+9+9+9+9+v+F+a+q+9+a+q+a+a+a+6+9+9+9+a+7+a+7+a+a+a+a+7+q+7+q+q+3+q+q+c+s+0+t+s+c+s+s+c+s+s+s+0+t+e+b+b+0+t+r+t+r+r+o+o+i+n+h+l+h+n+k+g+h+h+n+,.=.-.G+",
"x x x x x ` 8+d+h+4+c+q+o+b+r+i+e+i+r+o+l+k+h+l+k+f+l+i+s+i+b+0+t+b+t+r+a+0+r+r+0+0+0+0+0+c+3+a+s+t+9+6+9+9+6+|+|+9+|+v+|+9+9+9+6+6+7+9+6+6+6+9+|+|+9+7+7+6+a+a+a+6+6+a+a+6+a+7+7+7+7+7+q+c+s+c+q+3+q+3+c+q+q+s+s+b+t+b+s+0+s+0+b+o+o+r+r+e+f+n+n+i+l+n+n+n+i+,.A =.G+",
"W C o o 9 d.d+d+g+z+7+|+b B b [+[+- ;.j 8 8 8 8 8 8 [ a ,.'.I A !.'.).c b j b { ,.{ A A 0 A A I 0 I I n ,.G+G+,.,.,.G+G+G+,.G+G+,.G+G+G+G+,.,.,.,.,.,.,.,.,.,.,.,.,.,.,.,.;.;.,.G+,.,.G+G+;.=.A A I A ,.E+,.E+E+E+E+,.,.,.,.,.,.;.[+[+- ,.,.[+!.!.'.>.>.!.[+[+,.-.;.G+",
"4+5+4+s+5+k+5+1+/+7+b a x i a - G+G+G+3 8 8 7 7 7 7 7 a 3 b 4 ^ ^ _ _ / / / ^ - G+;.A A A I A I A I I n G+G+G+G+,.,.G+G+G+G+G+G+G+G+G+G+G+G+G+,.,.G+G+G+G+,.,.,.G+G+G+G+G+G+,.G+G+G+G+G+G+G+,.;.;.;.,.G+G+G+G+G+G+G+G+G+G+G+;.-.,.G+G+G+G+G+G+G+G+-.=.,.G+G+G+G+,.G+G+",
"1+1+c+;+z+i+7+_ x a x x x x x b { 0 V 4 i i / / / _ ^ _ / / _ _ _ ^ ^ 4 4 b ] ,.,.n A A A A A A A A A -.G+G+G+G+G+G+G+G+G+G+G+G+G+G+G+G+G+G+G+G+G+,.G+G+G+,.G+G+G+G+G+G+G+G+G+G+G+G+G+G+G+G+G+G+G+G+G+G+G+G+G+G+G+G+G+G+G+G+,.;.G+G+G+G+G+G+G+G+G+=.*.;.G+G+G+G+G+G+G+",
"N L N 5.@+C ^ a x x a a a a _ _ ^ _ _ / ^ ^ _ _ _ _ / a 4 b 3 V { - ,.G+,.G+G+G+,.n A n A A A A A A A -.G+G+G+G+G+G+G+G+G+G+G+G+G+G+G+,.G+G+,.,.,.,.,.G+G+,.,.,.,.,.G+G+G+G+G+G+G+G+G+G+G+G+G+G+G+G+G+G+G+G+G+G+G+G+G+G+G+G+G+G+G+G+G+G+G+G+G+G+G+=.*.;.G+G+G+G+G+G+G+",
"a a a a a a _ _ _ _ _ _ _ _ _ _ _ ^ 4 4 a i 9 9 7 7 8 9 n ;.-.;.G+G+G+G+G+G+G+G+,.-.A =.A A A A A A A =.,.G+G+G+G+,.;.,.,.G+G+G+G+,.G+G+,.G+,.;.;.;.,.,.G+,.,.,.;.,.,.G+G+,.,.G+G+G+G+G+G+G+G+G+G+G+G+G+G+G+,.;.;.;.;.;.;.;.G+G+G+G+G+G+G+G+,.G+G+-.=.;.G+G+G+G+G+G+G+",
"_ _ _ _ _ _ _ _ _ _ _ a a a a x a c ,.,.i 8 8 7 7 7 7 7 q ,.=.-.G+G+G+G+G+G+G+,.,.-.=.-.=.=.=.=.*.*.=.-.,.,.,.G+G+;.=.;.-.,.G+G+G+G+,.G+G+G+,.{ -.;.,.,.,.,.,.,.,.,.,.,.G+,.,.G+G+G+G+G+G+G+,.;.,.G+G+G+G+G+-.A A A A *.A A ,.G+G+G+G+G+G+,.,.,.G+-.-.,.G+G+G+G+G+G+G+"};
