/* XPM */
static const char * fs2_btn_uninstall_click_xpm[] = {
"131 58 256 2",
"  	c #B7D7F1",
". 	c #C2E2F9",
"+ 	c #A2B8C8",
"@ 	c #8E9FA9",
"# 	c #626768",
"$ 	c #D7FEFF",
"% 	c #010303",
"& 	c #E0FFFF",
"* 	c #D8F4F4",
"= 	c #E3FFFF",
"- 	c #E6FFFF",
"; 	c #EBFFFF",
"> 	c #F6FFFF",
", 	c #E5FBF9",
"' 	c #788785",
") 	c #CFE9E5",
"! 	c #BEDDD5",
"~ 	c #B7D1CA",
"{ 	c #D0D7D4",
"] 	c #03110A",
"^ 	c #010503",
"/ 	c #030705",
"( 	c #5CAF85",
"_ 	c #AABCB3",
": 	c #0B1811",
"< 	c #5B9778",
"[ 	c #578B70",
"} 	c #121E17",
"| 	c #74AB8C",
"1 	c #69977D",
"2 	c #4F8364",
"3 	c #49775B",
"4 	c #597966",
"5 	c #98B3A3",
"6 	c #010E06",
"7 	c #020A05",
"8 	c #0F2F1B",
"9 	c #0B2013",
"0 	c #529B6D",
"a 	c #355541",
"b 	c #9BC9AC",
"c 	c #859A8D",
"d 	c #0D2B18",
"e 	c #0E2D19",
"f 	c #415D4B",
"g 	c #010703",
"h 	c #070D09",
"i 	c #406B4E",
"j 	c #111713",
"k 	c #4B9061",
"l 	c #698D74",
"m 	c #354239",
"n 	c #182A1D",
"o 	c #6AAA7D",
"p 	c #8EA795",
"q 	c #2E5438",
"r 	c #16251A",
"s 	c #253C2B",
"t 	c #233628",
"u 	c #010903",
"v 	c #3E6046",
"w 	c #3F5845",
"x 	c #54715B",
"y 	c #4D875A",
"z 	c #345B3C",
"A 	c #2D4933",
"B 	c #5D8566",
"C 	c #4D6C54",
"D 	c #010B03",
"E 	c #1F2E22",
"F 	c #45654B",
"G 	c #364B3A",
"H 	c #010D03",
"I 	c #3F6E47",
"J 	c #0A100B",
"K 	c #567D5D",
"L 	c #48754F",
"M 	c #2E3B30",
"N 	c #78987D",
"O 	c #1F3521",
"P 	c #67856A",
"Q 	c #3D653F",
"R 	c #4B6C4C",
"S 	c #537154",
"T 	c #010901",
"U 	c #010701",
"V 	c #010501",
"W 	c #030B03",
"X 	c #030903",
"Y 	c #010301",
"Z 	c #030703",
"` 	c #050B05",
" .	c #060A06",
"..	c #030503",
"+.	c #547954",
"@.	c #0D120D",
"#.	c #3C533C",
"$.	c #6B916B",
"%.	c #425442",
"&.	c #495A49",
"*.	c #0E100E",
"=.	c #365D35",
"-.	c #2A3D29",
";.	c #456444",
">.	c #3E593D",
",.	c #4C644B",
"'.	c #5D745C",
").	c #617A5F",
"!.	c #749371",
"~.	c #697B67",
"{.	c #788A76",
"].	c #182816",
"^.	c #385235",
"/.	c #364C33",
"(.	c #30412E",
"_.	c #455B42",
":.	c #364734",
"<.	c #32472F",
"[.	c #1F2B1D",
"}.	c #3B4F37",
"|.	c #10150F",
"1.	c #586D54",
"2.	c #3D5837",
"3.	c #4C6944",
"4.	c #3A4A36",
"5.	c #53694D",
"6.	c #374F30",
"7.	c #55714D",
"8.	c #4C6245",
"9.	c #3F4F3A",
"0.	c #2E4227",
"a.	c #0A0D09",
"b.	c #5F7B56",
"c.	c #68845F",
"d.	c #2C3529",
"e.	c #2A4022",
"f.	c #283A21",
"g.	c #455D3C",
"h.	c #263122",
"i.	c #4E5E48",
"j.	c #324629",
"k.	c #394932",
"l.	c #030701",
"m.	c #182213",
"n.	c #3E5434",
"o.	c #32422A",
"p.	c #36462E",
"q.	c #1D2519",
"r.	c #3E4E36",
"s.	c #4B5B43",
"t.	c #5E7155",
"u.	c #54624D",
"v.	c #73846B",
"w.	c #374A2D",
"x.	c #3B4E31",
"y.	c #44553B",
"z.	c #435837",
"A.	c #4C643D",
"B.	c #141A10",
"C.	c #546A46",
"D.	c #36422E",
"E.	c #1F2918",
"F.	c #232E1B",
"G.	c #36462A",
"H.	c #1B2216",
"I.	c #425336",
"J.	c #4A5C3D",
"K.	c #3F4B36",
"L.	c #3B4B2E",
"M.	c #3E4E31",
"N.	c #4B5543",
"O.	c #2E3B23",
"P.	c #334127",
"Q.	c #536246",
"R.	c #5C6B4F",
"S.	c #67735C",
"T.	c #030501",
"U.	c #29341E",
"V.	c #2C3721",
"W.	c #313D25",
"X.	c #415031",
"Y.	c #36422A",
"Z.	c #181D13",
"`.	c #3E4A31",
" +	c #343E2A",
".+	c #060705",
"++	c #49553D",
"@+	c #5A6450",
"#+	c #0A0B09",
"$+	c #505D41",
"%+	c #586549",
"&+	c #3B4331",
"*+	c #525A48",
"=+	c #3B452D",
"-+	c #3F4537",
";+	c #21241D",
">+	c #363F25",
",+	c #384127",
"'+	c #4A5534",
")+	c #39402A",
"!+	c #464C39",
"~+	c #2A2D24",
"{+	c #383A34",
"]+	c #434A32",
"^+	c #10120B",
"/+	c #C3C5BD",
"(+	c #1E1F1A",
"_+	c #ACADA2",
":+	c #030301",
"<+	c #050503",
"[+	c #28281F",
"}+	c #33332C",
"|+	c #9C9989",
"1+	c #8E8A79",
"2+	c #2A261B",
"3+	c #1D1B15",
"4+	c #171510",
"5+	c #2E2A21",
"6+	c #13110D",
"7+	c #0A0907",
"8+	c #595144",
"9+	c #0F0D0A",
"0+	c #352F26",
"a+	c #433F39",
"b+	c #120F0B",
"c+	c #251F17",
"d+	c #272119",
"e+	c #2D251B",
"f+	c #362D22",
"g+	c #1E1913",
"h+	c #322A20",
"i+	c #191510",
"j+	c #746451",
"k+	c #665949",
"l+	c #7D6E5C",
"m+	c #45392B",
"n+	c #574837",
"o+	c #3E3327",
"p+	c #2E261D",
"q+	c #4C3F31",
"r+	c #3B342C",
"s+	c #2A221A",
"t+	c #62503D",
"u+	c #16120E",
"v+	c #1C1712",
"w+	c #221C16",
"x+	c #0D0B09",
"y+	c #28231E",
"z+	c #5D5B59",
"A+	c #4C4641",
"B+	c #090706",
"C+	c #030101",
"D+	c #050303",
"E+	c #565353",
"F+	c #030303",
"G+	c #010101",
"Y V V Y Y Y V U U U U T T T T u u u T V G+G+G+Y G+G+G+Y G+G+G+G+G+G+G+G+V U ^ V G+G+G+G+G+G+G+G+G+G+G+G+G+G+G+V g ^ Y G+G+G+G+G+G+G+G+G+G+G+G+G+Y V V V V G+G+Y V V U Y Y Y V V V Y Y V V V V V V V V Y Y Y Y Y Y Y G+Y Y Y G+G+G+G+G+G+G+G+Y G+^ g g g ^ ^ ^ U U V V ",
"G+Y V G+G+G+G+G+G+G+Y Y Y Y Y V V U Y G+G+G+G+G+Y G+Y Y G+G+G+G+G+G+G+G+Y U ^ V Y G+G+G+G+G+G+G+G+G+G+G+G+G+Y U g V Y G+G+G+G+G+Y Y Y V V V Y G+Y Y V U Y G+G+Y Y Y Y Y Y Y Y Y Y Y G+G+Y G+G+G+G+G+G+G+G+G+G+G+G+G+G+G+G+G+G+G+G+G+G+G+G+G+Y G+G+G+Y Y Y Y V V Y Y Y ",
"G+G+G+G+G+G+G+G+G+G+G+G+G+G+G+G+G+G+G+G+G+G+G+G+G+G+G+Y Y Y G+G+G+G+G+G+Y V g g Y G+G+G+G+G+G+G+G+G+G+G+G+G+V ^ g V G+G+G+G+G+G+V U U T T T V G+G+Y V V Y G+G+Y Y Y Y Y G+Y Y Y Y Y Y G+G+G+G+G+G+G+G+G+G+G+G+G+G+G+G+G+G+G+G+G+G+G+G+G+G+G+G+G+G+G+Y Y Y G+Y V Y Y Y ",
"G+G+G+G+G+G+G+G+G+G+G+G+G+G+G+G+G+G+G+G+G+G+G+Y V Y G+Y Y V G+G+G+G+G+Y Y V g u V G+G+G+G+G+G+G+G+G+G+G+G+G+Y ^ u ^ G+G+G+G+G+G+V T T T T T V G+G+G+Y V ^ Y Y V V V Y Y Y Y Y Y Y Y G+Y G+G+G+Y Y Y Y Y Y Y G+G+G+G+G+G+G+Y Y G+G+G+G+G+G+G+G+Y V Y V U U U ^ g ^ V V ",
"G+G+G+G+G+Y G+G+Y G+G+G+G+G+G+G+G+G+G+G+G+G+G+U T V Y G+V U Y G+G+G+G+G+Y Y ^ u g V Y G+G+G+G+G+G+G+G+G+Y V V ^ u ^ G+G+G+G+G+G+V u T T T T U G+G+G+Y g 6 u u 6 6 g V Y Y Y Y Y Y Y G+G+G+G+G+U u u T U V V Y G+Y Y Y V V T T Y G+G+G+Y V V Y Y V U u u 6 6 6 6 6 6 6 ",
"G+G+G+G+G+Y Y G+G+Y Y Y Y Y G+G+G+G+G+G+G+G+G+V U V G+G+Y U Y G+G+G+G+G+G+Y V g u g V Y G+G+G+G+G+G+G+G+U g V V u g Y G+G+G+G+Y V U T T T T U Y G+Y Y g 6 D T D 7 g Y Y Y G+G+G+G+G+G+u+f+0+p+5+0+0+o+q+j+q+8+8+E+z+z+z+A+{+}+0+h+p+f+z+A+c+3+i+4+9+D 6 6 6 ] ] ] ] ] ",
"G+G+G+G+G+Y Y Y G+Y Y G+G+G+G+G+G+G+G+G+G+G+G+V V G+G+G+G+Y Y G+G+G+G+Y G+G+V g g g g U V Y Y G+G+G+G+V u u ^ U g u Y G+G+G+G+Y U U U T T T U G+G+G+Y U u T U U U V Y Y Y G+G+G+G+G+w+h+h+f+o+q+k+l+1+|+_+/+/+/+{ { { { { /+/+_ _+|+1+|+|+t+t+q+o+h+w+] 6 6 6 6 6 6 6 ",
"G+G+G+G+G+Y Y Y V Y Y Y G+G+G+G+G+G+G+G+G+G+G+G+G+G+G+G+G+G+G+G+G+G+G+Y Y G+G+V U g u u g V Y G+G+G+Y U u u g U u 7 Y G+G+G+G+Y U T U u u T U G+G+G+Y V V Y Y Y Y Y Y Y Y G+G+G+G+Y s+h+m+j+_+/+) , = & & & - - ; > > > > > > > > ; = * { /+_+l+m+m+q+Z.g g V ^ U V U ",
"G+G+G+G+G+Y U T u g Y G+Y .+i+u+4+c+s+i+u+4+4+u+v+6+B+B+7+7+7+7+7+x+i+c+c+v+s+x+u+d+2+p+h+e+s+p+5+o+w+w+w+2+f+o+0+0+f+h+h+f+h+f+f+f+f+f+f+f+h+p+e+e+p+p+e+e+p+d+f+e+s+d+d+u+9+u+3+v+h+f+A+p - $ $ & $ $ $ $ & & - > > > ; & $ $ $ $ $ = $ & * v.o+o+m+9+Y Y Y G+G+G+G+",
"G+G+G+G+G+Y V U U T U Y 3+f+f+h+o+t+m+h+p+e+p+q+o+w+u+6+6+9+9+u+i+g+m+n+q+n+n+p+l+1+n+o+m+m+m+n+t+t+n+n+o+n+j+j+j+j+k+t+t+k+n+n+t+t+t+n+n+n+n+n+q+o+m+q+m+m+o+f+8+o+h+p+f+h+w+s+r+n+o+f+c+0+# @ + . * & & - = & - ; > > ; & $ $ $ . .   + c z+q+m+f+d+.+G+G+Y G+G+G+G+",
"G+G+G+G+G+G+G+Y G+G+9+f+q+f+h+h+m+n+n+q+f+s+o+m+s+d+w+g+v+i+v+d+h+q+t+q+n+t+n+m+n+l+t+n+n+n+t+t+8+l+k+t+n+j+l+k+k+j+j+t+t+t+t+n+t+t+t+t+t+t+t+n+q+q+m+n+q+o+o+o+o+o+o+f+d+s+s+e+p+m+n+0+f+h+g+s+r+A+# ' ' c @ @ + + + ~ + + @ @ ' # E+A+m+f+n+t+q+0+p+.+Y Y Y V Y Y V ",
"G+G+G+G+G+G+G+G+B+o+n+o+k+f+p+m+f+d+d+[+w+u+g+i+6+u+g+3+Z.6+g+3+3+s+c+v+2+2+g+g+v+w+0+s+v+w+2+h+0+m+d+c+p+o+h+d+w+c+s+c+c+s+p+e+d+s+s+s+s+2+s+d+g+v+w+c+g+v+v+g+g+g+v+i+v+v+4+4+u+i+s+w+s+5+y+y+d+s+y+p+f+0+r+A+E+z+# ~.z+A+a+r+0+0+0+0+r+r+o+n+n+m+f+7+Y V ^ g 6 7 g ",
"Y G+G+G+G+G+<+5+q+k+t+m+n+f+s+g+a.% Y Y %  .h a.a.a.J @.|.|.@.J J  . . ./ ^ ^ / h  .` h J J ` g ^ ^  .` Z ^ ^ 7 `  ./  .Z  . . ./ Y Y Y ../ ..V Z .+Z ^ .+ .h  ./ / Z ^ .+ . . .h h a.9+^+^+4+3+(+[+~+~+}+r+r+{+a+a+A+E+A+{+{+}+~+[+y+(+(+Z.6+4+0+h+d+.+Y V U u 7 7 g ",
"Y Y G+G+G+9+n+n+n+l+q+o+f+c+^+a. . .a.a.a.^+B.Z.Z.Z.m.E O h.[.Z.Z.B.|.Z.Z.B.H.m.r n t E n n m.r Z.].m.B.m.Z.m.[.[.E q.m.m.H.Z.B.|.^+6+Z.B.m.E.E.m.Z.Z.m.H.m.H.m.B.m.m.m.H.F.q.E.O h.-.E.E.F.U.>+)+ + +&+&+&+-+!+!+!+!+*+N.9.-+ +}+~+~+~+t ;+4+b+b+c+g+..G+Y V V Y Y V ",
"Y Y G+:+e+o+o+n+t+t+m+2+b+ .a.7+a.^+|.|.Z.H.E.E.q.F.V.-.-.f.O m.].U.-.f.f.e.<.(.A A A A A -.(.<.f.U.h.t F.m.m.O h.-.f.W.U.F.U.U.U.U.F.V.F.F.F.P.O.U.G.<.F.U.h.F.U.U.U.U.F.O.o.w.<.2.>.W.U.P.P.G.Y.Y.Y.`.&+&+!+$+$+N.N.@+*+s.*+++!+!+&+ +d.;+Z.b+^+c+g+<+G+G+Y Y Y Y Y ",
"G+G+G+q+t+f+f+m+n+o+6+/ Z  .^+B.B.H.F.F.U.W.O.O.W.G.w.o.0.f.f.A (.0.w.0.f.e.A A :.v ;.F #.(.A <.f.f.0.j.-.(.-.f.O.o.p.x.G.p.>+Y.=+P.P.w.W.P.W.O.O.O.0.O.O.U.F.O.W.W.,+V.U.M.z.n.2._._.L.W.G.f.O.P.P.j.G.P. + +`.=+)+ +K.!+K.K.&+D.=+ +O.[+(+Z.b+6+w+v+<+G+G+G+G+Y T g ",
"Y G+G+k+t+t+m+f+^+^ Z #+B.E.E.m.E.V.U.F.U.O.P.P.W.P.P././.j.q a a ^.n.2.^.k.<.q q 3 2 2 v A q <.4.#.>./.#.a a A G./.p.G.P.P.P.W.V.V.U.O.W.U.V.M.g.P.W.V.V.F.U.U.O.M.W.V.>+`.n.j.p.n.I.I.w.G.0.6.n.P.x.;.F _.n.M.=+x.;.I.`.`.X.L.L.8.D.V.h.E.Z.9+6+g+u+:+G+G+G+Y V U U ",
"Y Y G+o+8+l+s+% V .+a.H.-.0.O.O.U.P.O.V.O.O.O.0.U.p.2.I i ^.L '.S ^.I F ,.C %.w i Q L I i f #._.C ,.F I >.'.x v ^.I Q r.W.O.0.O.O.O.V.W.W.U.W.w.g.g.O.O.E.V.P.W.x.w.,+'+'+J.J.w.P.P.w.W.o.j.w.2.n.j.w.I.+.K ;.2.X.A.0 7.++y.z.z.8.J.J.}./.h.Z.9+^+i+6+:+G+G+Y G+Y Y Y ",
"Y Y Y n+1+j+3+/ a.^+H.U.P.`.x.,+)+k.D.=+k.x.;.;.p.g.R 3 R w F I.r.^.,.y._.).u.f 2 y >.I y 3 %.'.1.y.J.,./.]+}.f >.L L 3.^./.;.;.w.r.Y.k.L.)+>+x.=+w.W.U.F.G.8.G.j.I.J.J.g.A.3.2.x.^.2.0.f.e.e.e.e.0.g._.8.S +.7.z.n.7.J.J.s.g.M.X.I.7.C o.q.Z.7+#+b+b+:+Y Y Y Y Y G+Y ",
"Y Y Y k+l+l+s+h Z.E.U.>+W.U.O.O.V.F.U.W.Y.K._.I.k.r.3 2 ,.C 3 i v t.S.I.4.y.$+s.K K >.F B C $+Q.9.K.++c.5.v L 2 ;.C 2 R k.k.y._.=+ +W.F.F.V.O.V.V.>+>+U.V.X.z.j.W.=+I.L.2.z.j.G.w.^.>.W.V.f.f.e.e.0.0.x.z._.2 7.M.I R g.G.L.z.X.M.I.8.J.O.Z.B. .a.u+6+^ V V V V V V U ",
"Y Y Y k+j+j+5+Z.F.V.O.`.I.j.,+`.w.P.P.O.p.y.y.9.:.W.F C y.R K K 5.A.M. +r.r.4.y.5.1.w 8.t.8.r.4.r.K.o.n.3.S K K ;._.x %.d.}.y.y.y.o.W.o.Y.w.=+P.w.I.=+U.O.G.A.C.X.>+L.'+L.G.6.w.j.I.z.P.O.O.f.F.V.f.U.V.W.z.S +.=.=.L +.L.P.j.e.0.e.0.6.I.V.H.a.7+u+b+7 D u u u u T T ",
"G+G+G+t+j+j+0+q.U.L.=+M.I.x.L.=+M.n.G.)+=+=+K.&+D.=+y.y.;.5.L r.6.j.:.>.r.y.x ,.>.g.8.;.>.w C 5.r.9.%.<.j.x.2.+.,._.y.K.=+&+`.`.=+L.=+w.n.`.L.M.x.I.L.P.G.U.J.Q.G.X.8.J.X.2.n.M.G.M.M.P.f.f.f.f.U.U.W.W.O.X.z.g.k k F K g.g.n.Q I =.e.0.z.k.[.a.x+v+i+|.B.;+~+}+~+}+a+",
"G+G+G+t+j+j+5+q.>+n.0.>+y._.z.I.y.w.P.O.W.X.&+ +I.L.W.k.}.x.;.>.y.p.}.2.#.}.8.,.#.#.G #.#.%.,._.#.2.>.4.:._._.3.p.>.o.W.M.r. +`.`.O.W.G.x.z.r.I.J.I.W.G.I.,+Y.O.P.L.z.z.g.R g.>.w.O.P.P.^.w.z Q V.f.j.f.j.z.n.O.0.Q j.A.z.L 2.I 0 L L.0.0.f.Z.a.(+m+f+v+;+r+8+n+k+k+j+",
"G+G+G+n+k+j+2+H.++y.M.)+J.J.~ ~ g.M.G.,+=+N ~ N I._.a /.~ p }.>._.(.(.<.5 ~ g.>.4.#.~ ~ }.`._.y.~ c (.(./.;.#.}.5 ~ /.v y.++5 ~ ~ ~ ~ ~ ~ p X.J.J.~ ~ ~ ~ ~ ~ ~ ~ ~ c z.I.J.;.N ~ 5 z.J.x.L.2.=.P.0.~ ~ j.A.L.j.I 2.G.X.n.! ! k 0 y 2.6.6.s m.a.4+q+o+4+;+0+a+A+k+j+j+",
"G+G+G+n+t+t+2+Z.=+X.8.I.++++= = y.M.Y.`.M.c = p ++y.9.#.= = c C 9.<.:.:.~ = >.n.x.w = = #.}.#.>.= = ' G D.%.3 #.~ = #.9.++5 = = = = = = = = {.I.J.= = = = = = = = = p `.W.=+g.~ = = ,.W.j.n.6.6.P.P.= = o.x.L.Q 0 g.L.M.z.= = k 0 k ;.w.-.s t J i+o+h+u+3+5+a+8+k+l+j+",
"G+G+G+n+n+t+5+[.=+C.Q.J.`.r.= = k.p.=+`.J.p = p ++s.F R = = * B :.4.:.G ~ = #.k.x.;.= = _.p.r.%.= = * x /.4.F _.~ = F s.J.~ = p p p c c 5 = p z.y.c p 5 _ = ) 5 p p v. +P.O.%.= * = c F.j.P.M.n.O.o.= = n.g.M.w.x.w.`.I.L.= = g.;.3.x./.s O r a.4+n+o+4+v+0+a+k+k+8+l+",
"G+G+G+q+n+t+5+[.=+`.Y.++s.8.= = i.r.I.++Q.p = p I.8.i.}.= = = ) 9./.G #.~ = #.#.#.f = = w G 2.#.= = = ) %.<.4.I.~ = #.u.y.~ = ++8.$+y.r.~.~ N 7.%.8.X.L.~.= ~ _.i.Q.!+!+!+M.c = p = ) U.j.O.U.P.w.p.= = 6.3.X.2.L n.X.M.G.= = 2.8.8.k.<.O O }  .b+p+o+u+;+~+8+j+k+8+8+",
"G+G+G+m+n+t+2+h.J.~.v.{._ p = = 5.J.I.I.I.p = p _.y.r.9.= ) * = ~ }.4.4.~ = /.w w F = = v w #.<.= ) * = ~ y.s._.~ = 9.9._.~ = w.n.y.X.++8.t.!.N 5 _+v.{.c = ~ `.p.=+`.]+]+'+! = R.~ = {.x.L.6.Q L.0.= = o.=.g.M.A.n.x.Y.G.= = J.J._.y.:.[.[.|./ ~+a+p+u+(+m+k+j+8+k+k+",
"G+G+G+m+n+n+5+&+t.S.~.t.i.+.= = 6.g.!+]+J.p = 5 ,.,.g.++= ! c = = 5 <.(.~ = >.f F L = = C w ;.z = ~ ~.= = p 9.C ~ = ++g.5.! = ~ ~ ~ ~ ~ ~ p b.b.S i.~.S.c = ! s.!+Q.s.$+]+@+= _ Q.p = _ z.j.o.n.G.-.= = >.y A.G.^.F n.M.n.= = X.n.x.p.k.[.Z.J .+(+q+f+u+y+a+k+8+A+A+n+",
"G+G+G+o+q+q+5+d.r.k.w.2.F +.= = +.+.Q.$+S 5 = 5 ++Q.s.$+= ! s.p = = c g.~ = 3 x 3 < = = [ x x 3 = ~ >.p = = c &.~ = Q.s.s.5 = = = = = = = = N 7.+.>.n.G.~.= ~ N.%+t.t.R.++5 = N s.'.= = $+L.o.g.L.p.= = `.R z.L.g.+.I.C.g.= = L.M.O.U.o.E.|.J .+4+o+o+x+y+a+a+8+k+8+j+",
"G+G+Y h+m+m+w+F._.5.t.$.l B = = L $.K S K 5 = p I.$+'.1.= ~ %._.~ = * B ~ = 2 _.C < = = B ;.F 2 = ~ v F ~ = * '.~ = 1.t.++Q._ ! ! ! ! ! ) = 5 c.B P $.5.{.= ~ O.)+Q.R.%+++* * u.y.8.~ = N G.G.n.w.j.= = p.g.z.X.8.Q.I.y.w.= = L.L.w.h.E.E.Z.^+#+6+o+o+(+3+;+0+A+k+j+l+",
"G+Y V o+q+m+[+(.).).P ,.B B = = R $.< 2 K b = p =+$+'.s.= ~ a f x ) = ) ! = 3 _._.R = = 8._.;.2 = ~ i K B ) = ) ! = i.'.++`.s.[ 2 K 2 o c = b c.B B 1.B c = ! y.5.5.I.)+{.= = = = = = = ! p.x.x.M.#.= = `.w.M.'+I.L.L.w.G.= = I.g.p.q.J |.B.B.a.6+f+f+;+~+(+r+8+j+k+j+",
"G+V ^ o+n+q+~+(.u.~.).'.l P = = $.c.o [ '.5 = 5 5.l '.N.= ! [ 3 K l * = = = 3 C R K = = S R L 2 = ~ C ,.x 1 * = = = s.B P p 5 '.x K 1 < c = ~ ).l l x ~.c = ! ,.).7.S ++_ = = = = = = = = u.z.z.y.F = = r.8.Q L.X.L.x.y.J.= = I.r.q.|.O r } H.a.v+m+h+(+{+{+A+A+k+l+l+",
"Y V V f+q+q+[+d._.s.u.1.x u.= = 5 b b b 5 ! = 5 P 1 '.).= ! | < i %.c = = = 2 K S F = = R +.B 2 = ! 8.%.>.3 b = = = '.P N = ) 5 5 5 b b ~ = b b.u.'.5.i.{.= ~ ++%+7.C R.= ) v.{.~.| | _ = 5 3.g.s.'.= = c p 5 5 5 5 1.y.J.= = p p ' ' p c G h.J 3+q+h+3+{+{+# 1+z+l+l+",
"G+Y Y h+m+m+c+h.i.*+@+S ,.u.) = = = = = = = = p '.'.'.@+= ! b b K y.C 5 = = 3 7.,.#.= = >.5.7.[ = ~ ,.,.I.< b ! = = @+'.x ) = = = = = = = = p *+*+5.5.u.{.= ~ y.%+C.x 5 = p +.J.$+< 1 N = * t.1.u.|+= = = = = = = = N y.I.= = = = = = = = [ s } ^+h+e+6+(+}+a+z+S.# ~.",
"G+G+G+h+o+m+[+h.K.++1.1.5.s.p * = = = = = = ~ 5.b.R.4 P = ! | | B 5.l C ~ = ( 2 v z = = z L [ ( = ~ B P i.1 | o ! = l x R.p * = = = = = = ! R.u.i.1.R.i.v.= ~ u.u.y.'.) = u.,.5.R.P $.C.) = ~ {.u.t.= = = = = = = = N ++++= = = = = = = = l M j |.h+p+#+x+6+3+;+[+}+a+",
"G+G+G+o+o+f+3+d.K.r.u.i.,.N.++i.P i.++@+{.~.i.u.b.~.{.N P l l l '.'.P 4 B ( 0 F i 3 3 3 3 F R ( 0 ).P P '.).1 l l P N ~.c.t.u.u.v.v.u.K.1.).N.N.i._.Q.s.9.s.++8+@+N.u.Q.Q.!+S ).t.v.$.!.t.s.K.4.y.i.p.F. +_.( $.1+!.R.$+n.z.X.2.Q Q.).t.w (.h.#+4+m+f+@.^ X h J 9 r n ",
"G+G+G+f+f+m+g+;+y.i.S S S $+N.u.Q.c.~.~.!.).s.s.'.v.P 1 N 1 1 1 P 1.1.1.'.0 y ++w 0 2 0 2 K.8.k 2 '.1.1.'.l 1 1 1 N 1 P v.R.N.s.$.!.'.P '.$+u.++u.S P 5.i.5.!+n+*+++*+S.%+++5.b.Q.@+{.c.$+L.0.j.P.Y.U.O.w.J.K +.t.$.b.y.+.c.J.L I k.P ~.m q.Z.*.u+o+m+] D u T : 8 8 8 ",
"G+V Y f+m+m+v+;+s.).x P S N.i.i.$+$+s.,.5.~.'.1.i.~.l 1 | l ~.).l {.v.1.F 0 [ Q.C ( 2 < 0 8.1.0 2 &.).v.N l S.~.1 | 1 l '.,.t.S.'.,.8.y.Q.s.i.*+s.B P '.).S.%+@+++!+S.S.b.b.B [ b.1+c R.J.$+7.C.J.W.Y.J.J.J.b.b.R.!.c.R.s.R.$+k I  +t.).%.} Z.j 6+q+m+D T U D d 8 8 8 ",
"G+U V h+o+f+v+q.5.P ).!.5.Q.Q.!+*+i.C x s.s.'.'._.1.P | l l ).S c.~.&.!+u.< B 5.2 ( [ < ( L S < < N.9.u.~.).).~.l 1 1 ~.,._.P 5.s.i.'.,.i.s.!+%+i.'.P ).P b.$+%+).{.v.t.t.b.l | t.t.S.{.S.Q.A.t.z.x.M.J.M.X.R.Q.t.R 8.I.4.s.$+o 0 &+I.S.&.t n j b+m+h+V Y G+] 8 8 8 8 ",
"G+V Y c+s+w+4+q.g.S N N B ,.++]+Q.*+).'.5.%.s._.x ).!.| P 4 P B S r.,.%.1.[ 2 S 4 < [ < < C +.< [ i._._.}.K B P 4 l | P B C s.N.&.1.).).Q.Q.]+i.F B N $.+.7.!+R.P N S.P t.b.c.1 P p 5 5 N {._+{.%+C.R.R.z.g.J.8.s.=.I e.F.z.t.K R  +k.).s.s E j 9+h+g+G+G+Y 9 8 e e e ",
"G+V Y v+w+g+;+;+`.C.1.v.B 5.%+++R.1.@+R.1.u.N.C 4 '.P N l b.K '.i.*+5.++S < < C 2 0 [ [ < 3 S 1 < ,.s.@+N.5.K +.b.l !.c.'.4 u.N.u.t.@+t.R.Q.-+%+R !.).t.C.++v.!.v.@+~.!.!.N o ( 5 N t.y.u.u.S.~./+|+5.$+C.b.$+R n.g.I 0.F.2.>.j.>.d.k.s.++M E |.x+s+w+U Y ] d e e e e ",
"G+Y G+4+v+g+(+~+)+7.t.v.N B R.'.t.R.u.N.++&.v.).4 4 P l ~.c.K 4 t.u.++9.C [ 4 S [ [ 3 2 < 2 S 4 2 ,.K.s.Q.'.4 K c.P l B 4 4 ~.~.N.N.N.1.@+N.u.u.K !.R.,.y.]+S.t.v.t.{.N p 5 5 b p $+=+x.G.U.f.P.]+]+y.x.3.7.C.L Q z.x.F.h.6.e.f.U.Z.H.h.D.(.[.a.x+w+4+V V 9 8 e e e e ",
"G+Y G+g+w+g+;+~+9.v.v.c.N B t.P $.N 4 u.).l P 1 | | o B C C 4 4 x _._.R S 3 '.x < < 3 2 < B x ).3 1.F %.i.4 4 x C S B 1 | N P ).P i.N.4 B s.i.y.C P R.u.u.s.@+@+x 4 S.N b p p b p N ~.8.I.s.R.z.j.2.g.g.t.t.3.( Q P.I 6.F.V.U.f.E.|.@.Z.E E Z.#+7+g+u+G+7 d e e e e e ",
"G+G+G+e+w+g+[+[+-+{.~.Q.~.P $.$.c.1 1 S.P | !.l 5 | | K F 3 1 B 2 F >.8.*+3 S ).x 3 F i 3 x u.C C *+8._.3 [ 1 [ a :.w 3 [ 4 #.%.C %.N.C f :.:.:.%.&+h.-+@+-+!+&+%.# ~.{.P v.v.v.5 b N t.@+~.~.7.7.).'.I.I.8.g.7.f.E.Q >.U.F.m.F.[.Z.|.J @.|.j a.7+i+u+G+: 8 e e e e e ",
"G+G+G+e+f+m+d+Z.~+&+8.I.R.R.).).i.u.x N.t.$.!.$.| | | B K < 4 x 4 C &.#.r.%.4.9.m a i i f N.-+:.9.4.%.&.C B 4 3 a s M A A M d.h.d.M :.m ~+d.(.d.~+q.B.H.;+h.H.Z.~+&.!+&+a 4.4._.i.'.'.{.c 5 p c /+_ i.F.f.0.o.f.F.0.Q <.f.F.H.O O n H.|.h @.j  .7+w+v+X d e e e e e e ",
"G+G+G+o+q+n+[+J B.m.h.h.h. +w f D.d.{+}+&+y.%.w v C C a f w m M M d.d.M d.d.h.q.Z.t A a G ~+~+d.E h.M }+{+M d.d.t E n E E t t E q.(+;+;+B.q.r j @.@.@.a.#+|.^+a.|.;+E E M %.~.' c c c @ c P t.s.*+*+;+].O [.[.m.B.].O q.q.q.m.B.m.J J @.|.|.J % b+e+w+: e e e e e e e ",
"G+G+G+o+m+q+[+% G+% / Z .+ .@.j a.a.@.@.*.|.|.} } r } } j *.|.j @.*.j j J a.#+#+a.: @.} } *.a. . . .|.Z.Z.J a.#+#+J J J @.: j @.#+.+.+.+/ #+a./ % G+G+Y % ....Y ../ % % G+.+*.*.(+;+;+~+H.^+^+` V V ../  ..+ . .../ .+.+ .@.a. . . .#+h  ..+<+b+g+w+g+d e d d d e e d ",
"G+G+G+m+m+m+f+g+i+w+w+w+v+u+b+9+9+b+9+9+9+9+9+9+b+b+b+u+u+v+i+6+6+b+6+b+b+b+b+b+9+x+x+x+7+7+x+7+7+7+B+7+7+.+<+.+B+B+B+B+B+7+b+.+x+B+G+G+<+<+.+B+Y B+....B+.+<+.+B+7+x+x+x+7+<+B+<+:+<+:+<+<+7+9+9+7+7+x+x+x+9+b+6+v+i+6+u+b+6+9+b+6+6+6+6+b+i+h+e+v+c+d d d d d d e d ",
"G+G+G+m+q+q+q+q+o+m+m+m+f+f+h+p+d+e+c+c+w+w+w+w+w+w+c+d+s+s+w+g+g+g+g+w+w+w+g+g+v+v+v+i+i+u+6+u+u+u+6+6+6+9+7+x+9+b+b+9+6+b+v+b+u+v+B+G+B+#+x+b+.+6+x+B+7+B+x+x+x+b+4+i+i+g+i+u+6+b+4+b+x+u+v+c+g+u+6+u+u+u+v+g+y+s+e+d+s+g+w+g+v+g+v+u+u+v+w+h+s+c+0+E d d d d d d d ",
"G+G+G+o+m+m+n+q+o+m+f+m+o+h+s+s+d+d+w+d+w+g+c+c+e+w+g+v+v+v+i+v+v+i+v+w+g+v+i+u+u+4+u+u+6+u+6+b+b+b+b+6+b+6+b+x+x+x+9+b+b+b+u+9+x+u+b+D+B+x+x+x+x+x+x+7+7+7+7+#+9+x+6+4+i+g+w+g+g+g+g+i+u+g+c+s+p+w+u+w+e+4+g+u+k+q+e+p+s+c+g+c+h+c+c+c+v+g+i+v+c+0+r+&+d d d d d d d ",
"G+G+G+p+o+o+o+f+h+o+o+h+p+d+d+s+s+c+g+v+g+v+c+w+c+v+v+u+u+i+u+u+u+u+i+v+i+u+6+6+6+6+6+b+9+b+b+9+x+9+b+b+9+6+6+x+7+7+x+x+x+9+x+6+9+x+x+x+x+7+B+7+x+7+7+9+x+x+x+7+w+v+b+4+i+g+g+g+g+g+d+d+g+b+d+w+c+w+g+c+p+g+p+h+p+m+f+m+q+h+d+d+p+e+p+d+c+s+u+i+5+m+8+j+O d d d d d d ",
"G+G+G+:+:+............:+Y Y % :+:+Y Y Y Y Y Y Y C+C+C+C+G+Y V V G+G+U u g V V g u g g U U U T V G+G+G+Y G+G+V V Y Y Y Y Y Y G+Y Y Y Y Y G+G+G+G+G+G+G+G+Y G+G+Y g D U U u V Y Y Y Y Y Y Y G+:+:+V V g g ..V ..<+:+..:+Z ` W ..Y % :+Z H 7 G+B+6+y+A+8+8+t 8 r r 9 r E ",
"G+G+G+G+G+G+G+Y G+G+G+G+G+G+G+G+G+G+G+G+G+G+G+G+G+G+G+G+G+Y V V G+G+U T V Y V U V Y Y Y V T U V G+G+G+G+G+G+G+Y Y Y G+G+G+Y Y Y Y V T U G+G+G+G+G+G+G+G+G+G+G+G+U D u U V Y G+G+G+G+G+G+G+G+G+G+G+G+V V Y G+G+G+G+G+G+Y T T Y G+G+G+V D U Y G+.+6+;+[+r+a+r+v+5+r+5+q+",
"G+G+G+G+G+G+G+Y Y G+G+Y Y Y Y Y Y Y Y Y G+Y G+G+G+G+G+G+G+Y V V G+G+U u V V V V Y Y G+G+V U U V G+G+G+G+G+G+G+G+Y V Y G+Y Y V V V U u T Y G+G+Y V Y G+G+G+G+G+G+Y U U V G+G+G+G+G+G+G+G+G+G+G+G+G+U g V Y G+G+G+G+G+G+Y T T G+G+G+G+Y V Y G+G+: d d 9 |.p+y+*.4+[+[+0+",
"G+G+G+G+G+G+G+Y Y G+G+Y Y Y Y Y Y Y Y Y G+Y G+G+G+G+G+G+G+Y V V G+G+U u U Y V Y Y G+G+G+Y U U V G+G+G+G+G+G+G+G+Y g g Y Y V T V V T T T Y G+Y V U Y G+G+G+G+G+G+G+G+G+G+G+G+G+G+G+G+G+G+G+G+G+G+G+U U V Y G+G+G+G+G+G+Y T T G+^ 6 G+G+G+G+G+6 d d d d 9 9 H.@.j j j Z.",
"Y G+G+G+G+G+Y Y G+G+G+G+G+G+G+G+G+G+G+G+G+G+G+G+G+G+G+G+G+Y V Y G+G+V U Y Y Y Y Y G+G+G+Y V U Y G+G+G+G+G+G+G+G+V u D g Y V U V V T T T Y G+Y V V Y G+G+G+G+G+G+G+G+G+G+G+G+G+G+G+G+G+G+G+G+G+G+G+G+Y V Y G+G+G+G+G+G+Y T T Y : 9 ] ^ G+G+V 9 d d d d d d d d d d d d ",
"G+G+Y G+G+G+G+G+G+G+G+G+G+G+G+G+G+G+G+G+G+G+G+G+G+G+G+G+G+G+Y V G+G+Y Y G+Y Y Y Y G+G+G+G+Y V Y G+G+G+G+G+G+G+Y g g U V Y Y V V V U T U G+G+G+Y Y Y G+G+G+G+G+G+G+G+G+Y G+G+G+G+G+Y V U U V V V Y G+Y Y Y G+G+G+G+G+G+Y T U Y ] 9 9 9 ] G+] d d d d d d d d d d d d d "};
