/* XPM */
static const char * fs2_btn_uninstall_xpm[] = {
"131 58 256 2",
"  	c #121619",
". 	c #151C21",
"+ 	c #212B32",
"@ 	c #2F454F",
"# 	c #2C4E58",
"$ 	c #47686E",
"% 	c #336165",
"& 	c #657E80",
"* 	c #010303",
"= 	c #57786D",
"- 	c #67BC97",
"; 	c #5D9C81",
"> 	c #03100A",
", 	c #010503",
"' 	c #030705",
") 	c #5B9276",
"! 	c #6F9783",
"~ 	c #5DB184",
"{ 	c #568A6F",
"] 	c #55A076",
"^ 	c #77BF97",
"/ 	c #121E17",
"( 	c #85C09E",
"_ 	c #0B2114",
": 	c #4F8364",
"< 	c #49775B",
"[ 	c #8BD5A9",
"} 	c #111613",
"| 	c #010E06",
"1 	c #020A05",
"2 	c #0F2F1B",
"3 	c #0A1A10",
"4 	c #355541",
"5 	c #76AE8B",
"6 	c #0D2B18",
"7 	c #0E2D19",
"8 	c #52996B",
"9 	c #223629",
"0 	c #76A486",
"a 	c #698E76",
"b 	c #010703",
"c 	c #6EB887",
"d 	c #406B4E",
"e 	c #77BF8F",
"f 	c #77B78D",
"g 	c #6FAA83",
"h 	c #4C554F",
"i 	c #4B9060",
"j 	c #74B087",
"k 	c #405E49",
"l 	c #354239",
"m 	c #182A1D",
"n 	c #263F2D",
"o 	c #6EA47D",
"p 	c #53735C",
"q 	c #2E3C32",
"r 	c #2E5438",
"s 	c #80BF91",
"t 	c #6A9E78",
"u 	c #679A74",
"v 	c #4D6C55",
"w 	c #010903",
"x 	c #405846",
"y 	c #8BA090",
"z 	c #2D4933",
"A 	c #17251A",
"B 	c #010B03",
"C 	c #335C3B",
"D 	c #1F2F22",
"E 	c #57835F",
"F 	c #45654B",
"G 	c #567C5D",
"H 	c #010D03",
"I 	c #0A100B",
"J 	c #5E8765",
"K 	c #3F6E46",
"L 	c #48754F",
"M 	c #66936C",
"N 	c #374A39",
"O 	c #68896B",
"P 	c #648267",
"Q 	c #3D6540",
"R 	c #537155",
"S 	c #5E7C60",
"T 	c #779479",
"U 	c #4B6C4D",
"V 	c #415442",
"W 	c #A4B9A5",
"X 	c #557956",
"Y 	c #010901",
"Z 	c #010701",
"` 	c #010501",
" .	c #030B03",
"..	c #030903",
"+.	c #010301",
"@.	c #030703",
"#.	c #060D06",
"$.	c #060A06",
"%.	c #030503",
"&.	c #3E5A3E",
"*.	c #2B3E2B",
"=.	c #456345",
"-.	c #4C644C",
";.	c #365B34",
">.	c #3D543C",
",.	c #83AD81",
"'.	c #5E745D",
").	c #172816",
"!.	c #162315",
"~.	c #385335",
"{.	c #354733",
"].	c #20361D",
"^.	c #364C33",
"/.	c #455C42",
"(.	c #283D25",
"_.	c #72906D",
":.	c #586D55",
"<.	c #0D120C",
"[.	c #3B4F37",
"}.	c #2B3629",
"|.	c #2D4428",
"1.	c #32452E",
"2.	c #4C6846",
"3.	c #536A4E",
"4.	c #697A65",
"5.	c #304A29",
"6.	c #3D5936",
"7.	c #55714E",
"8.	c #4C6245",
"9.	c #3F4F3A",
"0.	c #37502F",
"a.	c #3D5435",
"b.	c #273323",
"c.	c #0A0D09",
"d.	c #3B4A36",
"e.	c #5D7156",
"f.	c #050A03",
"g.	c #1F2A1B",
"h.	c #455C3C",
"i.	c #10150E",
"j.	c #617B57",
"k.	c #798873",
"l.	c #172511",
"m.	c #21311A",
"n.	c #273A1F",
"o.	c #3A4E31",
"p.	c #394932",
"q.	c #69845D",
"r.	c #030701",
"s.	c #1D2B16",
"t.	c #2B4021",
"u.	c #4A623F",
"v.	c #1D2519",
"w.	c #4B5B43",
"x.	c #4F5E48",
"y.	c #73846B",
"z.	c #1A2315",
"A.	c #36492C",
"B.	c #44553B",
"C.	c #314227",
"D.	c #445838",
"E.	c #323F2A",
"F.	c #3F4E36",
"G.	c #54624C",
"H.	c #344529",
"I.	c #141A10",
"J.	c #556B47",
"K.	c #4A5543",
"L.	c #3D4E31",
"M.	c #425336",
"N.	c #3F4B36",
"O.	c #373B34",
"P.	c #232D1B",
"Q.	c #3B4B2E",
"R.	c #4A5B3D",
"S.	c #5C6C4F",
"T.	c #28341E",
"U.	c #2E3B23",
"V.	c #2B3721",
"W.	c #181E13",
"X.	c #25311A",
"Y.	c #313E25",
"Z.	c #405031",
"`.	c #4F5E41",
" +	c #536245",
".+	c #030501",
"++	c #3E4A31",
"@+	c #060705",
"#+	c #586649",
"$+	c #49553D",
"%+	c #5A6450",
"&+	c #0A0B09",
"*+	c #21241E",
"=+	c #0E0F0D",
"-+	c #3A452D",
";+	c #3C4334",
">+	c #364128",
",+	c #38412B",
"'+	c #292D23",
")+	c #464D39",
"!+	c #050603",
"~+	c #4A5435",
"{+	c #373F25",
"]+	c #434A32",
"^+	c #6B7060",
"/+	c #10120B",
"(+	c #1E1F1A",
"_+	c #646560",
":+	c #8A8D7B",
"<+	c #030301",
"[+	c #33322B",
"}+	c #16150F",
"|+	c #29271E",
"1+	c #272318",
"2+	c #0B0A07",
"3+	c #332F23",
"4+	c #1D1B15",
"5+	c #43413B",
"6+	c #5B564A",
"7+	c #2E2A21",
"8+	c #0F0D09",
"9+	c #2A251B",
"0+	c #13110D",
"a+	c #1E1A13",
"b+	c #3B352C",
"c+	c #585044",
"d+	c #322A1F",
"e+	c #251F17",
"f+	c #16130F",
"g+	c #272420",
"h+	c #2D251B",
"i+	c #191510",
"j+	c #675A4A",
"k+	c #4D463D",
"l+	c #372D22",
"m+	c #45392B",
"n+	c #574837",
"o+	c #2E261D",
"p+	c #4C3F31",
"q+	c #766450",
"r+	c #7E6F5E",
"s+	c #090705",
"t+	c #3F3327",
"u+	c #2A221A",
"v+	c #15110D",
"w+	c #62503D",
"x+	c #272019",
"y+	c #1C1712",
"z+	c #221C16",
"A+	c #120F0C",
"B+	c #0D0B09",
"C+	c #2D231B",
"D+	c #050302",
"E+	c #030101",
"F+	c #030303",
"G+	c #010101",
"+.` ` +.+.+.` Z Z Z Z Y Y Y Y w w w Y ` G+G+G++.G+G+G++.G+G+G+G+G+G+G+G+` Z , ` G+G+G+G+G+G+G+G+G+G+G+G+G+G+G+` b , +.G+G+G+G+G+G+G+G+G+G+G+G+G++.` ` ` ` G+G++.` ` Z +.+.+.` ` ` +.+.` ` ` ` ` ` ` ` +.+.+.+.+.+.+.G++.+.+.G+G+G+G+G+G+G+G++.G+, b b b , , , Z Z ` ` ",
"G++.` G+G+G+G+G+G+G++.+.+.+.+.` ` Z +.G+G+G+G+G++.G++.+.G+G+G+G+G+G+G+G++.Z , ` +.G+G+G+G+G+G+G+G+G+G+G+G+G++.Z b ` +.G+G+G+G+G++.+.+.` ` ` +.G++.+.` Z +.G+G++.+.+.+.+.+.+.+.+.+.+.G+G++.G+G+G+G+G+G+G+G+G+G+G+G+G+G+G+G+G+G+G+G+G+G+G+G+G++.G+G+G++.+.+.+.` ` +.+.+.",
"G+G+G+G+G+G+G+G+G+G+G+G+G+G+G+G+G+G+G+G+G+G+G+G+G+G+G++.+.+.G+G+G+G+G+G++.` b b +.G+G+G+G+G+G+G+G+G+G+G+G+G+` , b ` G+G+G+G+G+G+` Z Z Y Y Y ` G+G++.` ` +.G+G++.+.+.+.+.G++.+.+.+.+.+.G+G+G+G+G+G+G+G+G+G+G+G+G+G+G+G+G+G+G+G+G+G+G+G+G+G+G+G+G+G+G++.+.+.G++.` +.+.+.",
"G+G+G+G+G+G+G+G+G+G+G+G+G+G+G+G+G+G+G+G+G+G+G++.` +.G++.+.` G+G+G+G+G++.+.` b w ` G+G+G+G+G+G+G+G+G+G+G+G+G++., w , G+G+G+G+G+G+` Y Y Y Y Y ` G+G+G++.` , +.+.` ` ` +.+.+.+.+.+.+.+.G++.G+G+G++.+.+.+.+.+.+.G+G+G+G+G+G+G++.+.G+G+G+G+G+G+G+G++.` +.` Z Z Z , b , ` ` ",
"G+G+G+G+G++.G+G++.G+G+G+G+G+G+G+G+G+G+G+G+G+G+Z Y ` +.G+` Z +.G+G+G+G+G++.+., w b ` +.G+G+G+G+G+G+G+G+G++.` ` , w , G+G+G+G+G+G+` w Y Y Y Y Z G+G+G++.b | w w | | b ` +.+.+.+.+.+.+.G+G+G+G+G+Z w w Y Z ` ` +.G++.+.+.` ` Y Y +.G+G+G++.` ` +.+.` Z w w | | > | | | | ",
"G+G+G+G+G++.+.G+G++.+.+.+.+.G+G+G+G+G+G+G+G+G+` Z ` G+G++.Z +.G+G+G+G+G+G++.` b w b ` +.G+G+G+G+G+G+G+G+Z b ` ` w b +.G+G+G+G++.` Z Y Y Y Y Z +.G++.+.b | B Y B 1 b +.+.+.G+G+G+G+G+G+8+u+h+a+a+x+e+e+l+6+d+l+h+C+z+y+d+1+}+i+i+i+i+u+6+;+i+v+8+8+2+B | | | > > > > > ",
"G+G+G+G+G++.+.+.G++.+.G+G+G+G+G+G+G+G+G+G+G+G+` ` G+G+G+G++.+.G+G+G+G++.G+G+` b b b b Z ` +.+.G+G+G+G+` w w , Z b w +.G+G+G+G++.Z Z Z Y Y Y Z G+G+G++.Z w Y Z Z Z ` +.+.+.G+G+G+G+G+y+e+z+u+o+d+m+k+c+j+^+_+_+^+_+_+_+^+^+_+_+^+_+6+6+r+:+p+p+t+h+e+i+> | | | | | | | ",
"G+G+G+G+G++.+.+.` +.+.+.G+G+G+G+G+G+G+G+G+G+G+G+G+G+G+G+G+G+G+G+G+G+G++.+.G+G+` Z b w w b ` +.G+G+G++.Z w w b Z w 1 +.G+G+G+G++.Z Y Z w w Y Z G+G+G++.` ` +.+.+.+.+.+.+.+.G+G+G+G++.z+e+[+c+^+^+4.& & = $ $ $ $ $ $ $ $ = & & & ! & & = y.k.:+j+l+l+t+W.b b ` , Z ` Z ",
"G+G+G+G+G++.Z Y w b +.G++.@+i+f+i+e+u+i+f+i+i+f+y+0+s+s+s+s+2+s+s+2+i+e+e+y+u+8+f+1+9+o+d+h+9+o+7+t+z+z+z+9+3+t+l+l+l+d+d+l+d+d+l+3+3+3+3+3+d+o+h+h+o+o+h+h+o+x+3+h+u+x+x+v+8+0+4+f+x+h+k+h $ $ $ = $ $ % % % % % % % % % % % % $ $ $ = $ $ _+c+l+d+l+2++.+.+.G+G+G+G+",
"G+G+G+G+G++.` Z Z Y Z +.4+l+l+d+t+w+m+d+o+h+d+p+b+z+f+0+0+8+8+v+i+a+m+n+p+n+n+o+r+:+n+t+m+m+m+n+w+w+n+n+t+n+q+q+q+q+j+w+w+j+n+n+w+w+w+n+n+n+n+n+p+t+m+p+m+m+t+l+c+t+d+o+l+d+a+e+l+p+d+u+i+0+. + + @ h $ $ $ $ % # # # # # # # # @ @ @ q + + 7+l+l+u+y+%.G+G++.G+G+G+G+",
"G+G+G+G+G+G+G++.G+G+8+l+p+l+d+d+m+n+n+p+l+u+t+m+u+x+z+a+y+i+y+x+d+p+w+p+n+w+n+m+n+r+w+n+n+n+w+w+c+r+j+w+n+q+r+j+j+q+q+w+w+w+w+n+w+w+w+w+w+w+w+n+p+p+m+n+p+t+t+t+t+t+t+l+x+x+x+u+u+t+p+o+u+z+A+v+i+f+f+}     . . . . . . . . .   } =+A+y+z+x+m+n+t+h+z+!++.+.+.` +.+.` ",
"G+G+G+G+G+G+G+G+s+t+n+t+6+l+o+m+l+1+1+|+z+v+a+i+0+f+a+4+W.0+a+4+4+1+e+y+9+9+a+a+y+z+3+u+y+z+9+d+3+m+x+e+o+t+d+x+z+e+u+e+x+u+o+h+x+u+u+u+u+9+u+x+a+y+z+e+a+y+y+a+a+a+y+i+y+i+}+v+A+A+a+v+y+4+v+A+2+B+2+2+2+D+D+s+2+s+2+0+D+!+s+s+B+8+v+y+z+e+x+m+p+l+u+@++.` , b | 1 b ",
"+.G+G+G+G+G+!+7+p+j+w+m+n+l+u+a+c.* +.+.* $.#.c.c.2+I <.i.i.<.<.I $.$.$.' , , ' #.$.$.#.I I 1 b , , $.$.@., , 1 1 $.' $.!+$.$.$.' +.+.+.%.' %.` @.@+@., @+$.#.$.' ' @., @+$.$.' ' ' , %., +., ..$.#.c.I #.$.%., +.+.!+, $.%.' ' * * +., 1 , G+@+u+e+y+!++.` Z w 1 1 b ",
"+.+.G+G+G+8+n+n+n+r+p+t+l+e+<.c.$.$.c.c.c./+}+W.W.W.W.D D b.g.W.W.I.i.W.W.I.!.!.A m 9 D m A !.A W.).z.I.W.W.W.g.g.D v.W.z.z.W.I.i./+i.I.I.!.g.g.z.W.W.z.z.z.z.W.I.W.l.z.z.P.z.s.m.g.b.W.W.l.l.m.m.v.z.s.z.W.z.z.W.I.I.I./ !.!.i.<.c.I 3 _ I !+G+%.i+v+<+G++.` ` +.+.` ",
"+.+.G+D+h+t+t+n+w+w+m+9+A+$.c.2+c.<.i.i.W.z.g.v.v.P.V.(.(.(.].!.s.T.(.(.(.(.1.*.z z z z z *.*.1.(.T.b.(.P.!.!.].T.(.V.Y.T.X.T.T.T.T.P.V.P.m.P.>+U.T.H.1.X.T.X.X.T.X.T.T.X.U.H.A.H.a.a.n.s.].X.T.m.m.s.].s.z.X.U.Y.V.X.E.b.}.1.b.}.b.P.v.A i.&+* !+i+0+%.G+G++.+.+.+.+.",
"G+G+G+p+w+l+l+m+n+t+0+' !+$./+I.I.z.P.P.T.Y.U.U.Y.H.p.1.*.n.n.z *.|.A.|.n.(.z z {.k =.F >.*.z 1.n.n.|.H.*.z *.n.U.1.1.L.A.-+Y.,+-+>+>+Q.Y.Y.Y.U.U.U.C.U.U.T.m.U.Y.Y.>+V.T.L.D.a.a.h.B.C.T.t.s.m.m.m.m.].s.l.l.m.l.l.I.g.m.m.X.g.g.m.s.v.I.I c.%.@+i+0+<+G+G+G+G++.Y b ",
"+.G+G+j+w+w+m+l+/+, !+2+I.g.v.W.g.V.T.X.V.U.E.Y.Y.C.H.^.^.H.r 4 4 ~.a.6.~.p.1.r r < : : k z r 1.[.~.&.^.>.4 4 z H.^.A.H.E.Y.>+Y.V.V.T.U.Y.T.V.Z.h.C.Y.V.V.X.X.T.U.++Y.V.{+++Z.C.A.a.a.[.C.t.n.|.5.].t.;.C z (.n.m.].5.n.T.T.n.n.n.~.T.z.!.I.c.%.$.0+8+* G+G+G++.` Z Z ",
"+.+.G+t+c+r+u+* ` @+c.z.(.C.U.U.T.C.U.V.U.U.U.C.T.A.a.K d ~.L '.R ~.K F -.v V x d Q L d d k >.V v -.F K &.'.p Q ~.d Q F.Y.U.Y.U.U.U.V.Y.Y.V.Y.A.h.h.U.U.s.V.C.Y.L.Q.>+~+~+R.u.A.C.C.A.Y.Y.t.t.0.A.n.(.5.K L ~.5.t.;.i Q A.E.H.5.~.~.o.|.n v.<.%.c.v+A+<+G+G++.G++.+.+.",
"+.+.+.n+:+q+a+' c.<.z.T.>+++L.{+,+p.,+-+p.o.=./.{.h.U < U &.F M.F.~.2.B./.S G.k E X &.K i p V e.:.B.h.2.^.]+[.k >.L L 2.o.^.=.=.A.F.,+p.Q.,+>+L.-+A.Y.T.P.A.8.A.H.M.u.R.h.u.u.a.L.~.6.C.U.t.t.n.n.t.6.>.&.F L Q 5.5.Q o.Q.[.0.|.H.A.2.F b.W.i.@+$.A+A+<++.+.+.+.+.G++.",
"+.+.+.w+q+r+1+c.W.s.T.{+Y.T.U.U.V.P.T.Y.,+d./.M.p.F.< : -.U < d k e.q.)+d.B.`.w.G E >.F J v `. +9.N.$+q.3.x L : =.U : U p.p.B./.-+>+U.P.P.V.U.V.V.Y.{+T.V.Z.D.H.Y.-+M.Q.6.6.H.A.A.a.&.Y.V.n.n.t.t.|.C.o.M.&.: 2.5.Q Q 0.V.C.A.A.A.o.h.h.V.W.I.$.c.f+0+, ` ` ` ` ` ` Z ",
"+.+.+.j+q+q+7+W.P.V.U.++M.H.>+++A.C.>+U.-+B.B.9.{.U.F v B.U E G 3.u.L.E.F.[.d.B.3.:.x =.e.8.F.d.F.N.E.Z.2.R G G =./.p V }.[.B.B.B.E.U.H.H.A.-+Y.A.M.-+T.U.H.u.J.Z.{+Q.~+Q.H.0.A.H.M.M.C.U.U.n.m.V.(.X.n.Y.D.R X ;.C L L A.Y.C.t.|.t.C.o.M.V.z.c.2+v+A+1 B w w w w Y Y ",
"G+G+G+w+q+q+3+v.T.Q.-+Z.M.o.Q.-+L.a.A.,+-+-+N.-+,+-+B.B.=.3.L F.0.C.{.>.F.B.R -.&.h.2.u.6.x -.-.F.>.V 1.5.o.>.X 2./.B.N.-+;+++++-+Q.-+A.a.++Q.L.o.M.Q.C.H.T.R. +,+Z.8.R.Z.6.a.L.H.++Z.C.n.n.n.n.T.T.Y.Y.U.M.D.h.i i F G h./.a.Q K ;.t.Y.D.p.g.c.2+y+i+i.I.*+'+[+7+[+;+",
"G+G+G+w+q+q+7+v.{+a.E.{+D./.D.M.B.Q.>+U.Y.F.-+,+M.Q.Y.p.[.o.=.&.B.{.[.>.>.[.8.=.>.>.N [.>.V -./.>.>.&.d.{././.2.A.&.E.Y.L.F.E.++++U.Y.H.o.B.F.M./.M.Y.H.M.>+>+U.Y.Q.D.D.h.U h.&.Q.U.>+C.~.A.C Q V.(.C.V.H.6.Z.U.C.Q 1.u.D.L 6.K 8 L Q.Y.C.b.W.c.(+m+d+y+*+b+c+c+6+j+q+",
"G+G+G+n+j+q+9+z.$+B.L.,+R.R.t u h.L.H.{+-+X u R F./.4 ^.t E [.>./.1.*.1.J u h.B.d.>.t t [.++/.B.u G 1.1.^.=.[.[.J t ^.k B.M.J u u u M M u E F.R.R.u u u t t M u t u G D.M.R.u.X u J D.R.o.Q.6.;.Y.C.u M H.u.Q.H.K 6.A.Z.a.o g i 8 < 6.^.0.(.!.c.i+p+t+}+*+3+5+k+6+q+q+",
"G+G+G+n+w+w+9+W.-+Z.8.M.$+$+f f B.L.,+++++G f E $+B.9.>.f f E v 9.1.{.{.u f >.a.o.V f f >.[.a.&.f f p N 1.V < >.u f >.9.$+J f f f f f f f f 7.M.R.f f f f f f f f f S ++Y.-+h.u f f h.Y.C.a.0.0.>+C.f f C.L.Q.Q 8 h.Q.Z.D.f f i 8 i =.^.(.n 9 I i+t+d+f+4+7+5+c+j+r+q+",
"G+G+G+n+n+w+7+P.-+J.2.h.++F.f f p.H.-+++h.J f S $+R.F U f f j v {.N {.N u f V p.o.=.f f /.A.F.V f f j k ^.^.F /.t f F w.R.t f J J J X X J f J D.B.G J M M f g O J J 3.E.>+U.^.f j f X m.H.C.L.a.U.C.f f ~./.L.A.o.A.++M.Q.f f h.=.2.L.^.(.D A c.}+n+t+}+y+[+5+6+6+6+r+",
"G+G+G+p+n+w+7+g.-+++>+$+w.8.f f x.F.M.$+`.J f S M.8.x.[.f f f g ^.^.N >.u f >.>.[.k f f V N >.>.f f f g >.1.d.M.t f >.G.B.u f $+8.`.B.F.3.t S 7.V 8.M.Q.2.f u R.x.x.)+)+)+++X f J f o T.H.U.T.H.A.1.f f 0.2.Z.6.L a.Z.L.H.f f 6.8.8.p.1.b.D / $.A+o+t+f+*+7+6+q+j+c+6+",
"G+G+G+m+n+w+|+b.R.4.y.k.W y f f 3.R.M.M.M.E f E /.B.F.9.f g j f t [.N d.u f ^.V x F f f k x >.{.f g j f u B.w.$+t f 9.F./.t f A.a.B.F.$+8.e.T T W W y.k.O f u ++-+-+++]+]+~+o f J.t f 7.L.Q.^.Q Q.C.f f |.;.D.Z.u.M.L.H.H.f f h.R./.B.{.g.g.i.' '+5+o+f+(+m+j+q+c+6+j+",
"G+G+G+m+n+n+3+;+e.^+4.e.x.X f f ^.h.)+]+R.J f M -.2.h.$+f o S f f J 1.E.u f &.k F L f f v x =.C f u F f f E 9.v t f $+h.3.o f t t t u u t E j.j.R x.4.^+4.f o w.)+ +w.`.]+B.f M  +J f M D.H.C.6.H.*.f f &.i u.H.~.F Z.L.M.f f Z.a.L.1.p.g.W.I @+(+p+l+f+g+p+j+c+k+k+k+",
"G+G+G+t+p+p+7+}.F.p.A.6.F X f f X X G.R.R M f O $+x.R.`.f o w.E f f G h.t f < R p ) f f { p p < f t >.E f f G w.o f  +w.w.O f f f f f f f f j.J.X &.a.H.-.f t K. +e.e.S.~+J f X w.7.f f $+Q.H.h.Q.1.f f ++U D.Q.h.L M.J.h.f f Q.Z.U.b.E.g.i.I @+}+t+t+B+g+5+5+c+j+c+j+",
"G+G++.d+m+m+z+P./.3.e.O O J f f L M E R X u f J )+`.'.:.f u V x t f j L u f : /.v ; f f { =.F : f t k F t f j -.t f :.e.$+w.M o g o o g j f M q.J O O G.G f u U.,+G.S.#+$+j j G.B.8.t f X H.H.a.A.1.f f -+h.D.Z.`. +M.D.A.f f Q.Q.Q.b.v.g.W.<.&+0+t+t+(+4+*+3+k+j+q+r+",
"G++.` t+p+m+|+1.'.S P -.P J f f U M ] : G t f S -+`.e.w.f u 4 k U j f g o f < /./.U f f 8./.=.: f u d G G g f g o f 8.'.$+++w.{ : G : t M f g q.J P :.P O f o B.G.J.M.{+3.f f f f f f f o -+o.L.Z.>.f f ++A.Z.D.M.Q.Q.A.H.f f M.h.A.v.I i.I.I.c.0+l+l+*+[+(+b+6+q+j+q+",
"G+` , t+n+p+'+E.G.4.4.p a P f f M q.g { p M f O 3.O e.K.f o { < G E j f f f < v U G f f R U L : f t U -.p : j f f f w.P O J O '.R G u u M f ,.S a O :.4.O f o -.j.7.R $+M f f f f f f f f /.D.D.B.F f f F.u.Q Q.Z.Q.Q.B.R.f f M.F.v.i.].A / z.c.y+m+d+(+O.O.k+k+j+r+r+",
"+.` ` l+p+p+|+}.K.w.G.3.:.G.f f u o o t O 0 f O P a '.4.f j g ; d V G f f f : E R F f f U X J : f o 8.V &.< g f f f e.P ! f g O _.O t o o f o j.G.'.3.x.R f t $+#+7.v G.f g 7.e.-.{ 8 M f J 2.h.w.'.f f G J u M M u 2.D.R.f f E G U d : < n D I 4+p+d+4+O.O.^+:+_+^+r+",
"G++.+.d+m+m+e+'+x.x.%+R -.G.g f f f f f f f f J e.'.'.%+f j [ [ G B.U M f f < 7.2.>.f f &.3.7.{ f t -.-.M.u [ e f f %+'.p j f f f f f f f f O x.x.3.3.G.'.f u )+#+J.p M f S X R.`.) u E f j e.e.G.y f f f f f f f f J B.M.f f f f f f f f d n / /+d+h+0+(+[+5+%+^+_+4.",
"G+G+G+d+t+m+|+b.N.$+:.:.3.w.P j f f f f f f t -.j.3.= O f g c s J 3.a v t f ~ E Q C f f C L ) ~ f t E O x.t s c g f a p S.J j f f f f f f g G.G.x.:.S.x.3.f u G.G.B.'.g f K.-.3.S.P _.J.g f W k.G.e.f f f f f f f f P $+$+f f f f f f f f R q } i.d+o+&+B+0+4+*+g+[+5+",
"G+G+G+t+t+l+4+b.N.F.G.x.-.K.$+x.P w.$+%+T 4.x.G.j.4.T ! O a ) a '.'.P P S ~ 8 =.d < < < < F U ~ ] S P P '.S a a a O 0 4.q.e.G.G.y.y.G.N.3.S K.K.x./. +w.9.R.$+c+%+K.G. + +)+R S S.y._._.e.w.N.d.B.x.-+P.E./.~ M :+_.S.`.a.D.Z.6.Q  +'.e.x E.b.&+i+m+l+<., ..c.I _ A m ",
"G+G+G+l+l+m+y+v.B.x.R R R `.K.G. +4.4.4.T S K.w.'._.P ! 0 ! a ! O :.:.:.'.8 i $+x ] : 8 : N.8.i : '.:.:.'.a ! ! ! ! a P y.S.K.w._._.'.O '.`.G.$+G.R P 3.8.3.)+n+x.$+6+^+#+$+3.j. +%+k.q.`.Q.C.C.C.,+T.U.Q.R.E X e.O j.B.X q.R.L K p.P 4.l v.W.=+f+t+m+> B w Y 3 2 2 2 ",
"G+` +.l+m+m+y+*+K.S X O R K.x.x.`.`.R.-.3.4.'.:.x.P O ! 0 a 4.'.a T y.:.F 8 8  +v ~ : ] ] 8.7.] : x.S y.T O '.4.T 5 a a e.-.e.'.'.-.8.B.x.w.x.w.w.S P '.'.'.6+%+$+k+^+'.j.j.J ) j.:+:+S.R.`.S.J.u.Y.,+R.R.R.j.j.S._.P S.w.S.`.i K E.e.4.V / W.} 0+p+m+B Y Z B 6 2 2 2 ",
"G+Z ` d+t+l+y+v.3.O '.T 3.G. +)+x.x.v :.w.w.'.'./.:.O 0 a a S e.P 4.x.)+G.; : 3.: - { ] ~ L R ) ) K.9.G.P S S P a ! 0 4.8./.P 3.w.8.'.-.x.w.)+#+w.'.O S O j.`.#+S a y.e.X j.M g e.e.'.T j. +u.7.D.Q.L.R.L.Z.S. +e.U 2.M.d.u.`.o 8 -+M.4.h 9 m } A+m+d+` +.G+> 2 2 2 2 ",
"G+` +.e+u+z+i+v.h.7.T o J 2.$+]+ +x.4.'.3.V K./.p S _.5 P S P S 7.F.-.V :.) : 7.p ; { ) ) v X ) { x././.[.G P O '.a 5 O P v w.K.w.:.4.S G. +]+x.2.J o _.X J.)+S.P T 4.P e.j.q.u P y W W :+k.W k.#+J.S.S.D.h.R.8.w.;.K (.P.D.e.G U E.p.j.K.}.D } 8+d+a+G+G++._ 2 7 7 7 ",
"G+` +.y+z+a+*+*+++2.:.y.P 3.G.$+S.:.%+S.:.G.K.v p '.O ! a X G G x.x.3.$+R ; ) v : 8 { { ) < R ; ) -.K.%+K.3.G X S a T P S S -.K.G.e.%+e.S. +]+#+U T j.e.2.$+y._.y.%+4.T _.,.o ~ ( T e.B.G.G.^+4.W y #+`.J.j.`.U a.h.K |.P.>.&.|.B.}.p.w.$+q D i.B+u+z+Z +.> 6 7 7 7 7 ",
"G++.G+i+y+a+(+'+{+7.e.y.0 J S.e.e.S.G.K.$+x.y.'.S S O a 4.J G = e.G.$+9.v { p R { { < : ) : R = : -.N.w.G.'.p E q.P a P S S y.4.K.K.K.:.%+K.G.G.G _.S.-.D.]+j.j.y.e.k.T y W ( [ y `.-+Q.A.T.n.C.]+]+B.L.2.7.J.L Q D.o.X.b.^.(.V.T.W.z.'+1.q *+c.8+z+}+` ` 3 2 7 7 7 7 ",
"G++.G+a+z+a+*+'+9.y.y.q.T J e.O _.o '.G.S O P T 0 5 o J v v = = p K./.U R < e.p ) ; < : ; : :.S < :.F V 8.G = p v R J t 0 ! O '.O x.K.= J /.x.B.v O #+G.%+w.%+%+p 4.^+T W ,.y W y :+4.8.M.w.S.D.H.6.h.h.e.e.2.~ Q C.K ^.P.V.T.n.g.i.<.W.D D W.&+2+a+v+G+1 6 7 7 7 7 7 ",
"G+G+G+h+z+a+|+'+;+:+4. +4.O O O P ! a j.O 5 T a ( - g G F < ; P : F &.8.x.< 7.'.p < F d < p G.U v  +=./.< ) a { 4 {.x < { = 4 V v V K.v k {.{.{.V ;+'+N.%+;+)+-+V '.4.T O y.y.y.W W T e.%+4.4.7.7.S '.M.M.8.h.7.n.s.Q &.T.P.l.m.g.W.i.I <.i.} c.2+i+f+G+3 2 7 7 7 7 7 ",
"G+G+G+h+l+m+1+W.'+;+8.M.3.%+S S x.G.p K.e.O _.M 0 ^ g J E ) = :.= v k >.F.V d.9.l 4 d d k K.d.{.9.d.V x v P S < 4 *.q z z q }.b.}.q ;+l '+}.q }.b.v.I.z.*+'+z.W.'+h )+;+4 d.d.K.x.'.'.k.T W y :+W W x.m.n.C.1.n.X.|.Q 1.V.P.z.].].m z.i.#.<.} $.2+z+y+..6 7 7 7 7 7 7 ",
"G+G+G+t+p+n+7+<.I.z.X.T.b.E.V k -+[+O.[+;+B.V 4 x v v 4 k x l q q }.}.q }.}.b.v.W.9 z 4 N '+'+}.D b.q [+O.q }.}.9 m m D D 9 9 D v.(+*+*+I.v.A } <.<.<.c.&+i.<.c.i.*+D D q K.P ! y y y y y P e.w.x.h *+).].P.P.!.I.s.9 v.v.v.W.I.!.I I <.i.i.I * A+h+z+3 7 7 7 7 7 7 7 ",
"G+G+G+t+m+p+|+* G+* ' @.@+$.i.} c.c.=+<.=+i.} / / A / / } =+i.} i.=+} } I c.&+&+c.3 <./ / =+c.$.$.$.i.W.W.I c.&+&+I I I I i.} <.&+@+@+@+' &+c.!+* G+G++.* %.%.+.%.!+* * G+@+=+} (+*+*+'+(+/+i.f.` ` %.' $.@+$.$.%.' @+@+$.<.c.$.$.$.&+c.$.@+!+A+a+z+a+6 7 6 6 6 7 7 6 ",
"G+G+G+m+m+m+l+a+i+z+z+z+y+v+A+8+8+A+8+8+8+8+8+8+A+A+A+v+v+y+i+0+0+A+0+A+A+A+A+A+8+B+8+8+2+2+2+2+2+2+s+2+2+@+!+@+s+s+s+s+s+2+A+@+2+s+G+G+!+D+@+s++.s+%.%.s+@+!+@+s+2+B+2+B+2+@+s+D+<+D+<+!+@+2+A+8+2+2+2+2+2+8+A+0+y+i+0+v+A+0+8+A+0+0+0+0+A+i+d+h+y+e+6 6 6 6 6 6 7 6 ",
"G+G+G+m+p+p+p+p+t+m+m+m+l+d+d+o+x+h+e+e+z+z+z+z+z+z+e+x+u+u+z+a+a+a+a+z+z+z+a+a+y+y+y+i+i+v+0+f+f+v+0+0+0+8+2+8+8+A+A+8+0+A+y+A+v+y+s+G+s+2+B+A+@+0+2+s+2+s+B+B+B+A+i+i+i+a+i+f+0+A+i+A+8+v+y+e+a+f+0+f+v+v+y+a+9+u+h+x+u+a+z+a+y+y+y+v+f+y+z+d+u+e+[+D 6 6 6 6 6 6 6 ",
"G+G+G+t+m+m+n+p+t+m+l+m+t+d+u+u+x+x+z+x+z+a+e+e+h+z+a+y+y+y+i+y+y+i+y+z+a+y+i+v+f+i+f+v+0+v+0+A+A+A+A+0+A+0+A+2+B+B+8+A+A+A+v+8+B+f+A+F+s+B+B+B+B+8+B+2+2+s+2+2+8+B+0+i+i+a+z+a+a+a+a+i+f+y+e+u+o+z+v+z+h+i+a+f+6+p+h+o+u+e+a+e+d+e+e+e+y+a+i+y+e+3+b+;+6 6 6 6 6 6 6 ",
"G+G+G+o+t+t+t+l+d+t+t+d+o+x+x+u+u+e+a+y+a+y+e+z+e+y+y+v+f+i+}+f+f+f+i+y+i+f+0+0+0+0+0+A+8+A+A+8+8+8+A+A+8+0+0+B+2+2+2+8+8+8+2+0+8+8+B+B+B+2+s+2+B+s+2+8+B+B+8+2+z+y+A+}+i+a+a+a+a+a+x+x+a+A+x+z+e+z+a+e+o+y+o+d+o+m+l+m+p+d+x+x+o+h+o+x+e+u+f+i+7+m+c+q+D 6 6 6 6 6 6 ",
"G+G+G+<+D+%.D+%.%.%.%.<++.+.* <+<++.+.+.+.+.+.+.E+E+E+E+G++.` ` G+G+Z w b ` ` b w b b Z Z Z Y ` G+G+G++.G+G+` ` +.+.+.+.+.+.G++.+.+.+.+.G+G+G+G+G+G+G+G++.G+G++.b B Z Z w ` +.+.+.+.+.+.+.G+<+<+` ` b b %.` %.!+<+D+D+!+#.f.%.+.* <+@.H 1 G+s+A+g+k+c+6+b.2 A !._ A D ",
"G+G+G+G+G+G+G++.G+G+G+G+G+G+G+G+G+G+G+G+G+G+G+G+G+G+G+G+G++.` ` G+G+Z Y ` +.` Z ` +.+.+.` Y Z ` G+G+G+G+G+G+G++.+.+.G+G+G++.+.+.+.` Y Z G+G+G+G+G+G+G+G+G+G+G+G+Z B w Z ` +.G+G+G+G+G+G+G+G+G+G+G+G+` ` +.G+G+G+G+G+G++.Y Y +.G+G+G+` B Z +.G+@+0+*+|+b+5+b+y+7+b+3+k+",
"G+G+G+G+G+G+G++.+.G+G++.+.+.+.+.+.+.+.+.G++.G+G+G+G+G+G+G++.` ` G+G+Z w ` ` ` ` +.+.G+G+` Z Z ` G+G+G+G+G+G+G+G++.` +.G++.+.` ` ` Z w Y +.G+G++.` +.G+G+G+G+G+G++.Z Z ` G+G+G+G+G+G+G+G+G+G+G+G+G+Z b ` +.G+G+G+G+G+G++.Y Y G+G+G+G++.` +.G+G+3 6 6 _ i.o+g+=+i+g+g+3+",
"G+G+G+G+G+G+G++.+.G+G++.+.+.+.+.+.+.+.+.G++.G+G+G+G+G+G+G++.` ` G+G+Z w Z +.` +.+.G+G+G++.Z Z ` G+G+G+G+G+G+G+G++.b b +.+.` Y ` ` Y Y Y +.G++.` Z +.G+G+G+G+G+G+G+G+G+G+G+G+G+G+G+G+G+G+G+G+G+G+G+Z Z ` +.G+G+G+G+G+G++.Y Y G+, | G+G+G+G+G+| 6 6 6 6 _ _ z.i.} } I.W.",
"+.G+G+G+G+G++.+.G+G+G+G+G+G+G+G+G+G+G+G+G+G+G+G+G+G+G+G+G++.` +.G+G+` Z +.+.+.+.+.G+G+G++.` Z +.G+G+G+G+G+G+G+G+` w B b +.` Z ` ` Y Y Y +.G++.` ` +.G+G+G+G+G+G+G+G+G+G+G+G+G+G+G+G+G+G+G+G+G+G+G+G++.` +.G+G+G+G+G+G++.Y Y +.3 _ > , G+G+` 3 6 6 6 6 6 6 6 6 6 6 6 6 ",
"G+G++.G+G+G+G+G+G+G+G+G+G+G+G+G+G+G+G+G+G+G+G+G+G+G+G+G+G+G++.` G+G++.+.G++.+.+.+.G+G+G+G++.` +.G+G+G+G+G+G+G++.b b Z ` +.+.` ` ` Z Y Z G+G+G++.+.+.G+G+G+G+G+G+G+G+G++.G+G+G+G+G++.` Z Z ` ` ` +.G++.+.+.G+G+G+G+G+G++.Y Z +.> _ _ 3 > G+> 6 6 6 6 6 6 6 6 6 6 6 6 6 "};
