/* XPM */
static const char * fs2_btn_update_hover_xpm[] = {
"131 58 256 2",
"  	c #4D4648",
". 	c #766F72",
"+ 	c #565054",
"@ 	c #251D23",
"# 	c #332B37",
"$ 	c #433D47",
"% 	c #0F1112",
"& 	c #0D1719",
"* 	c #0F1B1D",
"= 	c #0F1D1F",
"- 	c #010303",
"; 	c #293535",
"> 	c #465050",
", 	c #414B4A",
"' 	c #1C2927",
") 	c #3B4644",
"! 	c #616A68",
"~ 	c #56605D",
"{ 	c #545A58",
"] 	c #7A8480",
"^ 	c #37423D",
"/ 	c #88958F",
"( 	c #010503",
"_ 	c #75BE99",
": 	c #61957B",
"< 	c #65716B",
"[ 	c #9BABA3",
"} 	c #717B76",
"| 	c #031009",
"1 	c #589F78",
"2 	c #548E6E",
"3 	c #73A78A",
"4 	c #010D06",
"5 	c #121E17",
"6 	c #88AC97",
"7 	c #010B05",
"8 	c #030805",
"9 	c #0F2317",
"0 	c #0F1913",
"a 	c #111613",
"b 	c #223429",
"c 	c #AAC2B3",
"d 	c #BACFC2",
"e 	c #508362",
"f 	c #4B765A",
"g 	c #6BA680",
"h 	c #33493B",
"i 	c #415B4A",
"j 	c #010703",
"k 	c #31553D",
"l 	c #0E1410",
"m 	c #5D8269",
"n 	c #597964",
"o 	c #17241B",
"p 	c #182A1D",
"q 	c #678A71",
"r 	c #010903",
"s 	c #406F4B",
"t 	c #CDDDD1",
"u 	c #DDE5DF",
"v 	c #2D4933",
"w 	c #3C5742",
"x 	c #546B59",
"y 	c #010B03",
"z 	c #436349",
"A 	c #4C6D52",
"B 	c #9EC3A5",
"C 	c #010D03",
"D 	c #273C2A",
"E 	c #96B29A",
"F 	c #6D756E",
"G 	c #D5DDD6",
"H 	c #1D331F",
"I 	c #3C6440",
"J 	c #C9D3CA",
"K 	c #6E9271",
"L 	c #7A977C",
"M 	c #2E3E2F",
"N 	c #678868",
"O 	c #637E64",
"P 	c #010B01",
"Q 	c #010901",
"R 	c #010701",
"S 	c #010501",
"T 	c #030903",
"U 	c #010301",
"V 	c #030703",
"W 	c #060A06",
"X 	c #030503",
"Y 	c #0B120B",
"Z 	c #496849",
"` 	c #0A0E0A",
" .	c #5A775A",
"..	c #0C0F0C",
"+.	c #353C35",
"@.	c #848B84",
"#.	c #D9E0D9",
"$.	c #365A34",
"%.	c #455B44",
"&.	c #557054",
"*.	c #8BA68A",
"=.	c #172616",
"-.	c #354634",
";.	c #ABB5AA",
">.	c #BAC4B9",
",.	c #2B4328",
"'.	c #455443",
").	c #3C5538",
"!.	c #4E604B",
"~.	c #6E816B",
"{.	c #9AA698",
"].	c #C5CCC4",
"^.	c #869683",
"/.	c #E6EBE5",
"(.	c #2F4A29",
"_.	c #364E31",
":.	c #969F94",
"<.	c #A6AFA4",
"[.	c #162213",
"}.	c #263223",
"|.	c #546450",
"1.	c #4D594A",
"2.	c #B7BFB5",
"3.	c #2C3629",
"4.	c #60705B",
"5.	c #C0C7BE",
"6.	c #151E12",
"7.	c #1F2B1B",
"8.	c #536A4B",
"9.	c #9DC191",
"0.	c #64765E",
"a.	c #181B17",
"b.	c #283C20",
"c.	c #192116",
"d.	c #5B7451",
"e.	c #B2BAAF",
"f.	c #D1D6CF",
"g.	c #415937",
"h.	c #455B3C",
"i.	c #A1AA9D",
"j.	c #050903",
"k.	c #1D2B16",
"l.	c #090D07",
"m.	c #36492D",
"n.	c #33442B",
"o.	c #1D2519",
"p.	c #4D5E45",
"q.	c #404E39",
"r.	c #596B50",
"s.	c #0E100D",
"t.	c #76856F",
"u.	c #304226",
"v.	c #313E2A",
"w.	c #44553B",
"x.	c #96A190",
"y.	c #182610",
"z.	c #11160E",
"A.	c #3C4D32",
"B.	c #4A5F3E",
"C.	c #688458",
"D.	c #5E6E55",
"E.	c #6D7D64",
"F.	c #7E8A77",
"G.	c #909A8A",
"H.	c #223118",
"I.	c #2D3C23",
"J.	c #141A10",
"K.	c #516345",
"L.	c #27341E",
"M.	c #3A4A2F",
"N.	c #576E47",
"O.	c #425236",
"P.	c #4B5742",
"Q.	c #6B7663",
"R.	c #1B2414",
"S.	c #232D1B",
"T.	c #3C4535",
"U.	c #345418",
"V.	c #181F12",
"W.	c #2B3721",
"X.	c #55624A",
"Y.	c #030501",
"Z.	c #3A452E",
"`.	c #49543D",
" +	c #5A654E",
".+	c #282D23",
"++	c #0A0B09",
"@+	c #364228",
"#+	c #323D25",
"$+	c #809B60",
"%+	c #515B46",
"&+	c #5F6754",
"*+	c #5C7F27",
"=+	c #414C30",
"-+	c #050603",
";+	c #384028",
">+	c #22241E",
",+	c #787E6B",
"'+	c #1E1F1C",
")+	c #4B5534",
"!+	c #10120B",
"~+	c #383F24",
"{+	c #87A121",
"]+	c #9FAE42",
"^+	c #AEB572",
"/+	c #464838",
"(+	c #030301",
"_+	c #0A0A07",
":+	c #1F1F16",
"<+	c #070705",
"[+	c #33332B",
"}+	c #232219",
"|+	c #161510",
"1+	c #1A1914",
"2+	c #2E2B21",
"3+	c #2A271E",
"4+	c #6F6859",
"5+	c #2A251B",
"6+	c #13110D",
"7+	c #332E26",
"8+	c #0D0B08",
"9+	c #0F0D0A",
"0+	c #3B352C",
"a+	c #5A5246",
"b+	c #120F0B",
"c+	c #251F17",
"d+	c #2F271D",
"e+	c #3F3427",
"f+	c #1E1913",
"g+	c #322A20",
"h+	c #191510",
"i+	c #201B15",
"j+	c #372D22",
"k+	c #2D251C",
"l+	c #574837",
"m+	c #45392C",
"n+	c #7D6851",
"o+	c #4C3F31",
"p+	c #695A49",
"q+	c #241C14",
"r+	c #2A221A",
"s+	c #62503D",
"t+	c #16120E",
"u+	c #272019",
"v+	c #1C1712",
"w+	c #231D17",
"x+	c #282420",
"y+	c #2D1D0F",
"z+	c #17100A",
"A+	c #736C66",
"B+	c #2F231B",
"C+	c #0D0501",
"D+	c #060202",
"E+	c #030101",
"F+	c #030303",
"G+	c #010101",
"G+G+G+G+G+G+G+G+G+G+G+G+G+G+G+G+G+G+G+G+G+G+G+G+G+G+U R r U U U Q r j U U U U U G+G+G+G+G+G+G+G+G+G+U U G+G+U U G+G+U U S j j R ( ( S S U S S ( j j R R r j G+G+U G+G+G+G+U U U R Q Q Q Q S U G+G+G+U G+U U U S R S U U G+G+G+G+G+U U U U S S S S U U G+G+G+U U U U U ",
"U G+G+G+G+G+G+G+G+G+G+G+G+U G+G+U G+G+G+U U G+G+G+G+G+S r S U j y 4 r U U U R j j S G+G+G+G+G+G+G+G+G+U G+G+U U G+U R ( R j 4 7 r r S U U S S j j j ( R j S U U G+U G+G+G+U U U S R R S S U G+G+G+U R R R U U S R S U G+G+G+G+U U U U U U U S S S U U U U U U S U U U ",
"Q S U G+G+G+G+S R R R R R R R R S U G+G+S U G+G+G+G+G+R r S U j 7 4 r U U U r r r Q S G+U U U U U U U U U U S S U S j j S j 7 7 R R U U U U U S S ( ( ( S U G+U U U G+G+G+G+G+U G+G+G+G+G+G+G+G+U U S S U U U S R R S G+G+U G+U U U U U U S S R S S U U U U S S U U U ",
"r r S G+G+G+U R r r Q R R R R R R S G+G+U G+G+G+G+G+U j 7 S U j 7 4 r U U U Q r r r r S S S ( j j ( ( S S S Q r R R j j S R r R U U G+G+U R S U U S ( ( U G+G+G+U U G+G+G+G+G+G+G+G+G+G+9+r+5+f+f+c+q+q+x+  x+d+u+c+v+z+B+q+b+z+z+t+h+r+a+T.h+t+!+9+_+U U S S U U G+G+",
"r j U G+G+G+G+U U U U U U U U U U G+G+G+U G+G+G+G+G+S r 7 ( G+j y 7 j U U U R r 7 7 r r j j ( j r 7 4 | 4 7 r y C 7 7 j S U U G+G+G+G+U Q r Q S U S ( ( U G+G+G+U U U G+G+G+G+G+G+G+G+v+c+q+u+w+@ # $   { . A+A+,+,+,+,+,+,+,+. . ! + + A+. m+o+e+k+c+h+-+R R U U U U ",
"U U U G+G+G+G+G+G+G+G+G+G+G+G+G+G+G+G+G+S U G+G+G+G+S 7 7 R G+R y 7 R U U G+U S j r r 7 j j S S j 7 | | | | r Q 7 4 7 j S G+G+G+G+G+G+U Q Q Q S U R j j U G+G+U U U U G+G+U U G+G+G+G+i+c+7+$ A+F.G.^+^+]+]+]+]+]+]+]+]+]+]+^+^+^+^+^+^+$+G.@..   j+j+e+h+S S U U U U ",
"G+G+G+G+G+G+G+G+G+G+G+G+G+G+<+h+t+h+c+r+h+t+h+h+t+v+6+l.l._+_+8+l.l.8+h+c+c+v+5+..|+r+3+3+g+k+5+d+2+0+}+}+}+5+g+e+j+j+j+g+g+g+g+g+g+g+j+g+g+j+g+d+d+d+d+d+k+k+k+r+7+k+r+u+u+t+9+6+f+t+u+k+m+{ $+]+]+]+]+]+{+{+{+{+{+{+{+{+{+{+{+{+]+]+]+^+$+$+$+  j+g+j+_+U U U U G+G+",
"U G+U G+G+G+G+G+G+G+G+G+G+f+j+j+d+e+s+m+g+d+5+d+o+e+i+t+6+6+9+9+t+h+f+m+l+o+l+l+d+A+F.l+e+m+m+m+l+s+s+l+l+e+l+n+n+n+n+p+s+s+p+l+l+s+s+s+l+l+l+l+l+o+e+m+o+m+e+e+j+a+e+g+d+j+g+i+c+j+o+g+r+h+6+' b.U.*+C.$+$+$+$+{+{+*+*+*+*+{+{+*+*+*+*+g.U.,.b g+j+r+v+X G+U U G+G+G+",
"G+U U G+G+G+G+G+G+G+G+9+j+o+j+g+g+m+l+l+o+j+r+e+m+r+u+w+f+v+h+v+u+g+o+s+o+l+s+l+m+l+n+s+l+l+l+s+s+a+n+p+s+l+n+n+p+p+p+p+s+s+s+s+l+s+s+s+s+s+s+s+l+o+o+m+l+o+e+e+e+e+e+e+j+u+u+u+r+r+e+o+d+r+i+z+z+t+% % 0 6.y.H.H.H p H H H ' ' o = & % 1+q+y+e+l+e+k+i+-+U U U U G+G+",
"G+G+G+G+G+G+G+G+G+_+e+l+e+a+j+d+e+j+u+u+3+w+t+i+h+6+t+f+f+1+6+f+f+f+r+c+v+5+5+f+f+v+i+7+r+v+w+5+d+7+m+u+c+k+e+g+u+w+c+r+w+u+r+d+k+u+r+r+r+r+5+r+u+f+v+i+c+f+1+v+f+f+f+v+h+v+h+t+t+b+b+f+t+v+i+t+b+_+8+8+C+C+D+D+C+C+C+C+z+C+C+C+C+8+9+z+v+i+c+u+m+o+j+r+<+U U U G+G+G+",
"U G+G+G+G+G+G+-+2+o+p+s+e+l+j+r+f+l.- U U - W l.l.l.l.` !+z.z.Y Y Y W W W 8 ( ( V W W W W Y ` 8 j ( ( W W V ( ( 8 8 8 8 W -+W W W 8 U U U X V X S V 8 V ( j.W l.W 8 8 V ( 8 W W 8 8 8 ( X ( U ( T W l.l.` l.W X ( U U -+( W X 8 8 - - U ( 7 ( G+<+r+c+v+-+U U G+G+G+G+",
"G+U G+G+G+G+9+l+l+l+n+o+e+j+:+!+l.W W l.l.` !+z.V.V.V.V.H H }.7.V.V.z.z.6.6.6.c.[.p p b H p p =.=.6.=.c.6.V.V.c.7.7.H o.V.R.R.V.J.z.!+z.6.6.c.7.7.R.V.V.c.R.R.R.c.J.V.R.R.R.7.R.k.7.7.}.[.6.[.y.H.H.o.=.k.R.V.V.R.V.J.6.J.5 =.[.z.Y l.Y 0 9 Y -+G+X h+t+V U G+G+G+G+U ",
"G+G+U G+(+k+e+e+l+s+s+m+5+b+W l._+l.!+z.z.V.R.7.o.R.S.W.I.D b.L.[.k.L.D b.b.,.m.M v v v v v M M n.b.L.L.}.S.[.[.L.L.D W.#+L.S.L.L.L.L.S.W.S.H.S.@+I.L.n.n.L.L.L.S.L.L.L.L.S.I.n.m.n.).).L.k.L.L.L.H.H.k.H.k.R.S.I.#+W.S.v.}.3.n.W.3.}.S.o.o !+++- -+h+6+V G+G+G+U U U ",
"G+G+G+U o+s+j+j+m+l+e+6+V -+W !+J.J.R.S.S.L.#+I.I.#+n.M.n.v.W.W.v M ,.m.u.L.I.v v -.i z z ).M v (.b.b.u.n.D v D b.I.n.m.A.m.m.#+@+Z.@+@+M.#+u.#+#+I.I.u.I.I.L.H.I.#+#+@+W.L.A.g.).).h.w.u.L.b.k.H.H.H.H.H k.y.y.H.y.[.J.7.H.H.L.7.7.H.k.o.J.Y l.X <+h+6+X G+G+G+U U U ",
"G+G+G+G+p+s+s+m+j+!+( -+_+J.7.o.V.7.W.L.S.W.W.v.#+#+u.@+_._.n.v k k ).).)._.M.v k _.f e e I v k n.A.).g._.).k k v @+_.m.@+v.#+@+#+W.W.L.I.#+L.W.A.h.#+I.W.W.H.L.L.I.=+#+W.~+=+A.n.m.).O.).u.I.b.,.(.H.b.$.$.v ,.b.H.H (.b.L.L.b.b.b._.L.R.=.J.` X W 6+9+- G+G+G+U U U ",
"G+G+G+G+e+a+n+r+- S <+` R.I.u.I.I.L.u.#+W.I.I.I.u.W.m.).s s ).A  .&.$.s z !.x w.w s I f s z z w '.A Z Z s ). .f I ).s I A.#+I.u.I.I.I.W.#+#+W.#+m.g.h.I.I.k.W.n.u.A.M.@+)+)+B.B.m.u.u.m.#+u.I.,._.m.b.b.(.s s $.(.b.$.e I m.@+u.(.).).A.,.,.o.Y X l.t+b+(+G+G+G+G+U U ",
"G+G+G+G+l+F.n+i+8 l.!+R.L.@+A.A.;+;+M.Z.Z.M.A.Z %.m.h.Z f Z w z O.=+).Z w.%.0.|.i e e I s e f '. .&.w.h.Z _.=+).z ).A f Z _._.z Z m.A.@+M.M.;+@+A.Z.m.u.L.S.m.K.m.n.O.B.h.h.B.Z ).A.).).u.I.b.b.b.b.b.).).g.z s I (.(.I A.M.A._.u.n.m.Z z }.6.z.-+W b+b+(+G+U G+G+U S ",
"G+G+G+G+p+n+n+r+l.V.k.L.~+#+L.I.I.W.S.L.#+@+A.%.).-.q.f e Z A e s %.d.C.O.A.w.K.p.e e ).Z m A %+K.q.q.`.C.8.%.f e z A e A A.M.w.%.Z.@+#+S.S.W.#+W.W.#+~+W.I.O.h.m.#+Z.O.M.g.g.n.m.m.).h.#+W.b.b.b.b.,.u._.O.h.e Z (.I I _.W.u.m.m.m.A.h.h.W.V.J.W ` t+6+S U G+U U U U ",
"G+G+G+G+p+n+n+2+6.S.W.I.=+O.n.@+=+m.@+@+I.M.w.`.q.-.#+z x w.A e  .&.K.A.v.q.O.q.w.&.&.i !.0.r.P.'.w.w.n.g.N. .m m &.|.n !.T.'.p.P.w.n.#+n.n.m.Z.#+m.w.=+#+Z.O.N.8.O.;+=+)+=+M.A._.m.w.h.n.I.I.L.H.W.b.L.I.u.h.&. .$.$.s f m.u.u.b.u.I.u.A.O.W.c.` _+t+b+U G+G+G+U U U ",
"G+G+G+G+s+n+p+7+o.L.M.M.=+O.A.M.Z.A.).m.Z.=+=+`.q.Z.Z.w.w.z &.f h.g.m.q.%.w.p.O x !.K.&.D.&.4.~.O X.!.!.A.).p.D.K ~.E.Q.4.&+|.X.P.`.A.T.m.O.M.M.A.A.h.P.`.%+`.D.D.O.h.8.K.p.8.K.X.P.X.X.P.A.M.m.m.v.v.m.M.Z.K.B.Z 2 2 A O p.Z g.I s $.I.u.g.Z.7.` 8+v+h+b+|+w+3+7+2+[+",
"G+G+G+G+s+n+n+2+o.~+O.v.~+w.h.w.O.w.M.Z.Z./+X.%+`.p.q.v.M.w.h.&.x r.P.p.p.!.|.Q.E.4.4.4.0.~.F.^.F.~.0.&.!.|.~.t.^.F.^.t.t.F.F.Q.4. +T.;+m.M.g.=+g.K.K.%+D.E.Q.4.X.%+X.D.0.t.L L ^.F.t.,+~.t.Q.O O P.'.K.%+D.E.E. +r.N r.E.4.N Z f 2 s M.u.u.W.V.l.'+m+g+1+}+0+a+l+a+p+",
"U G+G+G+l+p+p+5+R.h.w.A.;+h.B.h.=+h.O.=+P.&+E.Q.Q.&+r.w ).&.x 4.~.~.D.1.!.D.0.F.F.F.F.^.^.^.x.{.{.^.t.4.D.Q.^.G.{.i.;.i.<.i.:.G.F.,+ +O.Z.O.w.O.K.r.D.Q.@.G.G.F.,+F.,+F.G.x.<.;.e.e.;.e.;.<.:.x.^.t.~.t.F.G.i.x.G.E x.^.^.F.L g 1 1 e )._._.D [.` h+o+e+|+>+7+o+l+p+4+",
"G+G+G+G+l+s+s+5+V.Z.=+p.w.w.`.O.O.w.O.`.0.F.G.:.G.F.4.%.z  .0.^.6 ^.t.F < ~.^.:.{.{.{.{.[ <.;.e.e.<.G.@.] @.i.>.>.>.5.2.2.e.e.<.{.G.F.4.`.w.w.w.K.Q.t.x.i.i.<.{.x.G.x.{.<.e.5.f.G #.#.G f.J 5.e.<.:.x.{.<.e.5.5.].J >.e.;.<.E *.g 1 2 z _.,.D b Y h+e+g+|+1+2+/+a+p+A+",
"U G+G+G+l+l+s+2+S.Z.N.K.h.A.q.w.h.A.q. +F.i.) ) F x.t. .n ~.^.< ) ^ :.@.] ^.<.) ) ) ) ) ^ ) ) , , ! i.:.G.i.e., , , , , , ) ) { } i.x.,+D.P.w.8.0.F.x.<., , ! 2.2.;.;.e.2., > > > > > > > > > , , F ;.>., > > > > > , , , ) ) G.t.0.r.A._.D H o ` |+l+e+|+1+[+o+a+p+a+",
"G+G+G+G+o+l+s+2+7.Z.=+@+`.p.p.d.r.!.P.Q.x.>.* * } ;.G.~.x t.{.< * * e.{.:.i.2.* * * * * * * * * * * { ;.i.e.].* * * * * * * * * * ' ] x.F.0.E.t.G.i.2.~ * * * G.5.>.>.2.5.* * * * * * * * * * * * F >.].* * * * * * * * * * * x.t.0.8.A.n.}.H 5 W b+d+e+|+>+2+a+4+p+a+",
"G+G+G+G+m+l+s+3+}.P.E.,+F.;.E L N r.r.,+i.].* * ] >.x.Q.0./ ;.} * * ].e.<.e.].* * ! :.@.] @./ {.; * , e.e.5.f.* * ! :.@.] ] ] < ' * * G.x.^.^.;.d u J * * , * ; 5.2.e.e.>.:.i.<.;.e.* * < ;.<.{.G.i.2.J * * < ;.;.<.i.{.:./ ] G.t.D.!.w.-.7.7.l V .+/+d+t+:+m+p+4+a+a+",
"G+U U G+m+l+l+2+-.D.0.E.D.!.d.C.8._.r.F.;.f.* * @.J i.t.,+x.5.] * * f.>.;.2.f.* * @.t d c c 5.f.> * , 2.2.].G * * ] ].<.G.G.{.<.i.' * > <.x.G.c J #.> * ~ <.* * } >.>.e.e.;.e.].G /.* * @.u J e.<.i.;.J * * / /.#.f.J >.e.i.G.t.D.p.w.m.M.7.a...8 :+o+j+t+x+o+p+a+l+/+",
"U U U G+e+o+o+2+3.q.M.m.g.Z d.N.B.f N G.2.#.* * @.J <.F.F.i.].] * * G ].>.].#.* * < ;.[ [ [ [ <.; * , >.5.J #.* * ] ].i.F.~.F.x.;.~ * ' >.c 2.].#.;.* ' G.i.{ * ' 2.5.e.i.G.x.e.].#.* * @.f.e.:.^.^.<.].* * ; > > , ) ! {.G.*.E.X.w.v.L.v.7.z...8 |+e+e+8+x+o+o+a+p+a+",
"U U G+G+g+m+m+:+S.%.|.d.N q N C.N.A L 6 >.#.* * @.f.;.x.G.<.5.] * * G J 5.].u * * * * * * * * * * * ~ 2.>.J #.* * ] 5.i.F.D.0.^.;.} * * J J ].#./.; * ] e.e.i.* * ! 5.e.x.t.F.i.>.J * * ] ].{.F.E.t.{.].* * * * * * * 1.F.~.t.0.B.O.A.}.o.o.V.s.++6+e+e+'+1+>+7+/+p+4+",
"U U G+U e+o+m+3+M 0.O O !.O m K K A L B d #.* * @.f.>.i.x.;.].] * * #.J 5.].u * * ; > > > > > > > ! i.;.>.J G * * ] 2.x.L &+&+@.c ! * ' t f.G /./ * * :.:.:.:.{ * * e.;.@.Q.E.G.e.f.* * ] 5.G.Q.r.E.{.J * * ! i.G.] Q.F t.,+E.0.X.p.M.o.` z.J.J.l.6+j+j+>+7+'+0+a+4+p+",
"U U G+S e+l+o+2+v.|.O 0. .K m N *.K K B d G * * @.u G >.;.>.f.@.* * f.].5.J u * * @./.#.t J J J d ;.x.{.<.d t * * ] 2.{.{.x.@.{.<.' * { t G /.u ' * * * * * * * * * > ].i.,+Q.,+e.f.* * ] 5.x.E.r.E.{.J * * @.G 5.;.x.x.x.x.^.Q.D.P.7.z.H o 5 c.` 1+m+g+a.+.+.    p+,+",
"G+G+S r e+o+o+3+3.%.p.X.r.x |.C.K N L 6 >.f.* * @./.u f.J u u @.* * ].2.2.].u * * @.G J >.2.>.>.c 6 L F.^.<.].* * ] t e.;.c {.F +.* * {.t t u } * ' > > , , , , ^ * * / ;.@.~.F.;.].* * ] 2.x.N &.,+[ d * * ] #.t ].5.e.;.<.x.t.0.p.L.H I M H }.Y i+o+g+a.+.+.F @.&+4+",
"G+U R 7 g+m+m+}+.+1.%+|.&.!.X.%+ .O K ^.i.>.' * * * * * * * * * * ' >.e.;.>.#.* * ] ].>.i.G.x.*.6 3 0.O F.x.d * * * * * * * * * * * } >.].].>.* * / J 5.2.e.>.5.5.; * ; e.G.,+*.i.5.* * } e.^.F.E.~.>.G * * * * * * * * * * * F.4.p.O.f Z w k D 5 !+g+k+6+'+[+/+{ A+&+",
"G+U r 4 j+e+m+5+}.q.`.r.r.|.P.|.r.N O E.G.2.] ; * * * * * * * * ; @.2.c {.<.J * * } <.:.t.m K 3 _ m X.q ^.^.>.* * * * * * * * ; ~ / >.<.;.>., * , 2.e.<.{.:.i.e.5.] * * < F.Q.F.x.e.* * F <.e.>.@.E.G.].* * * * * * * * * * * F.r.w.r.K 0.&.i ; a z.g+k+++..6+a.'+x+[+",
"G+U r 4 e+e+j+i+3.q.q.X.!.!.P.`.%+N !.&+F.e.5.].f.#.#.u u G G G t >.;.E {.E d d ;.[ 6 L q 2 x  .g 1 O N L L {.c d d J t J J ].>.2.>.2.{.G.i.;.i.:.G.^.F.F.F.G.{.<.e.;.<.x.F.4.t.*.i.2.>.2.{.,+%+'. +t.@.:.e.5.t t f.J 2.;.x.F.Q.8.Z X.0.4.w v.}.++h+e+j+a 8 V _+++l.l ",
"U S r 7 j+j+m+f+}+w.p.&.&.A %+`.X.%+E.~.F.E <.<.e.].J J J t J d d ;.G.F.F.^.6 E ^.] _ : 1 2 q.K.2 e 4.&.4.t.*.[ c >.d d 5.5.2.<.i.;.<.G.{.G.F.@.,+~.q L O E.t.,+@.G.G.G.^.,+&+0.F.F.G.<.x.,+K.A.n.A.%+&+F.x.<.2.c e.2.;.G.*.*.D.f s M.N Q.^ o.a...t+e+m+0 | S G+U S 7 ",
"S j j R j+m+m+v+>+P.O  .N &.P.%+p.%+p.P.r.O ^.G.:.{.;.;.c >.;.<.{.E :.L Q.n g 3 ~.N _ e 1 1 p.r.1 e 1.O t.L L F./ [ c c c <.:.{.x.^.~.E.D.Q.Q.0.&+|.N N O ~.~.Q.,+Q.A+@.t.E.C.N : t.{.i.t.r. +d.N.B.M.P.E.t.^.x.x.G.E *.F.0.E. +2 s v.d.0., 5 a.a 6+o+m+| 7 U G+G+U U ",
"S j j S g+j+j+1+o.8.N 0.K r.X.K.q.%+p.x  .!.&+~.F.O F.*.E 6 / ^.t.K t.|.`.x g q  .m _ 2 1 g A &.: : 1.q.|.~.O N F./ 6 E G.F.t.^.~.D.r.O x D. +P.r.p. .N 0.N C.X.D.~.L F.0. . .q 3 E.E.~.^.E.K.B.d.w.A.w.8.X. +E.Q.~.O  .!.'.K.K.g 2 Z.O.0.1.b p 0 b+m+g+j S U G+G+G+G+",
"U ( r j c+r+w+h+o.h.d.L g m Z `./+K.X.O 0.|.'.!.!.m ~.L 6 q ~.K N &.O.Z '.&.: 2 &.n 1 2 1 : A  .2 q !.%.%.A. .N q O L 6 F.K O |.!.!.x O O  +X./+%+Z m L K d.N./+D.N L E.~.D. .N : N x.<.[ ^.F.<.F.X.N.r.D.B.B.K.8.K.I s ,.}.g.4. .s v.M.0.P.D b 0 9+d+i+j S U U G+G+G+",
"( U j 4 f+w+i+}+>+M.8.r.~.m 8.X.`.r.&+ +&+r.X.P.x n  .N L K  . . .p.%+r.`.&.: : A e 2 2 2 2 f &.: : !.P. +P.8. . . .K L N n n |.1.|.4. +4.&+X./+X.A K 0.d.8.`.E.t.t. +E.L K L g g 6 ^.D.`.X.|.0.~.5.x.8.B.N.C.p.A ).h.s ,.S.).).(.g.3.T.p.'.M }.l 8+r+i+j ( S U U U U ",
"| 7 7 4 h+v+f+:+.+;+d.d.t.3 m D.4.4.r.X.P.`.1.~.0.n n N q E.N  .n D.X.`.q.A 2 n &.2 2 f e : e &.m e !.q.P.X.4.n e N ~.K N n O ~.E.'.P.P.r. +'.!.X.e K r.K.h./+0.d.t.4.t.L E 9._ c *.K.Z.A.m.L.b.n.=+=+w.A.Z N.8.s I g.A.L.}._.,.W.L.V.c..+n.M >+++8+w+|+j j R S S S S ",
"4 | 4 7 f+i+f+>+.+q.t.~.E.L m d.N K g n X.O q N K 3 3 g O A A n n  .%.%.8.&.f  .&.: 1 f e 1 m &.O f &.Z '.!.n n f A &.N g 3 L q  .q !.'.n O %.p.w.A ~.r.|.|.P. + + .< 0.L B *.*.B E ^.E.K.O.p.r.g.n.g.h.h.d.d.Z g I u.s _.S.W.L.L.7.z.Y 6.}..+a.++_+i+|+7 7 r r r r r ",
"7 7 7 r k+w+i+3+.+T.F.E.K.E.~.N N O g : 0.~.3 K q _ _ 3  .Z f : m e z w p.%+f &.0.f f z s f x |.A A %+z %.f 2 : m w -.w f 2 m w w A '.'.f i -.-.-.'.T..+/+&+T./+Z., ! E.L N ~.~.t.E B L 4. +E.O d.8.n  .O.O.p.h.&.L.k.I h.L.7.[.H.7.6.z.Y Y l a ` _+h+|+4 4 4 7 7 7 7 ",
"r r j R k+j+m+}+V..+Z.B.O.r. +O O %+|.x P.D.N K K 3 _ 3 m e : n x n x %.w.q.w.T.q.^ k s s i '.T.-.q.T.'.%.x m n f k D M v v M D }.3.+.T.^ .+3.M 3.}.o.J.c.o..+c.c..+1.q.Z.w T.T.%.!. .4.t.^.[ 6 ^.].e.!.H.b.u.n.b.H.,.I m.W.7.R.H H p c.z.l.s.a W _+i+1+4 4 4 7 7 7 7 ",
"j 7 j S e+o+l+3+..z.c.L.L.}.v.w i Z.[++.[+T.w.w w w A A w i i -.M 3.3.3.M 3.D }.o.a.b v k h .+.+3.}.}.M [++.M 3.3.b ' p ' ' b b 7.o.'+>+'+1+o.o a ..s.s.l._+z.s.` l >+7.7.+.'.m ] / / / [ / ~.D.P.%+1.>+=.H S.7.[.J.k.b o.o.o.[.J.c.....Y l z.` - b+k+i+j j j j j j j ",
"7 4 r S e+m+o+3+- G+- V V j.W l a ++++..s.s.l l 0 5 o 5 5 a s.l a l s.a a ..++++++` 0 l 5 5 s.++W W W l a.a...++++_+` Y ....l 0 l ++<+<+-+8 _+` -+- G+G+U - X X U X -+- - G+<+..% '+>+'+.+c.!+!+j.S S X V 8 <+W W X V <+j.l.Y ` W W W ++++W <+-+b+f+w+v+S S S S R S S ",
"r 7 r S m+m+m+j+i+h+i+i+i+v+t+b+9+9+b+9+9+9+9+9+9+b+b+b+t+t+v+h+6+6+b+6+b+b+b+b+b+9+8+8+8+_+_+8+8+_+_+<+_+_+<+-+<+<+<+<+<+<+_+b+-+8+_+G+G+-+-+<+_+U <+X X <+-+-+<+<+_+8+8+8+_+<+<+-+(+D+(+-+<+_+9+9+8+_+8+8+8+9+b+6+v+h+6+t+b+6+9+b+6+6+6+6+b+h+g+k+v+w+W U S S S S S ",
"j 7 j S m+o+o+o+o+e+m+e+m+j+g+g+d+u+k+c+c+w+w+i+w+i+w+c+u+r+r+i+i+i+f+i+i+w+w+f+f+v+v+v+h+h+t+6+t+t+t+6+6+6+9+_+8+9+b+b+9+6+b+v+b+t+v+<+G+<+_+8+b+<+6+8+_+_+_+8+8+8+b+h+h+h+f+h+t+6+b+h+b+8+t+v+c+i+t+6+t+t+t+v+f+5+r+k+u+r+f+w+f+v+f+v+t+t+v+i+g+r+c+[+1+U U U U U U ",
"r 7 j R e+m+m+l+o+e+m+j+m+e+g+r+r+u+u+w+u+w+i+c+c+k+w+i+v+v+v+h+v+v+h+v+i+f+v+h+t+t+h+t+t+6+t+6+b+b+b+b+6+b+6+b+8+8+8+9+b+b+b+t+9+8+t+b+F+<+8+8+8+8+8+8+_+_+_+_+_+9+8+6+h+h+f+i+f+f+f+f+h+t+f+c+r+d+w+t+w+k+h+f+t+p+o+k+d+r+c+f+c+d+c+c+c+v+f+h+v+w+7+0+0+U U U U U U ",
"7 4 7 j d+e+e+e+j+g+e+e+g+d+u+u+r+r+c+f+v+f+v+c+w+c+v+v+t+t+h+t+t+|+t+h+v+h+t+6+6+6+6+6+b+9+b+b+9+8+9+b+b+9+6+6+8+_+_+8+9+9+9+8+6+9+9+8+8+8+_+_+_+8+_+_+9+8+8+8+8+i+v+b+|+h+f+f+f+f+f+u+u+f+b+u+w+c+w+f+c+d+f+k+g+d+m+j+m+o+g+u+u+d+k+d+u+w+r+t+h+2+m+a+4+6+U U U U U ",
"4 4 7 7 4 | | Y | | | | | | | | 4 4 4 4 4 r U S S U E+E+E+U E+U S j r r r r r r r j S S ( j ( U U U R R U U U U U ( 7 | | | r R R R R S R S S R Q R S S S U S S ( ( S S S U U S S U U U S S S X X S U U S X U X -+X X X -+-+X X U - X X U U G+<+6+x+  a+a+:+l.` W -+` ",
"4 4 7 r 7 4 | | | | | | 4 7 4 4 4 4 4 4 7 j U U U G+G+G+G+G+G+G+U Q r r Q r r y j U U U U U U U G+S Q R U G+G+G+U j 7 7 4 7 j U U U U U S R U U R R U U S U U S S S S S U G+G+U U U U U U U U U G+G+U G+G+G+U U G+G+G+G+G+G+G+G+G+G+G+G+U U U U X 6+1+u+0+m+[+1+2+0+7+",
"4 4 7 r r 7 4 4 | 4 4 7 7 7 y 7 7 r r r r S U U U G+G+G+G+G+G+G+U R r r Q Q r y r G+G+G+G+G+G+G+G+U Q Q U G+G+G+S j j j 7 r R U U U U U U U U U U S U U S U U R ( R S S U U U U G+U U U U G+G+G+U U U G+G+G+G+U U G+G+G+G+G+G+G+G+G+G+G+G+G+G+G+U - S S b+3+x+s.|+x+x+",
"r 7 r j j j r 7 7 r j R R j R U ( r r r j S U U U G+G+G+G+G+G+G+U R r r Q Q y y r S G+G+G+G+G+G+G+G+S S G+G+G+G+U U ( r 4 7 j S S S U U U S S S G+G+U S S U S S ( R S S S S U U U G+U U U G+G+G+G+G+U U U G+G+G+U G+G+G+G+G+G+G+G+G+G+G+G+G+U U U S S S U <+|+_+....s.",
"( j j R R R j j j ( S S S S S U U ( r r r R S U U G+G+G+G+G+G+G+U R r r R R y 7 j U G+G+G+G+G+G+G+G+U U G+G+G+G+U U ( 7 4 7 j S S U U U U U U S S G+G+S S U U S ( R R R R S S U U U G+G+U U U U U G+G+U U U G+G+G+G+G+G+G+G+G+G+G+G+G+U U U U U ( j j R S S S S j r 7 ",
"U S S S U S S S S U U U U U S R S G+( 7 y r R U U G+G+G+G+G+G+G+G+U Q j R R r r R U G+G+G+G+G+G+G+G+U U G+G+G+G+U S j 7 7 j S U U U U U G+G+G+U S S G+U S U U S S S S S S S S S U U G+U G+U U U G+U U G+G+G+G+G+G+G+U G+G+G+G+G+G+G+G+U U U U U S S ( S U U U U S S R ",
"U U U U U U U S S U U S U S R r r S G+( 7 7 R S U G+G+G+G+G+G+G+G+U S S S S R R S G+G+G+G+G+G+G+G+G+U U G+G+G+G+U U j 7 4 7 R U S R R S U U G+G+U S U U U U U S S S S S S S S S S S S R R S S R R R S S S S S Q R S S Q R S S S R R R R U G+U U U U S U U U U U U U S ",
"U U U G+G+G+U U U U U U S S r r r r S G+j 7 R Q R G+G+G+G+G+G+G+G+G+G+G+G+U U U U G+G+G+G+G+U G+G+U U G+G+G+G+G+G+U S r 4 4 r S R r Q R U G+G+G+G+U U S U U U S S S R S S S S S U S r 7 7 P Q Q r r y Q Q Q Q r y P R Q r r r r r y y y S G+G+U U S S S S S S S S U U "};
