/* XPM */
static const char * fs2_btn_volition_hover_xpm[] = {
"90 108 256 2",
"  	c #005D5B",
". 	c #004241",
"+ 	c #002323",
"@ 	c #002020",
"# 	c #001818",
"$ 	c #001313",
"% 	c #000D0D",
"& 	c #000606",
"* 	c #053D3C",
"= 	c #042929",
"- 	c #0B6563",
"; 	c #031C1C",
"> 	c #0F4D4C",
", 	c #0E4544",
"' 	c #061919",
") 	c #0C2525",
"! 	c #111F1F",
"~ 	c #283B3B",
"{ 	c #679392",
"] 	c #F3FAFA",
"^ 	c #EBF2F2",
"/ 	c #F7FBFB",
"( 	c #F1F4F4",
"_ 	c #E4E7E7",
": 	c #FAFCFC",
"< 	c #F4F5F5",
"[ 	c #F1F2F2",
"} 	c #00615D",
"| 	c #005552",
"1 	c #00504E",
"2 	c #004A48",
"3 	c #004745",
"4 	c #00413E",
"5 	c #003A38",
"6 	c #002F2D",
"7 	c #002A29",
"8 	c #002625",
"9 	c #001B1A",
"0 	c #001615",
"a 	c #016E6B",
"b 	c #016562",
"c 	c #015A56",
"d 	c #026965",
"e 	c #037B77",
"f 	c #048883",
"g 	c #059994",
"h 	c #044B49",
"i 	c #064845",
"j 	c #0FAEA7",
"k 	c #07504E",
"l 	c #0E716D",
"m 	c #0C5E5C",
"n 	c #179893",
"o 	c #105351",
"p 	c #1B8885",
"q 	c #27ABA5",
"r 	c #186865",
"s 	c #2C928E",
"t 	c #337674",
"u 	c #519E9B",
"v 	c #4E8A88",
"w 	c #6BB0AD",
"x 	c #7EC6C3",
"y 	c #78A1A0",
"z 	c #597776",
"A 	c #AECECD",
"B 	c #99B2B1",
"C 	c #004D49",
"D 	c #004A45",
"E 	c #003F3C",
"F 	c #003D39",
"G 	c #003734",
"H 	c #003431",
"I 	c #002D2A",
"J 	c #001E1C",
"K 	c #001413",
"L 	c #001110",
"M 	c #000F0E",
"N 	c #02524E",
"O 	c #06938C",
"P 	c #0AA39B",
"Q 	c #043D3A",
"R 	c #064E4A",
"S 	c #12827C",
"T 	c #15928B",
"U 	c #137A74",
"V 	c #1A736D",
"W 	c #0E3D3A",
"X 	c #19635E",
"Y 	c #0F3331",
"Z 	c #37A09B",
"` 	c #4EB0AB",
" .	c #6DBEBA",
"..	c #97C1BF",
"+.	c #CBE0DF",
"@.	c #004641",
"#.	c #00443E",
"$.	c #00413B",
"%.	c #002926",
"&.	c #002522",
"*.	c #002320",
"=.	c #000B0A",
"-.	c #013A35",
";.	c #01322E",
">.	c #034640",
",.	c #07423D",
"'.	c #195B56",
").	c #194B47",
"!.	c #183C39",
"~.	c #2F5855",
"{.	c #D9E6E5",
"].	c #001B18",
"^.	c #000908",
"/.	c #0A756A",
"(.	c #18423E",
"_.	c #C7D0CF",
":.	c #002D27",
"<.	c #00221E",
"[.	c #001D19",
"}.	c #05473E",
"|.	c #096A5D",
"1.	c #0A6F63",
"2.	c #096155",
"3.	c #064139",
"4.	c #0A655A",
"5.	c #F0F8F7",
"6.	c #002B24",
"7.	c #002721",
"8.	c #001915",
"9.	c #001310",
"0.	c #01312A",
"a.	c #042A24",
"b.	c #085045",
"c.	c #09564A",
"d.	c #07443B",
"e.	c #0A5A4D",
"f.	c #0C5D51",
"g.	c #031613",
"h.	c #00211B",
"i.	c #001713",
"j.	c #000605",
"k.	c #07493E",
"l.	c #00251E",
"m.	c #001410",
"n.	c #000504",
"o.	c #042922",
"p.	c #094E41",
"q.	c #0A5445",
"r.	c #052720",
"s.	c #F1F6F5",
"t.	c #001611",
"u.	c #000907",
"v.	c #084538",
"w.	c #04221B",
"x.	c #0A4B3C",
"y.	c #08352B",
"z.	c #1E5247",
"A.	c #001D16",
"B.	c #001913",
"C.	c #073A2D",
"D.	c #062F25",
"E.	c #00120D",
"F.	c #000B08",
"G.	c #083F30",
"H.	c #062C22",
"I.	c #0A4333",
"J.	c #0C4938",
"K.	c #03251B",
"L.	c #083325",
"M.	c #00150E",
"N.	c #000302",
"O.	c #021710",
"P.	c #041C14",
"Q.	c #093727",
"R.	c #0B3C2B",
"S.	c #08261C",
"T.	c #000E09",
"U.	c #000B07",
"V.	c #06251A",
"W.	c #051E15",
"X.	c #082A1E",
"Y.	c #092D20",
"Z.	c #093323",
"`.	c #00110A",
" +	c #01140C",
".+	c #082F1F",
"++	c #082519",
"@+	c #072216",
"#+	c #082B1B",
"$+	c #04130C",
"%+	c #081F14",
"&+	c #000A05",
"*+	c #000402",
"=+	c #072918",
"-+	c #000D06",
";+	c #05160D",
">+	c #0A2A19",
",+	c #081F13",
"'+	c #092215",
")+	c #071A10",
"!+	c #000904",
"~+	c #071D11",
"{+	c #040F09",
"]+	c #0D301D",
"^+	c #04120A",
"/+	c #092716",
"(+	c #06190E",
"_+	c #092515",
":+	c #082413",
"<+	c #020704",
"[+	c #020A05",
"}+	c #030B06",
"|+	c #0E2E1A",
"1+	c #0F311C",
"2+	c #0F2F1B",
"3+	c #030E07",
"4+	c #081F10",
"5+	c #0D2C18",
"6+	c #0C2515",
"7+	c #000C04",
"8+	c #000903",
"9+	c #000602",
"0+	c #081D0F",
"a+	c #000A03",
"b+	c #031007",
"c+	c #071E0E",
"d+	c #071D0E",
"e+	c #092311",
"f+	c #092211",
"g+	c #0A2412",
"h+	c #020904",
"i+	c #0A2512",
"j+	c #0B2613",
"k+	c #081F0E",
"l+	c #09200F",
"m+	c #061C0B",
"n+	c #051509",
"o+	c #071D0C",
"p+	c #081E0D",
"q+	c #081D0D",
"r+	c #040C06",
"s+	c #071E0C",
"t+	c #06180A",
"u+	c #020703",
"v+	c #020903",
"w+	c #000901",
"x+	c #000A01",
"y+	c #000600",
"z+	c #000400",
"A+	c #000200",
"B+	c #FFFFFF",
"C+	c #FEFEFE",
"D+	c #FDFDFD",
"E+	c #FAFAFA",
"F+	c #F8F8F8",
"G+	c #000000",
"G+G+G+G+G+G+A+z+8+a+8+z+A+z+z+z+z+9+w+y+A+*+}+4+g+'+,+,+,+,+,+,+,+,+,+,+,+,+,+,+,+,+'+g+g+i+e+3+A+A+6+1+1+2+1+1+1+|+<+z+w+y+G+G+G+G+A+G+A+A+A+9+w+y+w+w+w+w+x+x+w+9+z+A+A+A+A+y+w+y+",
"G+G+G+G+G+G+G+G+G+G+N.*+9+a+-+b+{+^+;+)+~+~+,+,+,+,+,+,+,+,+,+,+,+,+f+f+e+g+g+i+j+j+j+j+j+j+j+(+A+G+,+1+2+2+2+2+2+|+}+A+8+w+A+A+z+z+z+z+A+G+G+A+A+9+w+w+w+a+a+a+8+A+A+A+A+A+G+A+A+A+",
"G+G+G+A+n.<+}+3+{+^+;+(+)+,+'+'+'+'+'+'+%+,+~+(+~+'+'+'+g+g+g+i+j+j+i+i+i+i+j+j+i+j+j+j+j+j+i+j+b+G+0+2+2+2+2+|+2+1+$+A+a+8+z+z+z+z+z+z+z+G+G+G+G+*+9+*+*+*+9+*+*+A+A+A+A+A+A+G+G+A+",
"^+;+;+)+~+,+,+'+'+'+%+,+,+,+~+)+;+^+{+b+3+7+8+*+b+g+j+i+j+j+j+i+i+j+i+j+j+j+i+i+j+i+i+i+j+j+j+j+l+9+n+|+|+|+|+|+|+2+0+A+a+a+z+A+*+z+*+z+z+A+G+G+A+G+G+G+G+G+A+G+G+A+A+A+A+A+G+A+G+G+",
"'+'+'+%+,+~+)+(+;+^+^+)+;+7+a+a+z+G+G+y+w+y+z+A+9+m+j+j+i+j+i+i+i+i+i+i+j+j+j+i+j+j+j+j+i+i+j+i+j+n+3+5+|+|+|+|+|+2+6+*+w+a+z+z+z+z+z+z+A+A+A+z+z+A+G+G+G+A+A+G+G+A+A+A+A+A+G+G+G+G+",
"$+^+{+}+<+<+N.G+G+G+[+%+~+a+w+w+z+G+A+y+y+y+z+z+y+r+g+j+i+i+j+j+j+j+i+i+i+i+j+j+i+i+j+i+i+j+j+i+j+f+3+6+|+|+|+|+|+|+5+[+w+w+z+A+A+A+z+z+A+G+A+*+z+G+G+A+A+A+A+A+A+A+z+z+y+9+y+z+y+A+",
"G+G+G+G+G+G+G+G+G+A+v+~+,+7+w+w+*+G+z+y+y+y+z+z+9+z+t+j+i+j+i+i+g+j+i+j+i+j+i+i+j+i+i+j+i+j+i+i+i+j+0+4+|+5+5+|+|+|+5+{+w+w+A+A+A+A+A+A+G+A+A+A+A+A+A+A+A+A+A+A+A+A+z+z+7+7+a+w+x+9+",
"G+A+A+G+G+A+G+G+G+A+9+)+,+3+w+w+z+G+A+y+y+y+z+9+9+z+v+f+i+g+g+j+i+i+i+g+i+g+j+j+i+i+i+j+i+i+i+j+i+i+g+f+5+5+5+5+5+5+5+(+8+a+A+A+A+A+A+A+G+G+A+A+A+A+G+G+A+A+A+A+A+A+A+z+7+7+a+w+a+*+",
"G+A+A+A+G+G+A+G+A+A+*+~+++ +7+T.u.& & &+-+-+&+&+U.u.u.)+>+>+>+>+>+>+>+>+>+>+>+>+>+>+>+>+>+>+>+>+>+>+>+>+]+]+]+]+]+]+]+>+`.T.u.& & u.& & & & &+-+7+j.n.N.N.A+A+G+G+G+A+A+9+w+y+y+y+A+",
"A+A+A+A+A+G+G+A+A+N.j.W.Y.W.t.B.i.$ $ i.8.8.i.i.i.i.K 8..+Z.Z.Z.Z.Z.Z.Z.Z.Z.Z.Z.Z.Z.Z.Z.Z.Z.Z.Z.Z.Z.Z.Q.R.R.R.R.R.R.R.Q.K.8.K K $ K K K $ K i.i.t.E.=.^.& n.A+A+G+G+G+A+A+z+A+z+A+A+",
"z+A+A+A+A+A+G+A+N.& =.w.y.D.7.6.%.8 8 %.:.%.%.%.%.%.%.%.y.I.I.G.I.G.I.I.I.I.I.I.I.I.I.I.I.I.I.I.I.I.I.I.J.J.J.J.J.J.J.J.C.:.%.8 %.8 8 8 8 8 8 + @ J # L =.& n.A+G+G+G+G+A+z+z+z+z+A+",
"y+A+G+G+G+G+A+A+j.=.$ o.3.3.F $.4 4 4 #.#.#.4 #.#.#.4 4 #.p.q.q.b.q.b.q.q.q.q.q.q.q.q.q.q.q.c.c.c.c.c.c.e.f.f.f.f.f.f.f.e.@.4 4 4 4 4 4 4 4 E 5 G 6 8 J $ % & N.G+G+G+G+z+z+z+z+z+A+",
"y+A+G+G+G+G+G+N.^.L 9 ;.b.c.N c       } } }   }         c c |.|.4.4.|.|.|.1.1.|.|.|.|.|.|.|.|.1.1.1.1.1.1././././././././.}                 c | 1 3 5 7 J $ ^.n.A+G+G+A+z+z+A+z+z+A+",
"y+A+G+G+G+G+G+n.=.0 8 F C+E+E+E+E+E+E+E+E+E+E+E+E+E+E+E+E+E+: : D+B+D+E+E+E+E+D+D+E+E+E+C+: E+E+E+E+E+E+E+: : E+E+E+E+E+E+E+E+E+E+E+E+E+E+E+E+: D+D+B+).7 # % j.A+A+A+A+A+z+A+A+G+G+",
"y+A+G+G+G+G+G+n.% 9 I @.D+B+B+B+B+B+B+B+B+B+B+B+B+B+B+B+B+B+D+] ^ +.( B+B+B+B+{.+.D+B+B+{.s.B+B+B+B+B+B+B+B+B+B+B+B+B+B+B+B+B+B+B+B+B+B+B+B+B+E+F+C+B+o H @ L & A+A+G+G+G+A+G+A+G+G+",
"y+A+G+G+G+G+G+j.L @ H 2 D+B+B+B+B+B+B+B+B+B+B+B+B+B+B+B+B+B+B n g g x B+B+B+B+ .P ^ B+B+Z +.B+B+B+B+B+B+:  .` E+B+B+B+B+B+B+B+B+B+B+B+B+B+B+B+_.z B B+X $.6.8.U.N.A+G+G+G+G+G+z+z+G+",
"y+A+G+G+G+G+G+& L &.G 1 D+B+B+^ D+B+B+B+D+B+B+B+B+E+5.] B+B+^ A w P x B+B+B+B++.x : < u g w +.+.A {.B+B+C+x  .E+B+B+B+: ] / B+B+B+B+D+B+E+^ ] E+_ _ B+r @.;.A.T.*+G+G+G+G+A+A+y+y+G+",
"z+A+G+G+G+G+G+& $ + 5 | D+: u T ` A D+..`  .A B+A Z P P w 5.B+B+B+q ` B+B+^ A +.B+B+^ n g g P j j  .B+B+5.] B+B+B+: x q j q ../ _  . .x Z P j ..B+B+B+r D H h.T.A+G+G+G+A+A+A+y+y+G+",
"A+A+G+G+G+A+G+& $ 8 F | D+:  .g g w C+s g g ..u g g w w g T _.B+B+q Z B+B+A j j j _.C+{.n g ....A +.B+^ q j Z C+C+` P P  .q P ` / n O g Z w n P 5.B+B+r @.;.h.T.A+A+A+A+A+A+A+z+A+G+",
"A+A+G+G+G+G+G+& $ 8 $.c D+B+B+ .g +.B+x O +.{.O n +.B+B+..O u B+B+Z s C+B+B+{.Z P A B+B+s T D+B+B+B+B+: ..P s B+{.P Z {.: ( x n {.B f w : B+_.P ^ B+B+X #.0.[.F.A+A+A+A+A+A+A+A+A+A+",
"A+G+G+G+G+G+G+& $ 8 #.c D+B+B+^ g u C+Z Z B+_.O x B+B+B+/ O s B+B+Z p C+B+B+B+ .P +.B+B+ .s < B+B+B+B+B+E+Z ` B+y g u B+B+B+B+n B +.f B B+B+5.q 5.B+B+X #.:.8.^.A+A+A+A+A+A+A+G+A+A+",
"A+G+G+G+G+G+G+& $ 8 $.c D+B+B+C+s g ` T {.B+{.O s C+B+B+A f s B+B+` ` B+B+B+B+x P +.B+B+x Z D+B+B+B+C+B+B+ .` B+..O v B+B+B+y O y +.f ..B+B+/ q ] B+B+X F %.0 & A+G+A+A+A+A+A+A+A+A+",
"G+G+G+G+G+G+G+& $ 8 E | D+B+B+B+A g O v B+B+/ v f u w ` f f x ^ _.s n A +.+.{...g w A <  .n w A x Z u s._ s Z _./ s O w x w O p A w f u s.5.w O y : B+N -.8 K u.A+G+G+G+G+A+A+A+A+z+",
"G+G+G+G+G+G+G+& $ + 5 | D+B+B+B+B+u O A B+B+B+B+x f e f w +.s.s f f p p u w n T T T Z {.A T O O O O x  .T f f S Z +.u f f f ` {.{.T T S _.+.O f S +.B+C G &.K & A+G+G+G+G+A+A+A+A+z+",
"G+G+G+G+A+A+N.^.0 8 5 | D+B+B+B+B+B+{.B+B+B+B+B+B+{...^ B+B+B+{...+.F+< D+: {.A +.s.] B+B+{.A +..._.B+: A B ....+.B+B+5.5.^ B+B+B+{.5.] B+B+_ 5.5.B+B+2 G 8 8.=.N.A+A+G+G+A+G+G+A+A+",
"G+G+G+A+A+n.& M 9 7 4 | D+B+B+B+B+B+B+B+B+B+B+B+B+B+B+B+B+B+B+B+B+B+B+B+B+B+B+B+B+B+B+B+B+B+B+B+B+B+B+B+B+B+B+B+B+B+B+B+B+B+B+B+B+B+B+B+B+B+B+B+B+B+B+1 5 I J L u.n.*+A+A+A+G+G+A+A+",
"G+G+G+A+n.u.=.0 + H 3 c C+p S S f S S S S S S S S U U U - c | N C h i h h h h e.f.f.f.f.f.f.f.f.f.f.f.f.f.f.2.4.|.1.l l U U U U S S S S U U U U l l B+| @.G 8 8.M u.j.N.A+A+G+G+A+A+",
"G+G+A+N.j.=.$ @ ;.. | b C+p e f f e e e e e e e e e a a b c 1 3 4 5 G G G G G -.p.p.p.p.p.p.p.p.x.p.x.p.p.q.c.e.2.1./.e e S f f f f f f f e e e e e B+b | @.H &.K M & N.N.A+G+G+A+A+",
"G+G+A+N.u.L 9 7 4 | b e B+n f f f f f f f f f f f f e a a   1 4 G I 8 + + + + + :.G.G.G.G.G.G.G.G.G.G.G.G.v.x.c.2.1./.S f O O O O O O O O O f f f f B+e b | #.I J L ^.*+A+<+;+[+A+A+",
"G+G+A+*+=.0 + (.C+B+B+B+B+B+B+B+B+B+B+B+B+B+B+B+B+B+B+B+D+t | 4 6 + 9 0 K K 0 0 0 K.Z.Z.Z.Z.Z.Z.Z.Z.Z.Z.Q.G.v.q.4.v B+B+B+B+B+B+B+B+B+B+B+B+B+B+B+B+B+B+B+B+C+~.8 8.T.!+*+(+'+(+*+G+",
"G+G+G+*+=.8.%.Q _ B+B+B+B+B+B+B+B+B+B+B+B+B+B+B+B+B+B+B+B+[ | . I J L =.^.u.u.u.u.^.~+/+/+/+/+/+/+/+/+>+.+Q.I.q.|.B B+B+B+B+B+B+B+B+B+B+B+B+B+B+B+B+B+B+B+B+B+z.I J E.-+;+'+,+}+z+A+",
"A+A+A+*+=.# 7 . { B+B+B+B+B+B+B+B+B+B+B+B+B+B+B+B+B+B+B+B+B+t 2 ;.J M & A+A+N.N.N.A+9+d+e+f+f+f+f+f+f+:+#+Q.v.e.|.( B+B+B+B+B+B+B+B+B+B+B+B+B+B+B+B+B+B+B+B+..D 6 [.E. +%+'+b+A+A+G+",
"9+y+A+N.=.8.7 . X B+B+B+B+B+B+B+B+B+B+B+B+B+B+B+B+B+B+B+B+B+_.c E 8 K ^.N.A+A+A+A+z+A+[+d+f+l+l+l+l+f+_+.+R.p.4.{ B+B+B+B+B+B+B+B+B+B+B+B+B+B+B+B+B+B+B+B+B+t 3 7 # E.%+@+;+*+G+G+A+",
"w+w+y+*+u.K 8 E c _ B+B+B+B+B+B+B+B+B+B+B+B+B+B+B+B+B+B+B+B+< - 2 6 9 % n.A+A+z+z+z+z+z+3+l+f+f+f+l+e+/+Z.I.c.1._ B+B+B+B+B+B+B+B+B+B+B+B+B+B+B+B+B+B+B+B+[ m . 7 0 P._+)+9+G+A+G+G+",
"w+y+9+N.& L @ G | v B+B+B+B+B+B+B+B+B+B+B+B+B+B+B+B+B+B+B+B+B+{ c 5 + L & A+A+z+y+9+*+z+A+b+f+f+l+f+:+#+Q.x.2.V D+B+B+B+B+B+B+B+B+B+B+B+B+B+B+B+B+B+B+B+B+B c F + [.++%+}+G+A+G+A+G+",
"w+*+A+A+n.=.# 6 2 - E+B+B+B+B+B+B+B+B+B+B+B+B+B+B+B+B+B+B+B+B+_ } . 7 0 ^.*+A+z+9+9+z+z+G+A+n+l+f+f+_+.+R.b.|.v B+B+B+B+B+B+B+B+B+B+B+B+B+B+B+B+B+B+B+B+C+V 1 H <.X.++^+G+A+A+A+A+A+",
"z+A+A+G+N.^.0 8 4   +.B+B+B+B+B+B+B+B+B+B+B+B+B+B+B+B+B+B+B+B+B+r 2 6 9 % n.A+z+z+z+z+A+A+G+*+t+f+f+/+Z.G.c.1._ B+B+B+B+B+B+B+B+B+B+B+B+B+B+B+B+B+B+B+B+_ d @.I H.X.)+N.G+A+A+G+G+G+",
"G+G+G+G+A+j.M @ G | v B+B+B+B+B+B+B+B+B+B+B+B+B+B+B+B+B+B+B+B+B+_.1 H J M n.N.z+z+z+A+A+A+A+G+*+(+e+/+Z.I.e.t B+B+B+B+B+B+B+B+B+B+B+B+B+B+B+B+B+B+B+B+B+{ |.#.0.D.++[+G+A+G+G+A+A+G+",
"G+G+G+A+A+N.=.9 6 2 - _ B+B+B+B+B+B+B+B+B+B+B+B+B+B+B+B+B+B+B+B+F+o G @ L j.N.z+z+z+z+A+A+A+A+G+<+0+>+Z.v.f.{ B+B+B+B+B+B+B+B+B+B+B+B+B+B+B+B+B+B+B+B+B+V 2.x.y.X.$+N.A+A+G+G+A+A+G+",
"G+G+G+G+A+N.u.0 %.4 } _.B+B+B+B+B+B+B+B+B+B+B+B+B+B+B+B+B+B+B+B+B+t G @ M j.A+A+z+A+A+A+A+A+G+G+G+}+/+Q.v.e._ B+B+B+B+B+B+B+B+B+B+B+B+B+B+B+B+B+B+B+B+_ 1.c.3.L.++&+G+A+A+G+G+A+A+G+",
"G+G+G+G+G+N.j.L &.F c t B+B+B+B+B+B+B+B+B+B+B+B+B+B+B+B+B+B+B+B+_.'.6 J % n.N.A+A+A+A+A+A+G+G+G+G+N.$+Z.I.c.y B+B+B+B+B+B+B+B+B+B+B+B+B+B+B+B+B+B+B+B+f |.b.C.Y._+0+}+G+G+G+G+A+A+G+",
"G+A+A+A+A+*+j.M J G 1 l C+B+B+B+B+B+B+B+B+B+B+B+B+B+B+B+B+B+B+A - . 7 0 =.n.A+A+A+A+A+A+G+G+G+A+A+N.& P.C.p.4.{ B+B+B+B+B+B+B+B+B+B+B+B+B+B+B+B+B+B+B+e 2.k.y.#+f+f+l+^+*+A+A+A+A+A+",
"G+A+A+A+A+z+*+T.[.;.2 - C+B+B+B+B+B+B+B+B+B+B+B+B+B+B+B+B+B+A d | G @ L & *+A+G+A+A+A+A+A+A+G+A+A+A+j.% r.v.2./...B+B+B+B+B+B+B+B+B+B+B+B+B+B+B+B+B+B+/.f.v.L./+k+k+k+k+o+3+y+A+A+A+",
"G+G+A+A+A+z+*+=.].0.. - D+C+B+B+B+B+B+B+B+B+B+B+B+B+B+B+B+B+v b 3 I # % n.A+A+G+A+A+G+A+A+A+A+A+A+A+*+=.0 ;.c.1.t : B+B+B+B+B+B+B+B+B+B+B+B+B+B+B+E+: /.c.I..+_+k+k+k+k+k+k+t+7+z+G+",
"A+A+A+A+A+z+*+F.8.0.4 m F+_ B+B+B+B+B+B+B+B+B+B+B+B+B+B+B+B+V c F + $ & N.A+G+A+G+G+A+A+G+G+G+G+G+A+A+j.M @ 3.4.U _ B+B+B+B+B+B+B+B+B+B+B+B+B+B+B+_ s.1.b.C..+:+c+c+c+p+p+p+k+p+n+u+",
"A+A+A+A+A+z+*+F.8.:.F m < y B+B+B+B+B+B+B+B+B+B+B+B+B+B+B+D+s 1 G @ M n.A+G+G+G+A+G+G+A+G+G+G+G+G+G+A+N.=.# 6 N U +.B+B+B+B+B+B+B+B+B+B+B+B+B+B+B+w 5.|.p.Q.#+:+p+s+s+s+p+p+s+p+k+m+",
"A+A+A+A+A+z+N.F.i.&.-.o < p ^ B+B+B+B+B+B+B+B+B+B+B+B+B+B+C+t C ;.[.=.N.G+G+G+G+G+A+G+G+A+G+G+G+G+G+G+A+& K 7 . l +.B+B+B+B+B+B+B+B+B+B+B+B+B+B+D+Z s.4.x.C.#+:+s+s+s+s+p+s+s+s+p+k+",
"A+A+z+z+A+z+*+F.9.@ H > < T _.B+B+B+B+B+B+B+B+B+B+B+B+B+B+B+X 3 I # ^.A+A+A+G+G+G+G+A+A+G+A+G+G+G+G+G+A+& $ 8 E - {.B+B+B+B+B+B+B+B+B+B+B+B+B+B+_ s 5.f.v.Q.#+_+s+s+s+s+s+s+s+s+s+~+",
"A+8+a+w+z+z+*+F.9.J 6 > < p s B+B+B+B+B+B+B+B+B+B+B+B+B+B+B+X . 7 0 ^.A+A+G+G+G+G+G+A+A+G+A+A+G+G+G+A+A+j.L + 5 m +.B+B+B+B+B+B+B+B+B+B+B+B+B+B+y T s.e.v.Q.#+_+k+s+s+s+s+s+s+s+s+,+",
"9+7+7+a+z+z+*+F.L 9 I , < U e < B+B+B+B+B+B+B+B+B+B+B+B+B+/ m 4 %.0 =.n.N.*+N.N.A+*+9+9+A+A+A+N.N.*+*+*+u.9.&.5 | ..B+B+B+B+B+B+B+B+B+B+B+B+B+D+p p s.q.G.L.#+_+l+l+k+p+o+o+o+o+4+%+",
"9+7+7+7+*+z+*+F.L 9 7 W < V e _.B+B+B+B+B+B+B+B+B+B+B+B+B+A   . I 9 L % % % =.=.=.U.-+&+& u.^.=.=.% % % L # 8 F | { B+B+B+B+B+B+B+B+B+B+B+B+B+{.f S s.p.G.Z.#+_+k+k+l+l+k+c+o+d+,+,+",
"9+-+-+-+8+9+9+=.L 9 8 W < r a p D+B+B+B+B+B+B+B+B+B+B+B+B+t } 3 G %.@ J J J 9 # 0 K L L L $ 0 # # J J J J 8 ;..   t B+B+B+B+B+B+B+B+B+B+B+B+B+u e V s.x.R..+#+_+k+k+l+k+k+k+k+~+%+4+",
"9+-+`.{+7+8+&+T.9.9 + W < X d e _ B+B+B+B+B+B+B+B+B+B+B+/ U d | . 5 H H H H 6 I 8 *.J J J @ 8 7 6 ;.H H H G . 1 b U ( B+B+B+B+B+B+B+B+B+B+B+B+U /.V s.v.C..+#+_+k+k+k+k+l+l+l+,+,+k+",
"9+7+T.b+8+8+a+T.m.].+ Y < '.} e y B+B+B+B+B+B+B+B+B+B+B+A O e b c | 1 1 1 1 2 . F G 6 I I H 5 . 2 C 1 1 1 1 c b e f y B+B+B+B+B+B+B+B+B+B+B+{.S 1.r s.I.Q..+#+:+k+k+k+l+l+k+,+,+4+l+",
"N.a+7+a+9+*+8+T.m.].*.Y < '.| d t B+B+B+B+B+B+B+B+B+B+B+_.n f e U t { A ..y { t '.i #.E E i '.t v y ..A y t U e f O B B+B+B+B+B+B+B+B+B+B+B+s /.4.X ( G.Q..+#+:+k+k+k+k+k+4+%+,+4+k+",
"A+w+w+y+A+A+*+T.m.].@ Y < ).2   a _ B+B+B+B+B+B+B+B+B+B+B++...+.^ B+B+B+B+B+B+B+( _ z C t _ ^ B+B+B+B+B+B+B+s.{..._.B+B+B+B+B+B+B+B+B+B+B+< U 1.f.'.( G.Q..+#+:+k+k+k+k+k+,+%+4+k+k+",
"A+9+y+z+A+A+N.F.m.].@ Y < ).#.1 d v B+B+B+B+B+B+B+B+B+B+B+B+B+B+B+B+B+B+B+B+B+B+B+B+~.| '.D+B+B+B+B+B+B+B+B+B+B+B+B+B+B+B+B+B+B+B+B+B+B+B+_.e 4.c.'.( C.Q..+=+:+k+k+k+k+4+%+,+k+k+p+",
"G+A+A+G+G+G+A+F.m.].@ Y < ).$.C } l : B+B+B+B+B+B+B+B+B+B+B+B+B+B+B+B+B+B+B+B+B+B++.| 1 | _.B+B+B+B+B+B+B+B+B+B+B+B+B+B+B+B+B+B+B+B+B+B+C+t 1.f.p.z.( C.L..+#+:+c+c+p+k+,+,+4+k+k+c+",
"G+G+G+G+G+G+N.F.m.].@ Y < (.-.#.| d {.B+B+B+B+B+B+B+B+B+B+B+B+B+B+B+B+B+B+B+B+B+: { C D 2 z F+B+B+B+B+B+B+B+B+B+B+B+B+B+B+B+B+B+B+B+B+B+_ a 4.c.x.z.( C.L..+=+:+s+k+k+4+,+~+k+k+p+k+",
"G+G+G+G+G+G+N.F.m.].@ Y < (.;.-.3   v B+B+B+B+B+B+B+B+B+A Z Z +.B+B+B+B+C+A { t X 3 F -.5 . '.t v ..: B+B+B+B+^ u s y B+B+B+B+B+B+B+B+B+{ } C k.v.z.( C.L..+=+:+p+k+4+,+,+4+s+c+p+k+",
"G+G+G+G+G+G+N.F.9.# @ Y < (.I H E 1 - ^ B+B+B+B+B+B+B+C+Z O f /.v y { v r   1 3 F H 0.:.7 6 5 . 1 c V v v y v l e f n / B+B+B+B+B+B+B+B+t | 4 H C.z.( C.L..+=+:+p+c+,+%+4+p+c+s+k+s+",
"G+G+A+G+G+A+N.F.9.# @ Y < !.7 I G 3   _.B+B+B+B+B+B+B+D+Z f a } | C 2 3 . E G I 8 <.[.].9 J + 7 H F . 3 2 C |   d e n < B+B+B+B+B+B+B+{.} 2 G I 8 (.( C.L..+=+:+p+~+%+,+c+s+c+p+p+s+",
"A+A+A+A+A+A+N.F.m.# @ Y < !.%.%.6 E | t B+B+B+B+B+B+B+B+{ e } 1 4 G 6 I 7 8 @ 9 0 L M % M L 0 9 @ 8 7 I 6 H E 2   e p C+B+B+B+B+B+B+B+t | 4 ;.%.&.!.( Q.Q..+=+:+c+,+,+0+p+s+c+c+p+s+",
"G+z+9+z+A+A+N.F.m.# @ Y < !.&.&.%.H D - [ B+B+B+B+B+B+B+{.e   3 G 8 J 9 # 0 $ L M % =.=.=.% M L $ 0 # 9 J 8 H 3 c a ..B+B+B+B+B+B+B+E+- C -.7 *.*.!.( &.H..+=+:+4+%+~+c+p+s+c+s+p+s+",
"G+A+y+y+A+A+N.F.m.# @ Y < !.&.*.&.I F c { B+B+B+B+B+B+B+B+v b 3 ;.@ 0 L % % % % M M L L L M M M % % % M K J H e.d t B+B+B+B+B+B+B+B++.} 4 6 &.h.<.!.( @ 9 [.=+:+,+,+0+s+s+s+p+p+s+s+",
"A+A+A+A+z+A+*+F.m.# @ Y < !.*.h.J &.H C r D+B+B+B+B+B+B+B+F+r 1 G @ K =.^.^.=.M $ 0 # # # 0 K L % =.^.=.L J -.2.l _.B+B+B+B+B+B+B+B+t | G %.J [.J !.( @ 9 $ O.@+%+4+s+p+p+p+s+s+s+s+",
"G+A+z+A+z+z+*+=.m.].@ Y < !.<.[.9 J 7 . } _ B+B+B+B+B+B+B+B+B } . 7 # M =.=.M ! ; J @ @ @ @ ; ~ L % =.% 0 8 E   y B+B+B+B+B+B+B+B+^ - 2 6 *.[.].h.!.( @ 9 $ g.++,+d+p+p+p+p+s+s+s+s+",
"G+A+z+A+A+z+*+F.m.].@ Y < !.<.[.8.].&.5 | { B+B+B+B+B+B+B+B+B+t 1 G @ 0 % % L z ~ = 7 7 7 = ~ B ' M M K @ H C r / B+B+B+B+B+B+B+B+_.  E %.[.8.].J !.( @ 9 0 S.++^+[+t+s+s+s+s+p+s+s+",
"G+A+A+A+G+G+*+T.m.].@ Y < !.<.].i.K J ;.C r ( B+B+B+B+B+B+B+B+_ m . 7 9 K L 0 ) y _.z ~.z _.B !.# $ $ 9 7 E c A B+B+B+B+B+B+B+B+B+t | -.*.].i.8.J !.( *.9 w.Y.@+*+G+*+b+o+k+p+s+q+s+",
"G+G+G+G+G+G+A+T.t.].*.Y < !.*.[.i.t.].:.#.} _.B+B+B+B+B+B+B+B+B+v | G + # 0 9 + 6 { D+B+B+B Y %.J 8.].*.H C v B+B+B+B+B+B+B+B+B+[ - 3 6 [.m.m.8.J !.( @ J H.Y.$+G+G+G+A+h+t+s+s+p+s+",
"G+G+G+G+G+G+A+F.i.[.*.Y < (.7.[.8.B.A.6.$.c t B+B+B+B+B+B+B+B+B+_ m . I @ # J 8 6 5 , '.'.>.H :.l.h.l.:.#.  B B+B+B+B+B+B+B+B+B+_.b F 8 8.E.m.8.J !.( @ a.L.V.u.G+G+G+G+G+N.b+m+p+s+",
"A+G+G+G+A+A+N.^.m.].*.Y < (.7.[.8.i.B.7.-.C - F+B+B+B+B+B+B+B+B+B+t 1 G 8 @ *.7 H E 3 e.f.e.}.0.7.7.6.G 1 - s.B+B+B+B+B+B+B+B+D+V | G J m.M.i.].h.!.( 7.y.L.g.& G+G+G+G+G+G+G+h+n+s+",
"y+z+A+z+z+z+N.F.m.].*.Y < (.*.].t.M.E.A.I @.} _.B+B+B+B+B+B+B+B+B+y   . ;.%.8 I -., k N f.'.c.d.0.%.I E c t B+B+B+B+B+B+B+B+B+{.b D 0.].M E.i.A.<.!.( y.C.r.% & G+A+A+A+A+A+A+A+z+b+",
"z+z+A+z+z+z+N.^.m.].*.Y < (.*.].t.`.-+m.*.-.| r B+B+B+B+B+B+B+B+B+_ - 1 E H W z B D+^ A {.B+_.{ z.-.G 2 } _.B+B+B+B+B+B+B+B+B+{ c F 7.t.T.T.m.].h.!.( G.y.# % & A+A+z+z+y+y+z+A+z+y+",
"A+A+A+G+A+A+A+^.9.].*.Y < (.*.].i.E.-+T.[.0.C d _ B+B+B+B+B+B+B+B+B+{   D F ~.z z z y A B z z z z b.R c r B+B+B+B+B+B+B+B+B+B+V 1 H h.M.-+T.E.8.h.!.( G.a.$ % u.z+A+A+z+y+y+z+G+y+w+",
"G+G+G+G+G+G+A+^.9.].*.Y < (.7.[.8.M.-+T.i.8 $.  _.B+B+B+B+B+B+B+B+B++.d 1 4 G G Q 4 3 2 3 . * H Q b.4./.{ B+B+B+B+B+B+B+B+B+{.} @.I [.`.U.`.t.].h.(.( C.J $ % U.y+A+G+A+z+z+z+A+y+w+",
"G+G+G+G+G+G+A+^.9.].*.Y < !.&.h.A.M.7+&+E.J G | r F+B+B+B+B+B+B+B+B+B+t   2 E G z _.B B B {.z -.F C |.V _ B+B+B+B+B+B+B+B+B+t | 5 &.i.U.!+`.t.8.<.).( D.9 K E.-+y+A+G+G+G+A+A+A+y+w+",
"G+G+G+G+G+G+A+^.9.].*.Y < !.<.].8. +8+9+=.8.0.D d _.B+B+B+B+B+B+B+B+B+..a   2 4 F ~.y B y t $.#.C c a B B+B+B+B+B+B+B+B+B+F+- C ;.[.T.!+9+F.E.8.D.z.( *.9 i.M.T.w+A+G+G+G+A+A+A+y+w+",
"G+G+G+G+G+G+A+^.9.].*.Y < !.*.].8.M.&+N.u.t.6.$.c v B+B+B+B+B+B+B+B+B+B+v a c C #.E F F F $.@.C c d U C+B+B+B+B+B+B+B+B+B++.} D I i.=.9+9+T.E.[.y.z.( @ 9 i.M.T.w+9+z+A+G+A+A+A+y+w+",
"G+G+G+G+G+G+A+^.9.].*.Y < !.*.].8.M.&+*+&+M.l.G 1 r D+B+B+B+B+B+B+B+B+B+^ l d c C . 4 E 4 D 1 c d U _.B+B+B+B+B+B+B+B+B+B+t c $.%.t.U.8+!+T.m.o.C.(.( @ 9 i.M.T.w+w+y+A+G+G+A+A+y+w+",
"G+G+G+G+G+G+A+^.9.].*.Y < !.*.[.A. +8+A+9+`.A.0.@.} {.B+B+B+B+B+B+B+B+B+B+{.t a   | 1 C 1 | } a U _.B+B+B+B+B+B+B+B+B+B+_ d 2 ;.h.T.!+9+8+F.P.L.y.!.( *.9 K E.T.w+w+y+A+A+G+A+A+z+y+",
"A+A+G+G+G+G+A+^.L ].*.Y < !.<.].8. +*+A+N.&+t.7.F c v B+B+B+B+B+B+B+B+B+B+B+^ u l a d b d a U v {.B+B+B+B+B+B+B+B+B+B+B+_.} E 8 i.U.*+z+*+T.S.L.a.!.( *.9 $ M U.z+z+z+A+A+A+A+A+z+z+",
"A+G+A+A+A+A+A+^.9.].*.Y < !.<.].8.`.*+G+*+j.% 9 6 2 - ^ B+B+B+B+B+B+B+B+B+B+B+B+^ y u w u y _ B+B+B+B+B+B+B+B+B+B+B+B+B+t 4.3.<.E.&+9+9+9+O.Y.D.<.!.( *.9 $ % & G+G+A+A+z+A+A+A+z+A+",
"A+A+A+A+A+G+A+^.9.].*.Y < !.<.].t.T.*+A+A+*+^.0 8 4 } _.B+B+B+B+B+B+B+B+B+B+B+B+B+B+B+C+B+B+B+B+B+B+B+B+B+B+B+B+B+B+B+_ 1.f.v.H.O.&+*+9+-+@+Y.K.J !.( *.9 K % & G+A+A+A+A+A+A+A+z+z+",
"z+y+z+z+A+G+A+^.L ].*.Y < !.@ ].9.u.N.A+A+N.j.L @ G | t B+B+B+B+B+B+B+B+B+B+B+B+B+B+B+B+B+B+B+B+B+B+B+B+B+B+B+B+B+B+B+v c >.C.Z.++^+*+z+;+S.V.8.J !.( *.9 i.M u.G+A+z+z+A+A+A+z+y+y+",
"y+9+9+z+A+G+A+^.9.].*.Y < !.@ # L u.A+A+A+A+N.=.9 I 3 - < B+B+B+B+B+B+B+B+B+B+B+B+B+B+B+B+B+B+B+B+B+B+B+B+B+B+B+B+B+: - 1 ;.l.V.++'+;+b+%+++B.8.h.!.( *.[.i.E.U.y+z+z+y+z+A+z+y+y+w+",
"w+w+w+y+A+G+A+^.9.].*.Y < !.<.].L u.A+A+z+z+A+u.K %.E   _.B+B+B+B+B+B+B+B+B+B+B+B+B+B+B+B+B+B+B+B+B+B+B+B+B+B+B+B+B+{.} @.0.A.E.;+,+%+,+'+W.t.A.l.!.( &.[.i.E.U.y+w+y+z+y+y+y+y+w+w+",
"w+w+w+y+A+G+A+^.m.[.&.Y < (.&.h.8.M u.u.u.u.u.=.i.&.5 | V C+B+B+B+B+B+B+B+B+B+B+B+B+B+B+B+B+B+B+B+B+B+B+B+B+B+B+B+B+v } #.0.<.i.E.O.@+++++V.h.l.6.(.( 7.J i.E.&+y+y+y+z+z+w+w+w+9+w+",
"w+y+y+z+A+G+A+^.9.[.&.Y < ).6 %.*.9 K i.i.i.K 8.J 7 F | a _ B+B+B+B+B+B+B+B+B+B+B+B+B+B+B+B+B+B+B+B+B+B+B+B+B+B+B+^ /.  @.;.7.[.].A.H.L.L.y.C.0.0.(.( %.h.0 M u.z+z+z+z+z+z+y+y+y+y+",
"A+A+A+G+G+G+A+^.9.9 %.W < ).F -.H I %.%.%.%.%.7 6 -.3   e { B+B+B+B+B+B+B+B+B+B+B+B+B+B+B+B+B+B+B+B+B+B+B+B+B+B+B+_.e } C F ;.I %.;.v.G.;.3.p.p.}.).( I @ 0 % & A+A+A+A+A+G+G+A+A+A+",
"G+G+G+G+G+G+A+^.L J 7 W < D 3 D @.4 F F F F F F 4 3 | b e O [ B+B+B+B+B+B+B+B+B+B+B+B+B+B+B+B+B+B+B+B+B+B+B+B+B+D+g e b | D 4 F E b.c.>.F . R f.f.c.( ;.&.# % & G+G+G+G+G+G+G+G+G+G+",
"A+A+A+A+A+A+N.u.L J 7 W F+1 | | | | 1 1 1 1 1 1 1 | } a e g _ B+B+B+B+B+B+B+B+B+B+B+B+B+B+B+B+B+B+B+B+B+B+B+B+B+F+g f a b c 1 1 c 4.2.1 1 | | c 4.4.< 3.8 ].% & G+G+G+G+G+G+A+G+G+A+",
"z+y+y+y+y+9+w+u.L J 7 ,.D+B+B+B+B+B+D+D+D+D+D+D+D+D+D+D+D+B+B+B+B+B+B+B+B+B+B+B+B+B+B+B+B+B+B+B+B+B+B+B+B+B+B+B+B+D+E+E+E+E+E+E+E+E+E+F+F+F+F+F+F+F+D+b.C.[.% j.G+G+G+G+G+G+G+A+G+G+",
"y+z+9+w+w+w+8+u.M 9 %.W F+B+B+B+B+B+B+B+B+B+B+B+B+B+B+B+B+B+B+B+B+B+B+B+B+B+B+B+B+B+B+B+B+B+B+B+B+B+B+B+B+B+B+B+B+B+B+B+B+B+B+B+B+B+B+B+B+B+B+B+B+B+B+p.G.[.% n.G+G+G+G+G+G+G+G+G+G+",
"w+z+y+w+w+w+8+j.% 8.&.Y : B+B+B+B+B+B+B+B+B+B+B+B+B+B+B+B+B+B+B+B+B+B+B+B+B+B+B+B+B+B+B+B+B+B+B+B+B+B+B+B+B+B+B+B+B+B+B+B+B+B+B+B+B+B+B+B+B+B+B+B+B+B+G a.K =.n.A+A+G+A+A+A+A+A+A+A+",
"w+w+y+z+9+w+y+j.=.L 9 %.-.,.i R k k k k k k k k k k k | m d e s B+B+B+B+B+B+B+B+B+B+B+B+B+B+B+B+B+B+B+B+B+B+B+_.e a - 4.4.m m m f.k k k k k k R i ,.C.%.[.m.U.8+y+z+z+z+z+z+z+z+z+y+",
"z+y+y+A+A+z+z+N.u.% K J %.;.G 5 F E E E E E E E E E E . 2 | b e ^ B+B+B+B+B+B+B+B+B+B+B+B+B+B+B+B+B+B+B+B+B+< U a c C 3 R c.c.c.>.$.#.#.#.#.$.F -.;.:.h.i.`.7+w+y+w+w+w+w+w+w+w+w+w+",
"A+z+z+z+A+G+A+N.j.u.% t.[.<.&.%.7 7 7 7 7 7 7 7 7 7 7 I G 4 1 b _.B+B+B+B+B+B+B+B+B+B+B+B+B+B+B+B+B+B+B+B+B+_.a c 3 G 6 ;.3.v.v.3.H 0.;.;.;.0.:.6.7.<.B.`.-+&+9+y+y+w+y+y+y+y+y+y+y+",
"z+z+z+z+z+A+G+*+*+!+u.T.E.t.i.i.8.0 0 0 8.8.0 0 0 0 0 ].@ 7 -.C X < : : : : : : : : : : : : : : : : : : : : t | $.;.*.9 r.L.D.D.L.L.o.h.h.w.J [.A.A.i.E.-+!+*+*+z+y+y+z+z+z+z+z+z+z+",
"A+z+A+z+z+y+A+A+9+9+9+9+!+U.U.U.u.u.u.u.u.u.u.u.u.u.u.=.L ].8 G D _ s.B+B+B+B+B+B+B+B+B+B+B+B+B+B+B+B+B+B+_ R F I <.9.9.++++O.M.@+++++W.O.E.E.E.E.`.T.-+!+*+N.z+z+z+z+z+A+A+A+A+A+A+",
"A+A+A+A+A+z+z+A+z+*+z+z+*+9+*+*+N.N.N.N.N.N.N.N.*+*+*+*+u.M 8.&.;.4 N |.1.b } } } } } } } } } } } }   c 1 @.G %.J m.=.)+'+(+&+&+-+;+'+'+;+!+&+&+U.U.8+8+8+z+A+z+9+z+A+A+A+A+A+A+A+A+",
"z+A+A+A+A+z+z+z+z+A+*+z+*+*+9+z+z+A+A+A+A+A+z+w+w+8+8+a+7+T.M.A.7.;.k.b.b.@.#.@.@.#.#.#.@.@.@.D @.4 E 5 G 0.&.[.i.T.$+'+~+[+9+8+8+9+{+;+9+9+8+9+8+!+8+8+y+A+G+A+*+*+A+G+G+A+A+z+z+z+",
"z+A+G+G+G+A+A+z+*+A+A+N.*+9+9+z+z+A+A+A+A+A+*+8+a+a+a+a+a+-+`.M.A.D.C.C.0.0.:.%.:.:.:.:.:.:.0.;.0.%.8 7.<.J 8.M.T.&+)+'+^+A+z+*+9+*+z+*+A+z+*+9+8+8+8+9+z+G+G+A+*+*+z+A+G+G+A+A+z+9+",
"A+A+G+G+G+A+A+A+*+z+A+A+*+*+z+z+A+A+A+A+A+A+A+y+8+8+8+w+8+a+7+-+P.X.X.A.8.A.A.B.i.8.8.8.8.A.A.h.[.8.i.t.m.E.T.U.j.$+'+)+*+A+z+z+z+z+A+G+A+A+A+*+9+9+9+9+z+G+G+A+*+*+z+A+G+G+A+z+9+a+",
"G+G+G+G+G+G+G+A+z+z+z+A+A+z+z+z+A+A+A+A+A+A+A+A+z+z+z+z+z+9+*+3+'+++;+&+U.U.U.&+u.& u.u.u.-+`. +E.U.U.U.&+&+j.N.h+,+'+3+G+A+A+A+A+A+A+G+G+G+A+A+9+8+9+9+z+G+G+A+*+*+z+A+G+G+A+z+9+8+",
"G+G+G+G+G+G+G+A+*+*+z+*+A+z+*+z+A+A+A+A+A+A+A+A+A+A+A+A+z+A+9+)+'+;+z+z+A+A+z+A+A+A+G+G+A+A+*+a+8+*+*+*+9+9+9+z+^+'+)+A+G+A+A+A+A+A+A+G+G+G+G+G+A+9+8+9+A+A+G+z+9+9+z+A+G+A+A+z+z+z+",
"G+G+G+G+G+G+G+A+z+*+z+*+*+z+z+z+A+A+A+A+A+A+A+A+A+A+A+A+A+A+;+'+)+9+A+z+A+A+A+A+A+A+A+G+A+A+A+*+*+*+*+*+9+9+*+z+*+^+[+G+A+A+z+z+z+A+A+A+G+G+G+A+G+A+9+9+z+A+A+z+9+*+z+A+G+G+A+A+z+z+",
"G+A+A+G+G+G+G+A+z+z+A+z+z+y+z+A+A+A+A+A+A+A+A+A+A+A+A+A+G+3+,+,+}+G+A+A+A+A+A+A+A+A+A+A+A+z+z+z+z+z+z+*+*+9+*+A+A+A+A+A+A+A+z+z+A+z+A+A+G+A+A+G+G+A+A+A+A+A+A+z+*+z+A+G+G+G+G+A+A+A+"};
