/* XPM */
static const char * fs2_background_xpm[] = {
"375 440 256 2",
"  	c #02120E",
". 	c #06120E",
"+ 	c #030E0A",
"@ 	c #02160E",
"# 	c #061A12",
"$ 	c #123626",
"% 	c #0E2A1E",
"& 	c #1A4E36",
"* 	c #02120A",
"= 	c #020A06",
"- 	c #123A26",
"; 	c #16462E",
"> 	c #163E2A",
", 	c #0E261A",
"' 	c #0A1A12",
") 	c #1A422E",
"! 	c #163626",
"~ 	c #0E1E16",
"{ 	c #162E22",
"] 	c #0E1612",
"^ 	c #102E1E",
"/ 	c #1E5236",
"( 	c #06180E",
"_ 	c #123E26",
": 	c #123622",
"< 	c #1A4B30",
"[ 	c #17422A",
"} 	c #1E4A32",
"| 	c #16462A",
"1 	c #1A462D",
"2 	c #1E4E33",
"3 	c #1C3D2A",
"4 	c #0A1E12",
"5 	c #163D26",
"6 	c #163221",
"7 	c #0A2A16",
"8 	c #0A2414",
"9 	c #133A22",
"0 	c #163622",
"a 	c #0F2216",
"b 	c #20442E",
"c 	c #0E321B",
"d 	c #0E2C19",
"e 	c #164226",
"f 	c #12341E",
"g 	c #385542",
"h 	c #020E06",
"i 	c #061E0E",
"j 	c #0A2212",
"k 	c #0E2616",
"l 	c #6D7F73",
"m 	c #06130A",
"n 	c #163E22",
"o 	c #1E462A",
"p 	c #20412A",
"q 	c #1D3A26",
"r 	c #172C1D",
"s 	c #1C3423",
"t 	c #2A4F34",
"u 	c #0E2E16",
"v 	c #0E1E12",
"w 	c #0E1A11",
"x 	c #0B140D",
"y 	c #28432E",
"z 	c #66786A",
"A 	c #061A0A",
"B 	c #0A1E0E",
"C 	c #061E0A",
"D 	c #0A220E",
"E 	c #0E2612",
"F 	c #253A28",
"G 	c #051206",
"H 	c #020A02",
"I 	c #020602",
"J 	c #141C14",
"K 	c #1A241A",
"L 	c #374E34",
"M 	c #212D1F",
"N 	c #334430",
"O 	c #50614C",
"P 	c #414E3C",
"Q 	c #4A5546",
"R 	c #656C62",
"S 	c #060A02",
"T 	c #414E33",
"U 	c #C2C4C0",
"V 	c #455137",
"W 	c #14180E",
"X 	c #70726C",
"Y 	c #060602",
"Z 	c #4E4E33",
"` 	c #151512",
" .	c #43433C",
"..	c #0C0C0B",
"+.	c #64645C",
"@.	c #A2A299",
"#.	c #6D6B5B",
"$.	c #5A5952",
"%.	c #4B4A44",
"&.	c #1C1B16",
"*.	c #747163",
"=.	c #13120E",
"-.	c #6D6B63",
";.	c #7E7C74",
">.	c #928F84",
",.	c #7C786B",
"'.	c #FEBA02",
").	c #F5B402",
"!.	c #EBAD07",
"~.	c #DBA515",
"{.	c #E5AE18",
"].	c #888375",
"^.	c #FCB602",
"/.	c #F3AD02",
"(.	c #EBA802",
"_.	c #E09F02",
":.	c #F3B309",
"<.	c #E0A30B",
"[.	c #D2990C",
"}.	c #EBAE10",
"|.	c #584108",
"1.	c #D29E1E",
"2.	c #C4941C",
"3.	c #E1AB21",
"4.	c #A27A18",
"5.	c #B98F27",
"6.	c #CBA136",
"7.	c #0C0A05",
"8.	c #4E452E",
"9.	c #25231E",
"0.	c #D69502",
"a.	c #CA8B02",
"b.	c #906506",
"c.	c #BC8713",
"d.	c #644B13",
"e.	c #AF8422",
"f.	c #725617",
"g.	c #836623",
"h.	c #95742A",
"i.	c #725C28",
"j.	c #312B1E",
"k.	c #AB7302",
"l.	c #5A4D33",
"m.	c #443F35",
"n.	c #37342E",
"o.	c #645F55",
"p.	c #B77802",
"q.	c #C27F03",
"r.	c #8A5903",
"s.	c #9D6A0E",
"t.	c #46320F",
"u.	c #756A56",
"v.	c #7D725E",
"w.	c #756C5C",
"x.	c #B36F03",
"y.	c #A66804",
"z.	c #B87912",
"A.	c #2E2008",
"B.	c #4D463B",
"C.	c #5C5447",
"D.	c #6D6455",
"E.	c #514A3F",
"F.	c #564F44",
"G.	c #2C2924",
"H.	c #9F6203",
"I.	c #794A03",
"J.	c #472B03",
"K.	c #AB6F13",
"L.	c #58452A",
"M.	c #62594B",
"N.	c #7E7363",
"O.	c #837868",
"P.	c #322E28",
"Q.	c #3C2506",
"R.	c #9E6921",
"S.	c #805E32",
"T.	c #4E3E29",
"U.	c #685D4E",
"V.	c #726656",
"W.	c #6A6052",
"X.	c #211E1A",
"Y.	c #3E3932",
"Z.	c #894C02",
"`.	c #995503",
" +	c #493823",
".+	c #4A4238",
"++	c #7B6E5E",
"@+	c #6D655B",
"#+	c #6A3802",
"$+	c #935916",
"%+	c #413221",
"&+	c #753B02",
"*+	c #5F3102",
"=+	c #0A0602",
"-+	c #664B2F",
";+	c #534639",
">+	c #7B6A59",
",+	c #72665A",
"'+	c #813F03",
")+	c #582C03",
"!+	c #130B04",
"~+	c #382617",
"{+	c #652E02",
"]+	c #8F4205",
"^+	c #864A1C",
"/+	c #27170B",
"(+	c #281C13",
"_+	c #2E2117",
":+	c #7A6656",
"<+	c #734A2D",
"[+	c #752F03",
"}+	c #823408",
"|+	c #6C3515",
"1+	c #6C2C0C",
"2+	c #3A1807",
"3+	c #1C0C04",
"4+	c #0E0602",
"5+	c #7A3714",
"6+	c #1B0F09",
"7+	c #5E3A28",
"8+	c #43281B",
"9+	c #230D04",
"0+	c #5C2711",
"a+	c #1C1512",
"b+	c #120602",
"c+	c #502D21",
"d+	c #491D10",
"e+	c #160602",
"f+	c #3B1910",
"g+	c #2C0B04",
"h+	c #130D0C",
"i+	c #240E0B",
"j+	c #340A05",
"k+	c #3C0B06",
"l+	c #2C0402",
"m+	c #46100C",
"n+	c #340D0B",
"o+	c #2D0E0C",
"p+	c #600603",
"q+	c #450503",
"r+	c #510604",
"s+	c #1C0302",
"t+	c #240403",
"u+	c #3B0403",
"v+	c #340403",
"w+	c #160202",
"x+	c #120202",
"y+	c #0E0202",
"z+	c #0A0202",
"A+	c #180606",
"B+	c #120606",
"C+	c #060202",
"D+	c #0E0606",
"E+	c #0A0606",
"F+	c #060606",
"G+	c #020202",
"G+G+G+G+G+G+G+G+G+G+G+G+G+G+G+G+I I G+G+G+G+I G+G+I I G+G+G+G+G+G+G+G+G+G+G+G+I G+G+I H G+G+I I G+G+G+G+G+G+I H H H I I I G+G+G+G+G+G+G+G+G+G+G+G+G+G+G+. 8 . G+G+G+G+G+G+G+G+G+G+G+G+G+G+G+G+G+G+G+H H H H G+G+= h h + + h H H H = + + h H H H H I G+G+G+G+G+G+G+G+G+G+G+G+I = I I I G+G+G+G+G+G+I H H H = H I I G+G+G+G+G+I I G+G+G+G+G+G+G+G+G+G+G+G+G+G+G+G+G+G+G+G+G+G+G+G+G+G+G+G+G+G+H H H H I I = = = H H I I I I I I I I I I I G+G+G+G+G+G+G+G+G+G+G+G+G+G+G+G+I I G+G+G+G+G+G+G+G+G+G+G+G+G+G+G+G+G+I # 4 = G+G+G+G+I I I G+I I I G+G+G+G+G+G+G+G+G+G+G+G+G+G+I H I G+I I G+G+G+G+G+G+I H H H I I I G+G+G+G+G+G+G+G+G+G+G+G+G+m 8 # = G+G+G+G+G+G+G+G+G+G+G+G+G+G+G+G+G+G+G+G+H H H H I I H H h * * h H H H h + + h = H H . j 8 . G+G+G+G+G+G+G+G+G+G+G+I I I I I G+",
"+ G+G+G+G+G+G+G+G+G+G+G+G+G+G+G+G+G+G+G+G+I G+G+G+I I I G+G+G+G+G+G+G+G+G+G+G+G+G+G+I H I G+I G+G+G+G+G+G+G+I H H H I I I G+G+G+G+G+G+G+G+G+G+G+G+G+G+G+I 4 8 + G+G+G+G+G+G+G+G+G+G+G+G+G+G+G+G+G+G+I H H I G+I H H h h * h H H H = + h h = H H H H G+G+G+G+G+G+G+G+G+G+G+G+I I I I I I I G+G+G+G+G+I I I I I G+G+G+G+G+I I H H I G+G+G+G+G+G+G+G+G+G+G+G+G+G+G+G+G+G+G+G+G+G+G+G+G+G+G+G+G+G+I H H H H I I I G+G+G+G+G+G+G+G+G+G+G+G+G+G+G+G+G+G+G+G+G+G+G+G+G+G+G+G+G+G+I G+G+G+I I G+G+G+G+G+G+G+G+G+G+G+G+G+( 8 = G+G+G+G+I I G+G+G+I G+G+I G+G+G+G+G+G+G+G+G+G+G+G+G+H I G+G+G+G+G+G+G+G+G+G+I H H I I G+G+G+G+G+G+G+G+G+G+G+G+G+= 4 8 + G+G+G+G+G+G+G+G+G+G+G+G+G+G+G+G+G+G+G+G+G+G+I I I G+G+I I I = = I I I I H = H I I H ( 8 8 m G+G+G+G+G+G+G+I G+G+I I G+G+I I I G+",
"4 + G+G+G+G+G+G+G+G+G+G+G+G+G+G+G+G+G+G+G+I G+G+G+G+I I I I G+G+G+G+G+G+G+G+G+G+G+G+I H I G+G+G+G+G+G+G+G+G+I H H I I I G+G+G+G+G+G+G+G+G+G+G+G+G+G+G+G+G+m 8 # I G+G+G+G+G+G+G+G+G+G+G+G+G+G+G+G+G+G+G+G+G+G+G+G+G+I I I I I G+I I I I I G+G+G+G+G+G+G+G+G+G+G+G+G+G+G+G+I G+G+I G+I I I G+G+G+G+I G+G+G+G+G+G+G+I G+G+G+I I H I G+G+G+G+G+G+G+G+G+G+G+G+G+G+G+G+G+G+G+G+G+G+G+G+G+G+G+G+G+G+G+I I I I H H H I I I G+G+G+G+G+G+G+G+G+G+G+G+G+G+G+G+G+G+G+G+G+G+G+G+G+G+G+I G+G+I I H I G+G+G+G+I I I G+G+G+G+G+( 8 h G+G+G+G+I G+G+G+I I G+I = I I I G+G+G+G+G+G+G+G+G+G+I I G+G+G+G+G+G+G+G+G+G+I I I G+G+G+G+G+G+G+I G+G+G+G+G+G+I # 8 . G+G+G+G+G+G+G+G+G+G+G+G+G+G+G+G+G+G+G+G+G+G+G+G+G+G+G+G+G+G+G+G+G+G+G+G+G+G+G+G+G+I ( 8 4 + G+G+G+G+G+G+G+G+I G+G+G+I I G+I I I I ",
"8 4 = G+G+I H H I G+G+G+G+G+G+G+G+G+I I I I I G+G+I G+I H H I I G+G+G+G+G+G+G+G+G+G+I I G+G+G+G+G+G+G+G+G+G+G+I I G+G+G+G+G+G+G+G+I I G+G+G+G+G+G+G+G+G+G+I # 8 m G+G+G+G+G+G+G+G+G+G+G+G+G+G+G+G+G+G+G+G+G+G+G+G+G+G+G+G+G+G+G+G+G+G+G+G+G+G+G+G+G+G+G+G+G+G+G+G+G+G+G+G+G+I G+G+G+G+I I I G+G+G+G+G+G+G+G+G+G+I I I G+G+G+I I G+G+G+G+G+G+G+G+G+G+G+G+G+G+G+G+G+G+G+G+G+G+G+G+G+G+G+G+G+G+G+G+I = = = + * * * * * = I G+G+G+G+I I I I I I I I I I I G+G+G+G+G+G+G+G+G+I I G+G+I H H I G+G+G+I H H H I G+G+G+G+. 8 m G+G+I H H I G+G+I I I H H H I I G+G+G+G+G+G+G+G+G+G+G+G+G+G+G+G+G+G+G+G+G+G+G+G+G+G+G+G+G+G+G+G+G+G+G+G+G+G+G+. 8 # I G+G+G+G+G+G+G+G+G+G+G+G+G+G+G+G+G+G+G+G+G+G+G+G+G+G+G+G+G+G+I I I I G+G+G+G+G+G+h # 8 # = G+G+G+G+G+G+G+G+G+I G+G+G+G+I G+G+I G+I ",
"( 8 4 = G+H H H H G+G+G+G+G+G+G+G+G+G+I H H I G+G+I I I H H I G+G+G+G+G+G+G+G+G+G+G+G+G+G+G+G+G+G+G+G+G+G+G+G+G+G+G+G+G+G+G+G+G+G+G+G+G+G+G+G+G+G+G+G+G+G+G++ 8 4 I G+G+G+G+G+G+G+G+G+G+G+G+G+G+G+G+G+G+G+G+G+G+G+G+I I H I G+G+G+G+G+G+G+G+G+G+G+G+G+G+G+G+G+G+G+G+I G+G+G+G+G+G+G+G+G+G+G+G+G+G+G+G+G+G+G+G+G+I I I G+G+G+I I I G+G+G+G+G+G+I H I G+G+G+G+G+G+G+G+G+G+G+G+G+G+G+G+G+G+G+G+G+I I = + + h + * * * * h I G+G+G+G+I H H I I I I I I G+G+G+G+G+G+G+G+G+G+G+I H G+G+I H H I G+G+G+H H H H I G+G+G+G+m 8 m G+G+I H H H I I I I G+I H I G+G+G+G+I I I I G+G+G+G+G+G+G+G+G+G+G+G+G+G+G+G+G+G+G+G+G+G+G+G+G+G+G+G+G+G+G+G++ 8 4 = G+G+G+G+G+G+G+G+G+G+G+G+G+G+G+G+G+G+G+G+G+G+G+G+G+G+G+I G+G+I H h h H H I G+G+G++ 4 8 ( = I I I I I I I G+G+G+H G+G+G+G+G+G+G+G+G+I ",
"H . 8 # h H = H H I G+G+G+G+G+G+G+G+I I H = H H I I G+G+I I G+G+G+G+G+I H I G+G+G+G+G+G+G+G+G+G+G+G+G+G+G+G+G+G+G+G+G+G+G+G+G+G+G+G+G+G+G+G+G+G+G+G+G+G+G+G+G+. 8 . G+G+G+G+G+G+G+G+G+G+G+G+G+G+G+G+G+G+I I I I I H H + * h H I G+G+G+G+I H H I I I H H I I I G+G+I I G+G+G+G+G+G+G+G+I G+G+G+G+G+G+G+G+G+G+G+G+G+I G+G+G+I H H I G+G+G+G+G+G+I H I G+G+G+G+G+G+G+G+G+G+G+G+G+G+G+G+G+G+G+G+G+I I I H H H I H = = H H I G+G+G+G+G+G+G+G+G+G+G+G+G+G+G+G+G+G+G+G+G+G+G+G+H H G+G+I I H I G+G+G+I H H H I G+G+G+G++ 8 . I H H H H h H H I I G+I I G+G+G+G+G+H h h I G+I G+G+G+G+G+G+G+G+G+G+G+G+G+G+G+G+G+G+G+G+G+G+G+G+G+G+G+G+G+= 4 8 m G+G+G+I G+G+G+G+G+G+G+G+G+G+G+G+G+G+G+G+G+G+G+G+G+G+I H H I I I H + * h H H G+G+. 8 8 . H I H H H I H H H G+G+G+I G+G+G+G+G+G+G+G+= ( ",
"I I ( 8 # h I I I G+G+G+G+G+G+G+G+I H = H H h = H I G+G+G+G+G+G+G+G+I h h H G+G+I G+G+G+G+G+G+G+G+G+G+G+G+G+G+G+G+G+G+G+G+G+G+G+G+G+G+G+G+G+G+G+G+G+G+G+I I G+I # 8 + G+G+G+G+G+G+G+G+G+G+G+G+G+G+G+G+I H H H H I I = * . * h I G+G+G+G+I H H I I I I I I I I G+G+G+I G+G+G+G+G+G+G+G+G+I I G+G+G+G+G+G+G+G+G+G+G+I G+G+G+I I I G+G+G+G+G+G+G+G+G+G+G+G+G+G+G+G+G+G+G+G+G+G+G+G+G+G+G+G+G+G+G+G+G+G+G+G+G+G+G+G+G+G+G+G+G+G+G+G+G+G+G+G+G+G+G+G+G+G+G+G+G+I G+G+G+G+G+I H H G+G+I I H G+G+G+G+G+I I G+G+G+G+G+G+= 8 ( H H h h H H h = I G+G+G+G+G+G+G+G+G+h h h H G+I G+G+G+G+G+G+G+G+G+G+G+G+G+G+G+G+G+G+G+G+G+G+G+G+G+G+G+G+G+( 8 . G+G+I H H G+G+G+G+G+G+G+G+G+G+G+G+G+G+G+G+G+G+G+G+G+G+I H H I G+G+I h * * H G+I ( 8 4 m I I G+G+I G+G+G+G+G+G+G+G+I G+G+G+G+G+G+G+* 4 8 ",
"I G+I # 8 ( I G+G+G+G+G+G+G+G+G+I H H H H H H h = I I G+G+G+G+G+G+G+I h h h I G+I I G+G+G+G+G+G+G+G+G+G+G+G+G+G+G+G+G+G+G+G+G+G+G+G+G+G+G+G+G+G+G+G+G+I H I G+G+m 8 # I G+G+G+G+G+G+G+G+G+I G+G+G+G+G+I I H H I G+G+I h . * H I G+G+G+G+G+I I G+G+G+G+G+G+G+G+G+G+G+I G+G+G+G+G+G+G+G+G+I H H H I I G+G+G+G+G+G+G+I G+G+G+I I G+G+G+G+G+G+G+G+G+G+G+G+G+G+G+G+G+G+G+G+G+G+G+G+G+G+G+G+G+G+G+G+G+G+G+G+G+G+G+G+G+G+G+G+G+G+G+G+G+G+G+G+G+G+G+G+G+G+G+G+G+G+G+G+G+G+G+G+I H H G+G+I I H I G+G+G+G+G+G+G+G+G+G+G+G+I 4 # H H H H H H h = I I G+G+G+G+G+G+G+G+H h h H I I I G+G+G+G+G+G+G+G+G+G+G+G+G+G+G+G+G+G+G+G+G+G+G+G+G+G+G+m 8 # I G+G+G+I I G+G+G+G+G+G+G+G+G+G+G+G+G+G+G+I G+G+G+G+G+G+I I I G+G+G+I H = h I I # 8 # h G+G+G+G+G+G+G+G+G+G+G+G+G+G+I G+G+G+G+G+I . 8 8 ( ",
"I G+G+= # 8 . I G+G+G+G+G+G+G+G+G+I H H H H = h H I I I G+G+G+G+G+G+I h h h H I I I G+G+G+G+G+G+G+G+G+G+G+G+G+G+G+G+G+G+G+G+G+G+G+G+G+G+G+G+G+G+G+G+G+G+G+G+G+G+I # 8 m G+G+G+G+G+G+G+G+I I I G+G+I I I I I I I G+G+I H H H G+G+G+G+G+G+G+G+G+G+G+G+G+G+G+G+G+G+G+G+I G+G+G+G+G+G+G+G+H I H h h H I G+G+G+G+G+G+G+G+G+G+G+G+G+G+G+G+G+G+G+G+G+G+G+G+G+G+G+G+G+G+G+G+G+G+G+G+G+G+G+G+G+G+G+G+G+G+G+G+G+G+G+G+G+G+G+G+G+G+G+G+G+G+G+G+G+G+G+G+G+G+G+G+G+G+G+G+G+G+G+G+G+G+G+I G+G+I H H G+G+G+G+I I G+G+G+G+G+G+G+G+4 4 H I H H H h h = I I G+G+G+G+G+G+G+G+H h h = I I I G+G+G+G+G+G+I I I G+G+G+G+G+G+G+G+G+G+G+G+G+G+G+G+G+= 8 8 h G+G+G+G+G+G+G+G+G+G+G+G+G+G+G+G+G+G+G+G+G+I I G+G+I I I G+I I G+G+I I I I G+h 4 8 # = G+G+G+G+G+G+G+G+G+G+G+G+G+G+G+I G+G+G+G+= # 8 4 m H ",
"I G+G+G+h # 8 . G+G+G+G+G+G+G+G+G+I H H H h * * H I I I I G+G+G+G+G+I h * * = H H I G+G+G+G+G+G+I I I I G+G+G+G+G+G+G+G+G+G+G+G+G+G+G+G+G+G+G+G+G+G+G+G+G+G+G+G+G+h 8 4 = G+G+G+G+G+G+G+I I I I I I I I I I I I I I I I I G+G+G+G+G+G+G+G+G+G+G+G+G+G+G+G+G+G+G+G+G+G+G+G+G+G+G+G+G+G+I I I I I I G+G+G+G+G+G+G+G+G+G+G+G+I G+G+G+G+G+G+G+G+G+I I I G+G+G+G+G+G+G+G+G+G+G+G+G+G+G+G+G+G+G+G+G+G+G+G+G+G+G+G+G+G+G+G+G+G+G+G+G+G+G+G+G+G+G+G+G+G+G+G+G+G+G+G+G+G+G+G+G+G+G+G+G+G+I H H G+G+G+I H H G+G+G+G+G+G+G+G+# 8 = G+H H H h * = I I I I I G+G+G+G+G+h + * h I H I G+G+G+G+G+I H = H H I G+G+G+G+G+G+G+G+G+G+G+G+G+G+I # 8 m G+G+G+G+G+G+G+G+G+G+G+G+G+G+G+G+G+G+G+G+G+I I I I I I I I I I I I I I H I I m 4 8 . I G+G+G+G+G+G+G+G+G+G+G+G+G+G+G+G+G+G+G+G++ 4 8 # = G+G+",
"H G+G+G+I * 4 8 . G+G+G+G+G+G+G+G+G+I H H h * m I I I I I G+G+G+G+G+I h * * H H H I I G+G+G+G+I = h = H I G+G+G+G+G+G+G+G+G+G+G+G+G+G+G+G+G+G+G+G+G+G+G+G+G+G+G+G+G+. 8 ( G+G+G+G+G+G+G+I I I G+G+I I I I I I I I I I I I G+G+G+G+G+G+G+G+G+G+G+G+G+G+G+G+G+G+G+G+G+G+G+G+G+G+G+G+G+G+G+G+G+G+G+G+G+G+G+G+G+G+G+G+G+I I H H I G+G+G+G+G+G+G+I H H H G+G+G+G+G+G+G+G+G+G+G+I G+G+G+G+G+G+G+G+G+G+G+G+G+G+G+G+G+G+G+G+G+G+G+G+G+G+G+G+G+G+G+G+G+G+G+G+G+G+G+G+G+G+G+G+G+G+G+G+G+G+I H H I G+G+I H I G+G+G+G+G+G+G+G+( 8 h G+G+H h * . h I I H I I G+G+G+G+G+H h * h H H H I G+G+G+G+G+H H H I I I G+G+G+G+G+G+. . I G+G+G+G+. 8 ( G+G+G+G+G+G+G+G+G+G+G+G+G+G+G+G+G+G+G+G+G+G+I I I I G+I I I I I I I I I I I . 8 8 . G+G+G+G+G+G+G+G+G+G+G+G+G+G+G+G+G+G+G+G+I . 8 8 . I G+G+G+",
"H I G+G+G+I + 4 8 m I G+G+G+G+G+G+G+G+I H h * m H G+I I G+G+G+G+G+G+G+H h h I I I I I G+G+G+G+G+H I I I I G+G+G+G+G+G+G+G+G+G+G+G+G+G+G+G+G+G+G+G+G+G+G+I G+G+G+G+G+I 4 8 h G+G+G+G+G+G+G+G+G+G+G+G+G+G+G+G+G+G+G+G+G+G+G+G+G+G+G+G+G+G+G+G+G+G+G+G+G+G+G+G+G+G+G+G+G+G+G+G+G+G+G+G+G+G+G+G+G+G+G+G+G+G+G+G+G+G+G+I H H H I I I G+G+G+G+G+G+G+I I I G+G+G+G+G+G+G+G+G+G+G+H I G+G+G+G+G+G+G+G+G+G+G+G+G+G+G+G+G+G+G+G+G+G+G+G+G+G+G+G+G+G+G+G+G+G+G+G+G+G+G+G+G+G+G+G+G+G+G+G+G+I H H I G+G+G+G+G+G+G+G+G+I G+G+G+. 8 m G+G+G+H h * h I G+I I G+G+G+G+G+G+H h h H I I I I G+G+G+G+G+G+G+G+G+G+G+G+G+G+G+G+= 4 8 # h I I m 8 # I G+G+G+G+G+I I I G+G+G+G+G+G+G+G+G+I I I I G+G+G+G+G+G+G+G+G+G+G+G+G+G+G+I . 8 4 + G+G+G+G+G+G+G+G+G+G+G+G+G+G+G+G+G+G+G+G+= # 8 4 m G+G+G+G+G+",
"H I G+G+G+G+G++ 8 8 m I G+G+G+G+G+G+G+G+I H + + I G+G+I G+G+G+G+G+G+G+H H H G+G+I I G+G+G+G+G+G+G+G+G+G+G+G+G+G+G+G+G+G+G+G+I H H H H I G+G+G+G+G+G+G+I H I G+G+G+G+G+m 8 # I I I I I G+G+G+G+G+G+G+G+G+G+G+G+G+G+G+G+G+G+G+G+G+G+G+G+G+G+G+G+G+G+G+G+G+G+G+G+G+G+G+G+G+G+G+G+G+G+G+G+G+G+G+G+G+G+G+G+G+G+G+G+G+G+G+I H I I I I I G+G+G+G+G+G+G+I G+G+G+G+G+G+G+G+G+G+G+G+I G+G+G+G+G+G+G+G+G+G+G+G+G+G+G+G+G+G+G+G+G+G+G+G+G+G+G+G+G+G+G+G+G+G+G+G+G+G+G+G+G+G+G+G+G+G+G+G+G+G+G+H H I G+G+G+G+G+G+G+G+I H I G+G+m 8 . G+G+G+I H h = I G+G+G+G+G+G+G+G+G+I H I I G+I I I G+G+G+G+G+G+G+G+G+G+G+G+G+G+G+G+G+h # 8 # * * 4 8 * G+G+G+G+G+G+I H H I G+G+G+G+G+G+G+G+H H H = I G+G+G+G+G+G+G+G+G+G+G+G+G+= # 8 # = G+G+G+G+G+G+G+G+G+G+G+G+G+G+G+G+G+G+G+G++ # 8 # = G+G+G+G+G+G+",
"H I G+G+G+G+G+G+m 8 j * G+G+G+G+G+I I G+G+I H h I G+G+G+G+G+G+G+G+G+G+I H I G+G+G+I I G+G+G+G+G+I I I G+G+G+G+G+G+G+G+G+G+I H H H H H H G+G+G+G+G+G+G+I H H G+G+G+G+G+I # 8 m I I h h I I I G+G+G+G+G+G+G+G+G+G+G+G+G+G+G+G+G+G+G+G+G+G+G+G+G+G+G+G+G+G+G+G+G+G+G+G+G+G+G+G+G+G+G+G+G+G+G+G+G+G+G+G+G+G+G+G+G+G+G+I I H H H I I I G+G+G+G+G+G+G+I I G+G+G+G+G+G+G+G+G+G+G+G+G+G+G+G+G+G+G+G+G+G+G+G+G+G+G+G+G+G+G+G+G+G+G+G+G+G+G+G+G+G+G+G+G+G+G+G+G+G+G+G+G+G+G+G+G+G+G+G+G+G+G+I H H I G+G+G+G+G+G+I h = I G+G++ 8 . I G+G+G+I = = I G+G+G+G+G+G+G+G+G+G+I G+G+G+G+G+I G+G+G+G+G+H H H I G+G+G+G+G+G+G+G+G+I ( 8 4 4 8 . I G+G+G+G+G+G+G+G+I G+G+G+G+G+G+G+G+G+I I = + H I G+G+G+G+G+G+G+G+G+G+G+h # 8 # = G+G+G+G+G+G+G+G+G+G+G+G+G+G+G+G+G+G+G+I . 8 8 . I G+G+G+G+G+G+G+",
"H H G+G+G+I I I I . 8 4 h G+G+G+G+I I G+G+G+I = H G+G+G+G+G+G+G+G+G+G+G+G+G+G+G+G+G+I G+G+G+G+I = = H I G+G+G+G+G+G+G+G+G+I H H H H H H I G+G+G+G+G+G+G+I I G+G+G+G+G+G+= 8 4 = G+h h H I I I G+G+G+G+G+G+G+G+G+G+G+G+G+G+G+G+G+G+G+G+G+G+G+G+G+G+G+G+G+G+G+G+G+G+G+G+G+G+G+G+G+G+G+G+G+G+G+G+G+G+G+G+G+G+G+G+G+G+G+I I I I I I G+G+G+G+G+G+G+I H I G+G+G+G+G+G+G+I I G+G+G+G+G+G+G+G+G+G+G+G+G+G+G+G+G+G+G+G+G+G+G+G+G+G+G+G+G+G+G+G+G+G+G+G+G+G+G+G+G+G+G+G+G+G+G+G+G+G+G+G+G+I I I H I G+G+I H I I = h = I G+G+= 8 # I G+G+G+G+H H G+G+G+G+G+G+G+G+G+G+G+G+G+G+G+G+G+I G+G+= m I I H H I G+G+G+G+G+G+G+G+G+G+I m 4 j 4 m I G+G+G+G+G+G+G+G+I G+G+G+G+G+G+G+G+G+G+I = h H I I I G+G+G+G+G+G+G+G+m 4 8 . I G+G+G+G+G+G+G+G+G+G+G+G+G+G+G+G+G+G+G+= # 8 4 + G+G+G+G+G+G+G+G+G+",
"H H I G+G+H h = H H ( 8 4 = G+G+G+G+G+G+G+G+I H I G+G+G+G+G+G+G+G+G+G+G+G+G+G+G+G+G+I G+G+G+G+I I H I I G+G+G+G+G+G+G+G+G+I H H H H H I G+G+G+G+G+G+G+G+G+I G+G+G+G+G+G+G+. 8 . I I H I I I I H = I I I I I I I I I I G+G+G+G+G+G+G+G+G+G+G+G+G+G+G+G+G+G+G+G+G+G+G+G+G+G+G+G+G+G+G+G+G+G+G+G+G+G+G+G+G+G+G+G+G+G+G+G+G+I G+G+G+G+G+G+G+G+G+I H h H G+G+G+G+G+I I I I I G+G+G+G+G+G+G+G+G+G+G+G+G+G+G+G+G+G+G+G+G+G+G+G+G+G+G+G+G+G+G+G+G+G+G+G+G+G+G+G+G+G+G+G+G+G+G+G+G+G+G+G+I H H I I G+I I h h = = H I G+G+G+I 8 4 G+G+G+G+I I I G+G+G+G+G+G+G+G+G+G+G+G+G+G+G+G+G+I G+G+# 8 ( = G+G+G+G+G+G+G+G+G+G+G+G+G+I * 4 8 8 4 m G+G+G+G+G+G+G+G+I G+G+G+G+G+G+G+G+G+G+I I I I I I I I I I I I G+I . 8 8 m I G+G+G+G+G+G+G+G+G+G+G+G+G+G+G+G+G+G+G++ 4 8 # = G+G+G+G+G+G+G+G+G+G+",
"H I I I I = + = H I I . 8 # I G+G+G+G+G+G+G+I I I G+G+G+G+G+G+G+G+G+G+G+G+G+G+G+G+G+I G+G+G+G+G+G+G+G+G+G+G+G+G+G+G+G+G+G+I H H H H I I G+G+G+G+G+G+G+G+I I G+G+G+G+G+G+G+= 4 j + G+G+G+G+H m # # = G+G+G+I I I I I I G+G+G+G+G+G+G+G+G+G+G+G+G+G+G+G+G+G+G+G+G+G+G+G+G+G+G+G+G+G+G+G+G+G+G+G+G+G+G+G+G+G+G+G+G+G+G+G+G+G+G+G+G+G+G+G+G+G+G+I H h H G+G+G+G+G+G+I I G+G+G+G+G+G+G+G+G+G+G+G+G+G+G+G+G+G+G+G+G+G+G+G+G+G+G+G+G+G+G+G+G+G+G+G+G+G+G+G+G+G+G+G+G+G+G+G+G+G+I I G+G+I H H I G+G+I I h h = H I I G+G+G+I 4 4 I G+G+G+I I I G+G+G+G+G+G+G+G+G+G+G+G+G+G+G+G+G+I G+G++ # 8 4 m G+G+G+G+G+G+G+G+G+G+G+G+= 4 8 m m 8 8 ( I G+G+G+G+G+I H I G+G+G+G+G+G+G+G+I I G+G+G+I I I I I I I G+H ( 8 4 * G+G+G+G+G+G+G+G+G+G+G+G+G+G+G+G+G+G+G+I . 8 8 . I G+G+G+G+G+G+G+G+G+G+G+",
"H I G+I H = = H I I I H ( 8 # I G+G+G+G+G+G+I I I G+G+G+G+G+G+G+G+G+G+G+G+G+G+G+G+G+G+G+G+G+G+G+I G+G+G+G+G+G+G+G+G+G+G+G+G+G+I I I G+G+G+G+G+G+G+G+G+I H I G+G+G+G+G+G+G+G+m 8 # I G+= m 4 8 8 # = G+G+G+G+I I I I G+G+G+G+G+G+G+G+G+G+G++ . G+G+G+G+G+G+G+G+G+G+G+G+G+G+G+G+G+G+G+G+G+G+G+G+G+G+G+G+G+G+G+G+G+G+G+G+G+G+G+G+G+G+G+G+G+G+G+G+I I I G+G+G+G+G+G+G+G+G+G+G+G+G+G+G+G+G+G+G+G+G+G+G+G+G+G+G+G+G+G+G+G+G+G+G+G+G+G+G+G+G+G+G+G+G+G+G+G+G+G+G+G+G+G+G+G+G+G+I I G+G+I H H H G+G+I H H I I I I I G+G+G+I # 4 = G+G+G+I I I G+G+G+G+G+G+G+G+G+G+G+G+G+G+G+G+G+G+G+G+G+I . 8 8 ( = G+G+G+G+G+G+G+G+G+I # 8 . G+G+h 4 8 4 + G+G+G+G+I H G+G+G+G+G+G+G+G+G+I G+I G+G+G+I I I G+G+G+= # 8 # h G+G+G+G+G+G+G+G+G+G+G+G+G+G+G+G+G+G+G+= # 8 4 + G+G+G+G+G+G+G+G+G+G+G+G+G+",
"H I G+G+I H I G+I I H I I # 8 # I G+G+G+G+G+I I I G+G+G+G+G+I G+G+G+G+G+G+G+G+G+G+G+G+G+G+G+G+G+G+G+G+G+G+G+G+G+G+G+G+G+G+G+G+G+G+G+G+G+G+G+G+G+G+G+G+I I I G+G+G+G+G+G+G+G+I # 8 . . 4 8 j ( h I G+G+G+G+G+G+G+G+G+G+G+G+G+G+G+G+G+G+= ( 8 8 = G+G+G+G+G+G+G+G+G+G+G+G+G+G+G+G+G+G+G+G+G+G+G+G+G+G+G+G+G+G+G+G+G+G+G+G+G+G+G+G+G+G+G+G+G+G+G+G+G+G+G+G+G+G+G+G+G+G+G+G+G+G+G+G+G+G+G+G+G+G+G+G+G+G+G+G+G+G+G+G+G+G+G+G+G+G+G+G+G+G+G+G+G+G+G+G+G+G+G+G+G+G+G+G+G+G+G+G+I I G+G+G+H H I G+G+G+H H G+G+I I I G+G+G+G+( 8 h G+G+G+I I G+G+G+G+G+G+I H I G+G+G+G+G+G+G+G+G+G+G+G+G+G+G+m # 8 # m G+G+G+G+G+G+G+G+m 8 # I G+G+G+I ( 8 8 m G+G+G+I G+G+G+G+G+G+G+G+G+G+G+G+G+G+G+G+I I G+G+G+h 4 8 # = G+I I G+G+G+G+G+G+G+G+G+G+G+G+G+G+G+G+m 4 8 # = G+G+G+G+G+G+G+G+G+G+G+G+G+G+",
"H I G+G+I H I G+G+I H I G+I # 8 ( G+G+G+G+G+I I I G+G+G+G+I H H I G+G+G+G+G+G+G+G+I I G+G+G+G+G+I G+G+G+G+G+G+G+G+G+G+G+G+G+G+G+G+G+G+G+G+G+G+G+G+G+G+G+G+G+G+G+G+G+G+G+G+G+G+= j 8 8 4 . h I G+G+G+G+G+G+G+G+I I I I G+G+G+G+G+G+I . 8 8 # m G+G+G+G+G+G+G+G+G+G+G+G+G+G+G+G+G+G+G+G+G+G+G+G+G+G+G+G+G+G+G+G+G+G+G+G+G+G+G+G+G+G+G+G+G+G+G+G+G+G+G+G+G+G+G+G+G+G+G+G+G+G+G+G+G+G+G+G+G+G+G+G+G+G+G+G+G+G+G+G+G+G+G+G+G+G+G+G+G+G+G+G+G+G+G+G+G+G+G+G+G+G+G+G+G+G+G+G+G+G+I G+G+G+I I I G+I G+I I G+G+I I I I G+G+G+. 8 m G+G+G+I I I G+I I G+I H H H G+G+G+I I G+G+G+I I G+G+G+G+G+G+= ( 8 8 . I G+G+G+G+G+h 8 j = G+G+G+G+G+G+m 4 8 ( = G+G+G+G+G+G+G+G+G+G+G+G+G+G+G+G+G+G+G+I I I m 8 8 . I G+I I I I G+G+G+G+G+G+G+G+G+G+G+G+G+I . 8 8 . I G+G+G+G+G+G+G+G+G+G+G+G+G+G+G+",
"I G+G+I I I G+G+G+I I I G+G+= # 8 . G+G+G+I I I I I I I I I H H I G+G+G+I I G+G+G+I I G+G+G+G+G+I I I G+I G+G+G+G+G+G+G+G+G+G+G+G+G+G+G+G+G+G+G+G+G+G+G+G+G+G+G+G+G+G+G+G+G+G+G+. 8 # h G+G+G+I G+G+G+G+G+G+I I I I I G+G+G+G+I m 4 8 # m I G+G+G+G+G+G+G+G+G+G+G+G+G+G+G+G+G+G+G+G+G+G+G+G+G+G+G+G+G+G+G+G+G+G+G+G+G+G+G+G+G+G+G+G+G+G+G+G+G+G+G+G+G+G+G+G+G+G+G+G+G+G+G+G+G+G+G+G+G+G+G+G+G+G+G+G+G+G+G+G+G+G+G+G+G+G+G+G+G+G+G+G+G+G+G+G+G+G+G+G+G+G+G+G+G+G+G+G+G+G+I I G+G+G+I I G+G+I I I G+G+G+I I I I G+G+G+m 8 . G+G+I H = H I I I I I H H I G+G+G+I I G+G+G+I I G+G+G+G+G+G+G+I m # 8 # + G+G+G+I 4 8 m G+G+G+G+G+G+G+G+= # 8 4 + G+G+G+G+G+G+G+G+G+G+G+G+G+G+G+G+G+I G+I . 8 8 m G+G+I G+I I I G+G+G+G+G+G+G+G+G+G+G+G+= # 8 4 + G+G+G+G+G+G+G+G+G+G+G+G+G+G+G+G+G+",
"I G+G+I I I G+G+G+I I I G+G+G+= 4 8 . G+G+I = h H G+I I G+H H H I G+G+G+I I G+G+G+I I G+G+G+G+G+I I G+G+G+G+G+G+G+G+G+G+G+G+G+G+G+G+G+G+G+G+G+G+G+G+G+G+G+G+G+G+G+G+G+G+G+G+G+G+= 4 j + G+I G+G+G+G+G+G+G+I G+G+I I I G+G+G++ # 8 4 . = G+G+G+G+G+G+G+G+G+G+G+G+G+G+G+G+G+G+G+G+G+G+G+G+G+G+G+G+G+G+G+G+G+G+G+G+G+G+G+G+G+G+G+G+G+G+G+G+G+G+G+G+G+G+G+G+G+G+G+G+G+G+G+G+G+G+G+G+G+G+G+G+G+G+G+G+G+G+G+G+G+G+G+G+G+G+G+G+G+G+G+G+G+G+G+G+G+G+G+G+G+G+G+G+G+G+G+G+G+G+G+G+I I G+G+G+G+I G+G+I I I G+G+G+G+I I G+G+G+G++ 8 . G+G+I h + = I G+G+G+I H H I G+G+G+G+G+G+G+G+I I G+G+G+G+G+I G+G+G+= ( 8 8 . I G+( 8 ( I G+G+G+G+G+G+G+G+G+I . 8 8 . I G+G+G+G+G+G+G+G+G+G+G+G+G+G+G+G+I ( 8 4 + G+G+I G+G+G+G+G+G+G+G+G+G+G+G+G+G+G+G+m 4 8 # = G+G+G+G+G+G+G+G+G+G+G+G+G+G+G+G+G+G+",
"G+G+G+I H I G+G+G+G+I I G+G+G+G+= 4 8 . G+H + + H G+G+G+G+H H H I G+G+G+G+G+G+G+G+I I G+G+G+G+G+I I G+G+G+G+G+G+G+G+G+G+G+G+G+G+G+G+G+G+G+G+G+G+G+G+G+G+G+G+G+G+G+G+G+G+G+G+G+G+G+m 8 # I G+G+G+G+G+G+G+G+G+G+G+G+G+G+I h ( 8 8 ( = G+G+G+G+G+G+G+G+G+G+G+G+G+G+G+G+G+G+G+G+G+G+G+G+G+G+G+G+G+G+G+G+G+G+G+G+G+G+G+G+G+G+G+G+G+G+G+G+G+G+G+G+G+G+G+G+G+G+G+G+G+G+G+G+G+G+G+G+G+G+G+G+G+G+G+G+G+G+G+G+G+G+G+G+G+G+G+G+G+G+G+G+G+G+G+G+G+G+G+G+G+G+G+G+G+G+G+G+G+G+G+G+G+G+I I G+G+G+G+G+G+G+I I I I G+G+G+G+G+G+G+G+G+h 8 ( G+G+I h + = I G+G+G+I H H I G+G+G+G+G+G+G+G+I I G+G+G+G+G+G+G+G+G+G+I m 4 8 # . 8 # I G+G+G+G+G+G+G+G+G+G+G+G++ 4 8 # = G+G+G+G+G+G+G+G+G+G+G+G+G+G+= # 8 # = G+G+G+G+G+I G+G+G+G+G+G+G+G+G+G+G+G+I . 8 8 . G+G+G+G+G+G+G+G+G+G+G+G+G+G+G+G+G+G+G+G+",
"G+G+G+I I I I G+G+G+G+G+G+G+G+G+G++ j 8 m I + h I G+G+G+G+H h H I G+G+G+G+G+G+G+I I I G+G+G+G+G+G+G+G+G+G+G+G+G+G+G+G+G+G+G+G+G+G+G+G+G+G+G+G+G+G+G+G+G+G+G+G+G+G+G+G+G+G+G+G+G+G+I # 8 m G+I I G+G+G+G+G+G+G+G+G+G+= ( 8 8 # + G+G+G+G+G+G+G+G+G+G+G+G+G+G+G+G+G+G+G+G+G+G+G+G+G+G+G+G+G+G+G+G+G+G+G+G+G+G+G+G+G+G+G+G+G+G+G+G+G+G+G+G+G+G+G+G+G+G+G+G+G+G+G+G+G+G+G+G+G+G+G+G+G+G+G+G+G+G+G+G+G+G+G+G+G+G+G+G+G+G+G+G+G+G+G+G+G+G+G+G+G+G+G+G+G+G+G+G+G+G+G+G+G+G+G+G+I I G+G+G+G+G+G+G+G+I I I G+G+G+G+G+G+G+G+G+= 4 # I G+G+I = I G+G+G+G+I H H I G+G+G+G+G+G+G+I I I G+G+G+G+G+G+G+G+G+G+G+G+= ( 8 8 8 + G+G+G+G+G+G+G+G+G+G+G+G+G+G+= # 8 4 m G+G+G+G+G+G+G+G+G+G+G+G++ # 8 # = G+G+G+G+G+G+G+I I I G+G+G+G+G+G+G+G+= # 8 # + G+G+G+G+G+G+G+G+G+G+G+G+G+G+G+G+G+G+G+G+G+",
"G+G+G+G+I I I G+G+G+G+G+G+G+G+G+G+G++ j 8 m I I I G+G+G+G+I H I G+G+G+G+I G+G+G+G+G+I G+G+G+G+G+G+G+G+G+G+G+G+G+G+G+G+G+G+G+G+G+G+G+G+G+G+G+G+G+G+G+G+G+G+G+G+G+G+G+G+G+G+G+G+G+G+G+h 8 4 = G+G+I G+I I G+I G+G+= . 4 8 4 m I G+G+G+G+G+G+G+G+G+G+G+G+G+G+G+G+G+G+G+G+G+G+G+G+G+G+G+G+G+G+G+G+G+G+G+G+G+G+G+G+G+G+G+G+G+G+G+G+G+G+G+G+G+G+G+G+G+G+G+G+G+I I I I I I I G+G+G+G+G+G+G+G+G+G+G+G+G+G+G+G+G+G+G+G+G+G+G+G+G+G+G+G+G+G+G+G+G+G+G+G+G+G+G+G+G+G+G+G+G+G+G+G+G+I I G+G+G+G+G+G+G+G+I I I G+G+G+G+G+G+G+G+G+I # 4 I G+G+I I G+G+G+G+G+G+I I G+G+G+G+G+G+G+G+I I I G+G+G+G+G+G+G+G+G+G+G+G+G+= # 8 8 # = G+G+G+G+G+G+G+G+G+G+G+G+G+G+I . 8 8 . I G+G+G+G+G+G+G+G+G+m 8 8 . I G+G+G+G+I I I I I I I G+G+G+G+G+G+G+m 4 8 ( = G+G+G+G+G+G+G+G+G+G+G+G+G+G+G+G+G+G+G+G+G+G+",
"G+G+G+G+I I I I G+G+G+G+G+G+G+G+G+G+G+m 8 4 h G+G+G+G+G+I G+G+G+G+G+G+G+G+G+G+G+G+I I G+G+G+G+G+G+G+G+G+G+G+G+G+G+G+G+G+G+G+G+G+G+G+G+G+G+G+G+G+G+G+G+G+G+G+G+G+G+G+G+G+G+G+G+G+G+G+G+. 8 ( I G+I I G+I I I H m # 8 4 . = G+G+G+G+G+G+G+G+G+G+G+G+G+G+G+G+G+G+G+G+G+G+G+G+G+G+G+G+G+G+G+G+G+I I I I I G+G+G+G+G+G+G+G+I G+G+G+I G+G+G+G+G+G+G+G+I H = = = h h h h h = H H H H H H I G+G+G+G+G+G+G+G+G+G+G+G+G+G+G+G+G+G+G+G+G+G+G+G+G+G+G+G+I I I I H I G+G+G+G+G+G+G+G+G+I G+G+G+G+G+G+G+G+G+I I I G+G+G+G+G+G+G+G+G+# j = G+I I G+G+G+G+G+I G+G+G+G+G+G+G+G+G+G+G+G+I I G+G+G+G+G+I I I I I I I I . 8 # ( 8 j . I G+G+G+G+G+G+G+G+G+G+G+G+G+G++ # 8 # + G+G+G+G+I I = . 8 8 m I G+G+G+I G+I I I I I I I G+G+G+G+G+I . 8 8 m G+G+G+G+G+G+G+G+G+G+G+G+G+G+G+G+G+G+G+G+G+I I G+",
"G+G+G+G+G+I I I I G+G+G+G+G+G+G+G+G+G+I . 8 4 = G+G+G+G+G+G+G+G+G+G+G+G+G+G+G+G+G+I I G+G+G+G+G+I I I I I I I I G+G+G+G+G+G+G+G+G+G+G+G+G+G+G+G+G+G+G+G+G+G+G+G+G+G+G+G+G+G+G+I I H I = 4 8 + G+G+G+G+G+I * # 8 8 ( h G+G+G+G+G+G+G+G+G+G+G+G+G+G+G+G+G+G+G+G+G+G+G+G+G+G+G+G+G+G+I I I G+I I I I I I I G+G+G+G+G+G+G+I G+G+G+I G+G+G+G+G+I I I I H H H H = h h h h = H H H H H H G+G+G+G+G+G+G+G+G+G+G+G+G+G+G+G+G+G+G+G+G+G+G+G+G+G+G+G+G+I H H H H H H I G+G+G+G+G+G+G+I G+G+G+G+G+G+G+G+G+I I I I G+G+G+G+G+G+G+G+( 8 h G+I I G+G+G+G+G+I G+G+G+G+G+G+G+G+G+G+G+G+G+I I G+G+I I H H H = = = H * 8 4 = I m j 8 # = G+G+I G+G+G+G+G+G+G+G+G+G+G+= ( 8 j . H I I H * # 8 4 * H G+G+G+G+G+G+G+G+I I I I I G+G+G+G+= # 8 4 + G+G+G+G+G+G+G+G+G+G+G+G+G+G+G+G+G+G+G+G+G+G+G+G+G+",
"I G+G+G+G+G+I I I I G+G+G+G+G+G+G+G+I I H . 8 4 = G+G+I G+G+G+G+G+G+G+G+G+G+G+G+G+G+I I I I H H H H H h h h h I G+G+G+G+G+I I H I G+I H G+G+G+G+G+G+G+G+G+I I I I H H H H H H H h h h H . 8 # I G+G+G+h ( 8 8 # h I G+G+G+G+G+G+G+G+G+G+G+G+G+G+G+G+G+G+G+G+G+G+G+G+G+G+G+G+G+G+G+G+G+G+G+G+G+I I I I G+G+G+G+G+G+G+G+G+G+G+G+G+G+G+I G+G+I I I I G+G+G+G+I I I I I I I G+G+G+G+G+G+G+G+G+G+G+G+G+G+G+G+G+G+G+G+G+G+G+G+G+G+G+G+G+G+G+G+G+G+I H H H H H H H G+G+G+G+G+G+G+I G+G+G+G+G+G+G+G+G+G+I I I I I G+G+G+G+G+G+. 8 m I I I G+G+G+G+I I G+G+G+G+G+G+G+G+G+G+G+G+G+I I I + H H H = = h + h * # 8 m G+G+G+h # ( H I G+H I G+G+G+G+G+G+G+G+G+I I I m j 8 # h H * # 8 # * H H I G+G+G+I I I G+G+I I I I G+G+G+m j 8 ( = G+G+G+G+G+G+G+G+I G+G+G+G+G+G+G+G+G+G+G+G+G+G+G+G+G+",
"4 h G+G+G+G+G+I I I I I G+G+I I I I I I I I ( 8 4 I G+I I G+G+G+G+G+G+G+G+G+G+G+G+G+I I I H H = H H h h + + + = I G+G+I I I I I I G+G+I G+G+G+G+G+G+G+G+G+I I I I I H H H H = h * + h = h # 8 m I = . 4 8 # m = I H I I G+G+G+G+G+G+G+G+G+G+G+G+G+G+G+I I I I I G+G+G+G+G+G+G+G+G+G+G+G+G+G+G+G+G+G+G+G+G+G+G+G+G+G+G+G+G+G+G+G+G+I = H H H I I G+G+G+G+G+G+G+G+I G+G+G+G+G+G+G+G+G+G+G+G+I G+G+G+G+G+G+G+G+G+G+G+G+G+G+G+G+G+I I H H H I G+H H H H H H H H G+G+G+G+G+G+G+G+G+G+G+G+G+G+G+G+G+G+G+I I H H I I G+G+I I . 8 . H I G+G+G+G+I = = I G+I H I I G+G+G+G+G+G+I I G+m 8 ( = I I H = h h # 8 ( I I I I G+I I G+I G+G+G+G+G+G+G+G+G+G+G+G+G+G+G+G+= # 8 4 . 4 8 ( = I I I I I I I H I H I I I H = H I = ( 8 j m G+G+G+G+G+G+G+G+G+G+I I I I I I I G+G+G+G+G+G+G+G+G+G+G+",
"8 4 + G+G+G+G+G+I H H H H I I H H H H I I G+I # 8 # h h h I I I H I I G+G+G+G+G+G+G+I G+G+I I I I I H = h h h H I I I I I I G+G+G+G+G+G+G+G+G+G+G+G+G+G+G+G+G+G+G+G+I I I I I H = H I I I + 8 4 . # 8 4 . = I H = = H I G+G+G+G+G+G+G+G+G+G+G+G+G+G+G+I I I I I I I G+G+G+G+G+G+G+G+G+G+G+G+G+I G+G+G+G+G+G+G+G+G+G+G+I G+G+G+I G+H = h H = I G+G+G+G+G+G+G+G+I I I G+G+G+G+G+G+G+G+G+G+G+H I G+G+G+G+G+G+G+G+G+G+G+G+G+G+G+I I I H H H I G+H h H H H H H H G+G+G+G+G+G+G+G+G+G+G+G+G+G+G+G+G+G+G+G+I H H H H H I I H * 8 ( I G+G+G+G+I H + + H I I H H I G+G+G+I I G+G+I G++ j 8 # = I I I = . 8 # h I I I I I G+I I G+G+G+G+G+G+I I G+G+G+G+G+G+G+G+G+G+I . 8 8 8 . I G+I I I I I I H h = H H H I H H H + # 8 # + G+G+G+G+G+G+G+I G+G+G+I H H H H I I G+G+G+G+G+G+G+G+G+G+G+",
". 8 8 . G+G+G+G+I I I I H H I I I I I I G+G+G+= # 8 # * h H I H H H I I G+G+I I G+G+I G+G+G+I I I I I H H I H H H I G+G+G+I I I I G+G+I G+G+I H H G+G+G+G+G+G+G+G+G+G+G+G+G+G+G+G+G+G+G+G+G+. 8 8 4 ( h I I I I I H H I G+G+G+G+G+G+G+G+I I I I I G+G+H H H H H I I G+G+G+G+G+G+G+G+G+G+G+G+I I G+G+G+G+G+I G+G+G+G+G+G+G+G+G+G+G+G+G+G+G+I I G+G+G+G+G+G+G+G+G+G+G+G+G+G+G+G+G+G+G+G+G+G+G+G+G+G+G+G+G+G+G+G+G+G+G+G+G+G+I I G+G+G+H H I G+H H H H H H H I G+G+G+G+G+G+G+G+G+G+G+G+G+G+G+G+G+G+G+G+G+G+I I I H I I G+h 8 ( I G+G+G+I I I = = I I I H I G+G+G+G+G+G+G+G+G+G+G+= # 8 # h I I * 8 4 h I H I G+G+I I I I G+G+I I G+I H H H G+G+G+G+G+G+G+G+G+G+. 8 8 8 # = G+G+G+G+I I G+I = I I I H I I I . j 8 ( = G+G+G+G+G+G+G+I I I G+G+I H H H H H I G+G+G+G+G+G+G+G+G+G+G+",
"G++ 4 8 ( I G+G+G+G+G+G+I I I G+G+G+G+G+G+G+G+G+= # 8 ( H I G+I I G+G+G+G+G+G+G+G+G+G+G+G+G+G+I I I I H H I I I H H I G+G+I G+I I G+G+I G+G+I H H I G+G+G+G+G+G+G+G+G+G+G+G+G+G+G+G+G+G+G+G+= # 8 . H I I H H I I I I I G+G+G+G+G+G+G+G+G+G+I I G+G+I H H H H H H I G+G+G+G+G+G+G+G+G+G+G+G+I I I G+G+G+G+H I G+G+G+G+G+G+G+G+G+G+G+G+G+G+G+G+G+G+G+I I I I I H H I I I I I I G+G+G+G+G+G+G+G+G+G+G+G+G+G+G+G+G+G+G+G+G+I H I G+G+G+I I G+G+H H H H H H H H G+G+G+G+G+G+G+G+G+G+G+G+G+G+G+G+G+G+G+G+G+G+G+G+G+G+G+I G+I 4 4 I G+G+G+G+G+I I I G+G+G+G+G+G+G+G+G+G+G+G+G+G+G+G+G+I ( 8 4 * * # 8 m G+I H I G+G+G+G+G+G+G+G+G+G+G+G+I I I G+G+G+G+G+G+G+G+I ( 8 # m # 8 4 m I G+I I G+G+G+I I I I I I = ( 8 8 m I G+G+G+G+I G+G+G+I I I G+G+H H H H H H I G+G+G+G+G+G+G+G+G+G+G+",
"G+G+= # 8 # = G+G+G+G+G+G+G+G+G+G+G+G+G+G+G+G+G+G+h # 8 . G+G+G+G+G+G+G+G+G+G+G+G+G+G+G+G+G+G+I H I = h = I I G+I H H I G+G+G+G+G+G+G+G+G+G+G+G+G+G+G+G+G+G+G+G+G+G+G+G+G+G+G+G+I I I I I I I m 8 # = I H H H = H H H H I G+G+G+G+I I G+G+G+I I G+G+I H H H H H H I G+G+G+G+G+G+G+G+G+G+G+G+I H G+G+G+G+I H H I G+G+G+G+G+G+G+I I = = H I I I I I G+I = h h + * * * h h H H H H I G+G+G+G+G+I G+G+G+G+G+G+G+G+G+G+G+G+I H H H G+G+G+G+G+I I H h h h h h h H G+G+G+G+G+G+G+G+G+G+G+G+G+G+G+G+G+G+G+G+G+G+G+G+G+G+G+G+G+I 4 4 I G+G+G+G+G+I I G+G+G+G+G+G+G+G+G+G+G+G+G+G+G+G+G+I G+I . j 4 # 8 ( I G+I H h H G+G+G+G+G+G+G+G+G+G+G+G+G+G+G+G+G+G+G+G+G+h # 8 # = G+= ( j 8 ( h H I I I I I H H I H * # 8 # h G+G+G+G+G+I H G+G+G+G+G+G+G+G+H H H H H H I G+G+G+G+G+G+G+G+G+G+G+",
"G+G+G+I # 8 4 + G+G+G+G+G+G+G+G+G+G+G+G+G+G+G+G+G+G+h 4 8 . G+G+G+G+G+G+G+G+G+G+G+G+G+G+G+I G+G+I H h + = I I G+I = h H G+G+G+G+G+G+G+G+G+G+G+G+G+G+G+G+G+G+G+G+I I I I I I I H = = = H H I I I ' 8 . I H H H = = H I I I G+G+G+I I I G+G+G+G+G+G+G+I H H H H H H I G+G+G+G+G+G+G+G+G+G+G+G+I I G+G+G+G+H H H I G+G+C+=+4+b+b+b+b+!+!+!+7.7.S I I G+I h + * * * * * h h H H H H I G+G+G+I H I G+G+G+G+G+G+G+G+G+G+G+G+H H H h H I G+G+G+I I H h h h h h h H G+G+G+G+G+G+G+G+G+G+G+G+G+G+G+G+G+G+G+G+G+G+G+G+G+C+C+z+y+x+J J !+y+z+C+G+G+I I G+G+G+G+G+G+G+G+G+G+G+G+G+G+G+G+G+G+I G+I * 4 8 j h G+G+I H h h I G+G+G+I I G+G+G+G+G+I G+G+G+G+G+G+G+I m j 8 ( h H h + * . # 8 ( = I I I I H I I = . j 8 ( = C+z+y+x+x+e+e+e+e+w+w+x+x+y+z+C+H H H H H H I G+G+G+G+G+G+G+G+G+G+G+",
"G+G+G+G+I . 8 8 m G+G+G+C+y+x+x+x+x+x+x+x+x+x+x+x+b+b+h+K K h+x+x+x+x+x+x+x+x+x+y+z+C+C+y+x+b+x+x+b+!+!+b+x+x+x+b+!+!+b+x+x+x+b+b+4+=+Y I I I I I I G+G+G+C+y+b+b+b+b+b+b+b+b+!+h+h+!+!+b+b+x+x+!+J J !+x+b+b+b+b+b+4+C+G+G+C+x W !+b+x+x+x+x+x+x+x+b+b+b+b+b+b+b+b+x+x+x+x+x+x+x+x+x+y+z+C+I I G+G+G+H H H H I z+x+w+9+l+v+u+u+u+u+u+j+g+9+3+b+z+C+I h h h h h h = H S S 4+b+b+b+x+x+x+x+b+b+x+x+x+x+x+x+x+x+x+y+z+C+S h h h + h I G+G+G+I H h h 7.7.!+!+b+y+C+G+G+G+G+G+G+G+G+G+G+G+G+G+G+G+G+G+G+G+G+C+z+x+w+t+l+v+v+f+~+j+l+l+t+w+y+Y I G+G+G+G+G+G+G+G+C+C+z+z+z+z+z+z+z+z+z+=+z+7.v a a v 7.=+=+7.S S =+z+z+=+S S H I I H H H H H I I G+G+G+m 8 8 . H H H h h + + * ( h I G+G+I H = I = ( 8 j x 4+e+t+l+v+v+u+u+q+q+q+u+u+u+v+v+l+s+b+S S H H H I G+G+G+G+G+G+G+G+G+G+G+",
"G+G+G+G+G+G+m 8 8 . I z+w+l+v+u+u+u+u+u+u+u+u+u+u+u+u+u+k+~+f+k+u+u+u+u+u+u+u+v+l+w+x+w+t+v+u+u+u+u+k+k+u+u+u+u+u+u+u+u+u+u+u+j+j+g+9+3+b+S H H H H I G+C+x+t+v+u+u+k+k+k+k+k+k+n+n+k+k+k+u+u+u+u+f+8+f+u+u+u+u+u+v+l+w+z+= W (+~+n+u+u+u+u+u+u+u+u+u+u+u+u+u+u+u+u+u+u+u+u+u+u+u+u+v+l+s+y+Y H G+G+I H H H S e+t+v+u+v+l+s+x+e+A+e+3+A.Q.d+k+v+t+w+z+S H = = h H H H 7.3+g+k+k+k+u+u+u+k+k+k+k+k+k+k+k+u+u+u+v+v+l+t+3+!+7.h h h I G+G+G+I H h 7.3+g+j+j+j+l+s+y+C+G+G+G+G+G+G+G+G+G+G+G+G+G+G+G+G+C+y+w+l+v+u+u+l+l+s+A+A+i+l+v+u+u+v+t+e+z+C+G+G+G+G+G+C+x+s+l+l+l+l+l+l+l+l+l+l+g+_+_+/+A._+_+/+g+g+g+g+l+l+l+l+9+3+4+S H H H H H H I G+G+I . 8 4 m H H H H h * * * h h h H G+G+I = h * 4 a v !+s+l+u+u+v+l+A+x+C+G+G+G+G+z+x+w+t+v+u+u+g+e+4+S I I G+G+G+G+G+G+G+G+G+G+G+",
"G+G+G+G+G+G+G++ 4 8 w !+v+A+w+A+w+w+w+w+w+w+w+w+w+w+w+w+w+e+e+e+w+w+w+w+w+w+w+w+x+l+t+l+w+x+w+w+w+A+A+e+w+A+3+A+e+e+3+/+/+/+9+9+i+g+k+k+j+9+b+S H H I G+y+l+s+e+A+A+A+A+A+e+e+e+A+e+A+e+e+e+w+w+e+e+!+!+e+e+e+e+e+x+x+g+a+v X./+B+e+A+A+w+w+w+w+w+w+w+w+w+w+w+w+w+w+w+w+w+w+w+w+w+w+w+x+t+s+=+H G+G+G+I Y b+t+v+u+t+y+G+G+G+G+F+G+F+G+G+G+G+b+9+u+k+9+h+w 4 8 % % ^ 0 F j.6+h+/+(+a+a+a+a+a+a+a+6+6+6+6+6+/+a+a+_+~+8+8+8+_+(+v x m = G+G+G+I S 9+j+e+s+t+A+s+v+t+y+G+G+G+G+G+G+G+G+G+G+G+G+G+G+C+y+w+l+u+v+s+z+G+G+G+G+G+G+G+G+G+Y e+l+u+u+t+x+z+G+G+G+G+x+t+g+j+j+k+k+j+j+j+j+j+j+n+f+n+j+j+j+n+n+n+j+v+v+v+v+v+v+l+t+9+S I I I H I I I G+= # 8 # * H H h h H = * . @ * * * = I I I h ( 8 a W 9+v+k+j+e+C+G+G+G+G+E+=.=.=.=.E+F+G+G+G+z+s+j+u+l+e+=+I G+G+G+G+G+G+G+G+G+= . ",
"G+G+G+G+G+G+G+G+= # a (+n+F+E+F+G+G+G+G+G+G+G+G+G+G+G+G+G+G+G+G+G+G+G+G+G+G+G+G+G+v+v+u+C+G+G+G+G+G+G+G+G+G+G+G+G+G+G+G+G+G+G+G+G+G+G+C+t+u+v+s+=+I G+G+w+u+D+G+G+G+G+G+G+G+G+G+G+G+G+G+G+G+G+G+G+G+G+G+G+G+G+G+G+G+G+f+(+J /+t+G+G+G+G+G+G+G+G+G+G+G+G+G+G+G+G+G+G+G+G+G+G+G+G+G+G+G+G+w+l+4+I G+G+G+z+w+l+u+t+G+G+G+E+%+i.g.4.h.h.g.g.d._+G+G+G+/+%+8.N t / / / / t T _+G+G+G+G+G+G+G+G+G+G+G+G+G+G+G+G+G+G+G+G+G+G+Y a+%+8.T y p 5 : d 8 v 6+k+A+G+G+G+G+G+y+v+w+C+G+G+G+G+G+G+G+G+I I G+G+C+w+l+u+l+y+G+G+G+F+A.t.d.g.g.f.|.~+..G+G+G+t+u+v+s+y+C+G+C+w+l+G+G+G+G+G+G+G+G+G+G+G+G+G+G+G+G+G+G+G+G+G+G+G+G+G+G+G+G+C+l+x+G+G+G+G+G+G+G+= # 8 # = H H H H H I I = h h h h = H I I I ( a J i+j+k+g+G+G+G+G+_+L.g.4.5.2.1.1.1.2.4.h.i.%+E+G+G+w+k+v+s+y+G+G+G+G+G+G+G++ . 4 8 ",
"I I G+G+G+G+G+G+G+I W _+f+E+..%+f.f.d.d.d.d.d.|.d.|.|.|.|.|.|.|.|.|.|.|.|.|.J.G+G+u+u+q+y+G+!+d.f.d.f.f.f.g.g.i.g.i.i.g.g.g.f.i.S.L...G+G+C+l+u+t+y+G+C+s+u+C+G+!+|.d.d.d.|.|.|.|.d.|.|.|.|.|.|.|.|.|.|.|.|.|.|.A.G+G+f+(+!+l+l+G+G+A.d.d.f.d.d.d.d.f.f.d.|.|.|.|.|.|.|.|.|.|.|.|.|.4+G+t+v+4+I G+G+z+w+v+v+y+G+G+/+i.2.<.^.'.'.'.'.'.'.).~.5.-+E+G+=+j.Z L t / / / t T ~+G+F+%+f.d.d.i.g.f.d.d.d.d.d.d.d.d.d.i.i. +a+G+G+G+6+T.V t / / / / t T %+G+G+!+|.t.G+G+v+l+z+G+G+G+G+G+G+G+G+I I G+z+w+v+u+w+G+G+G+Q.b.c.[.(.'.'.'.'.:.<.2.h. +F+G+G+o+k+l+b+C+C+s+u+C+G+E+j.~+~+_+~+~+(+/+/+A./+/+6+!+!+4+S 4+!+3+4+4+=+G+G+z+u+w+G+G+G+G+G+G+m 4 8 ( I G+G+G+G+G+G+G+G+G+G+G+G+G+I I I I m v J g+q+2+=+G+G+` i.5.~.:.'.'.'.'.'.'.'.'.'.'.^.~.2.g.&.G+G+t+u+t+y+G+G+G+I + # 8 8 4 . ",
"I I I G+G+G+G+G+G+G+=+/+f+F+..4.'.^.^.).).^.^.^.^.^.^.).).).).^.^.^.^.^.^.^._.e+G+u+q+q+y+G+t.(.'.^.'.'.'.'.'.^.'.^.'.'.'.'.^.^.^.:.{.5.L.F+G+9+u+s+z+C+s+q+C+G+|.).^.'.^.).^.^.).^.^.).^.^.).).^.^.^.).).).).).k.G+G+k+t+x+l+l+G+G+s.^.'.'.^.^.^.^.'.'.^.^.^.^.^.^.^.^.^.).^.^.^.(.A.G+t+v+y+I G+z+s+u+l+G+G+7.f.<.'.'.'.'.'.'.'.'.'.'.'.'.'.).2.T.G+G+_+8.L t / / t V ~+G+=.5.^.^.^.^.^.^.^.^.).).).^.^.^.^.^.).!.}.6.i.a+G+C+%+V t / / / L Z a+G+7.z.).(.|.G+A+m+A+G+G+G+G+G+G+G+G+I G+z+s+u+l+G+G+G+Q.4.(.'.'.'.'.'.'.'.'.'.'.'.'.:.2.L.G+G+6+%+%+M W 9+u+z+G+-+}.!.!.!.!.!.!.<.<.(.(.(._._._.0.0.0._._._._.0.|.G+y+u+w+G+G+G+G+G+. 8 8 . G+G+G+G+G+G+G+G+G+G+G+I I I I I I I = v &.n+u+9+G+G+&.g.3.^.'.'.'.'.'.'.'.'.'.'.'.'.'.'.'.'.'.~.g.F+G+3+u+t+z+= m 4 8 8 # m I G+",
"G+G+G+G+G+G+G+I I I z+l+f+F+E+4.'.'.'.'.'.'.'.'.'.'.'.'.'.'.'.'.'.'.'.'.'.'.(.e+G+u+q+q+z+G+t.).'.'.'.'.'.'.'.'.'.'.'.'.'.'.'.'.'.'.'.'.:.h.7.G+t+v+w+z+t+q+C+G+d.'.'.'.'.'.'.'.'.'.'.'.'.'.'.'.'.'.'.'.'.'.'.'.p.G+G+u+t+x+l+l+G+G+b.'.'.'.'.'.'.'.'.'.'.'.'.'.'.'.'.'.'.'.'.'.'.(.A.G+t+v+y+G+C+w+u+t+G+G+A.c.'.'.'.'.'.'.'.'.'.'.'.'.'.'.'.'.'.:.h.F+G+A.8.L t / t V ~+G+..2.'.'.'.'.'.'.'.'.'.'.'.'.'.'.'.'.'.'.'.'.'.~.L.G+Y  +T t / t T  +G+G+|.'.'.'.c.Y C+ +N q , ' = G+G+G+G+G+z+t+m+i+G+G+!+b./.'.'.'.'.'.'.'.'.'.'.'.'.'.'.'.'.^.5._+G+E+%+V L N 8+C+G+f.'.'.'.'.'.'.'.'.'.'.'.'.'.'.'.'.'.'.'.'.'.'.'.r.G+y+u+w+G+G+G+I . 8 4 m G+G+G+G+G+G+G+G+G+G+G+I H H I I I H I Y a+~+n+C+G+F+f.~.'.'.'.'.'.'.'.^.}.{.1.~.<.:.'.'.'.'.'.'.'.'.5._+G+3+k+/+v 8 j # m I G+G+G+",
"G+G+G+G+G+G+G+I I I =+l+k+F+E+s.^.^.^.^.^.^.^.^.^.^.^.^.^.^.^.^.^.'.^.^.^.^.(.3+G+v+r+u+G+G+t.(.^.^.^.^.^.'.^.^.^.^.^.^.^.^.^.^.^.^.^.^.^.^.e...G+v+l+x+t+q+C+G+d.^.^.^.^.^.^.^.^.^.^.^.^.^.^.^.^.^.^.^.^.^.^.^.k.G+G+u+t+x+l+l+G+G+b.^.^.^.^.^.^.^.^.^.^.^.^.^.'.^.^.'.^.^.^.^.^.(.Q.G+t+v+y+C+w+v+g+G+G+A.[.^.^.^.^.^.}.2.h.f.g.R.c.1.:.^.^.^.^.^.^.h...G+(+8.L / t V ~+G+..5.^.^.^.^.'.^.^.^.^.^.'.^.^.^.^.^.^.^.^.^.^.^.!. +G+h+8.L t t Z (+G+G+c.^.^.^.!.t.G+(+Z t / & 1 ! , . h x M  +(+G+G+A.q.^.^.^.^.^.^.^.^.(.[.[./.^.^.^.^.'.^.^.^.~.T.G+C+ +V V T.=+G+d.^.^.^.^.^.^.^.^.^.^.^.^.^.^.^.^.^.^.^.^.^.^.^.I.G+y+u+w+G+G+= # 8 # h G+G+G+G+G+G+G+G+G+G+G+G+I I H I I I I Y e+k+f+G+G+W e.).^.^.^.^.^.^.~.h.d. +%+a+j.%+L.h.1.^.^.^.^.^.^.^.1.(+G+o+~+J x h G+G+G+G+G+G+",
"G+G+G+G+G+G+G+G+I I z+l+k+G+E+s.^.).).).[.z.4.4.k.s.b.b.b.b.r.r.r.b._.).).)._.3+G+v+r+u+G+G+|./.).).).[.4.4.4.e.e.e.e.e.e.e.e.1.{.:.).).).).).h.G+y+u+s+t+q+C+G+d.).).).^.0.r.r.r.r.r.r.r.r.r.r.r.r.r.y.(.).).).k.G+G+u+t+x+l+l+G+G+b.^.).).).p.b.b.b.b.b.b.b.b.b.b.r.b.r.0.^.).).(.Q.G+t+v+h+J j.8+G+G+/+a.^.).).).<.g.~+=.F+G+G+G+E+a+ +e.!.).).).^.).e.=.G+_+Z t t V ~+G+..5.^.).).).{.3.3.3.{.3.3.3.3.3.{.{.<.!.^.).).).^.~.j.G+j.V L T  +Y G+t.!.^.).).).s.G+=+T.L / / / / / 2 } t Z _+G+G+Q.0.).^.).).^.).a.r.t.A.!+!+A.|.b.[.).).^.).).).<.|.G+7.8.l.T.=+G+d.).).).)./.<._.[.[._._.0.0.0.0.0.0._.(.^.).).).r.G+z+u+w+G+h 4 8 # = G+I G+G+I I I I I I I I I H h h H H H S e+j+j+G+G+a+6.).).^.^.).).3.g.&.G+G+G+G+G+G+G+G+G+=.i.1.).).).).^.).e.F+C+m+9+C+G+G+G+G+G+G+G+",
"G+G+G+G+G+G+I I G+G+z+l+j+G+F+s./././.[.&.G+G+G+G+G+G+G+G+G+G+G+G+G+I./././._.3+G+v+r+k+G+G+d./././.(.t.G+F+F+F+F+F+F+F+F+F+F+F+=.i.1././././.{.=.G+u+l+l+q+C+G+|./././.(.|.G+G+G+G+G+G+G+G+G+G+G+G+G+G+k.)././.k.G+G+u+t+b+l+l+G+G+r./././.p.7.G+G+G+G+G+G+G+G+G+G+G+G+G+Q.(././._.A.G+9+%+y L 8.h+G+!+c././././.e._+G+G+G+G+G+G+G+G+G+G+G+T.1./././././.g.G+G+%+L t V ~+G+..c./././.1._+G+E+7.7.7.F+E+F+F+7.7.=. +4.!././././.h.G+h+8.T Z _+G+Y 4./././././._./+G+_+T t / / / / / t T %+G+G+A.0.)././././.a.|.S G+G+G+G+G+G+G+G+7.d.2./././././.~.&.G+!+T.7+E+G+d././././.g./+a+h+h+6+6+7.7.=+S 4+!+!+Q.0././.).I.G+z+u+w+m 4 8 ( H I I I I I I I I I H H H H h h h + + h h 7.9+o+G+G+G+(+5.[.!./.)./.e.X.G+G+z+s+l+l+l+l+j+s+C+G+G+X.6././././././.i.G+g+v+y+G+G+G+G+G+G+G+",
"G+G+G+G+G+I I I G+G+z+l+u+G+F+s.(.(.(.c.7.G+G+G+G+G+G+G+G+G+G+G+G+G+|./.(./._.3+G+u+r+m+G+G+d.(.(.(._.A.G+G+G+G+G+G+G+G+G+G+G+G+G+G+j.1.(.(.(.(.L.G+g+v+l+q+C+G+|.(.(.(._.J.G+G+G+G+G+G+G+G+G+G+G+G+G+G+b./.(./.k.G+G+k+9+b+l+l+G+G+r.(.(.(.b.G+G+G+G+G+G+G+G+G+G+G+G+G+G+/+_.(./._.A.G+(+V L V ~+G+G+I.(.(.(.(.4.7.G+G+G+F+j.%+~+P...G+G+G+G+X.5./.(./.1.%+G+G+=.L L V ~+G+=.2.(.(.(.4.F+G+G+G+G+G+G+G+G+G+G+G+G+G+F+h.(.(.(.(.1.=.G+T.l.L.7.G+t.<.(.(.(.(.(./.I.G+!+8.L / / / / / L T.7.G+=+k.(.(.(.(./.y.6+G+G+G+G+z+B+D+C+G+G+G+G+/+4.(.(./.<.g...G+G+f+d+Y G+d.(.(.(.(.%+G+G+G+G+G+G+G+G+G+G+G+G+G+G+k./.(./.I.G+z+k+a+8 8 . I I I I I I I I G+I I H H H H H h = = h h h 7.9+!+G+G+G+G+G+X.d.h.2.h.E+G+C+g+q+u+v+v+v+v+v+u+q+l+G+G+X.3.(.(.(.(.(.6.F+e+u+w+G+G+G+G+G+G+G+",
"G+G+G+G+G+I I G+G+G+z+l+k+G+F+b.(.(.(.c.h+G+e+u+v+v+v+v+v+j+k+s+G+G+J.q.a.a.p.3+G+v+p+m+G+G+|._.(.(.0.A.G+G+A+i+i+i+i+i+i+i+i+i+F+G+G+L.<.(.(.(.h.G+A+u+v+q+C+G+t.(.(.(._.J.G+G+x+t+l+l+w+w+w+w+w+G+G+G+6+A.A.A./+G+G+u+9+b+l+l+G+G+r.(.(.(.s.Y G+C+w+s+w+w+w+w+w+w+z+G+G+9+y.q.a.p./+G+(+Z T 8.!+G+6+0.(.(.(.c.h+G+G+..T.l.l.Z Z l.l.l.G.G+G+G+E+e.<.e.X.G+G+(+m.L t V ~+G+h+c.(.(.(.4.E+G+F+h+6+6+6+6+a+a+a+6+7.G+G+E+5.(.(.(.<.j.G+~+-+8+G+G+b.(.(.(.(.(.(.(.a.=+G+%+T t / / / t Z (+G+G+I.(.(.(.(.(.r.Y G+G+w+v+q+q+q+q+q+q+j+=+G+G+F+h._.[. +G+G+E+f+r+q+z+G+d.(.(.(._. +G+G+!+A+e+w+w+w+w+w+y+G+G+G+r.a.a.a.|.G+z+f+X.4 m G+G+G+G+G+G+G+G+G+G+G+I I I G+I I I I I I I H S e+g+k+k+9+D+G+G+G+G+=.G+G+A+q+u+t+w+x+y+y+y+x+w+l+m+f+G+G+h.(.(.(.(.(.1._+G+u+t+C+G+G+G+G+G+G+",
"G+G+G+G+G+I I G+G+G+z+l+k+G+F+b._._._.c.h+G+d+m+v+l+l+l+g+f+d+k+G+G+G+E+E+E+F+G+G+t+0+f+G+G+J._._._.0.A.G+i+p+q+u+u+u+u+u+u+q+r+0+C+G+=.2._._._.4.G+z+u+v+q+C+G+t._._._._.J.G+b+r+q+v+v+v+v+u+r+q+G+G+G+G+F+F+F+F+G+G+l+s+x+l+l+G+G+r._._._.k.S G+v+p+q+u+u+u+u+q+r+v+G+G+G+F+F+F+F+G+G+a+Z Z %+G+G+d._._._.0.t.G+G+h+-+l.T L L L L T Z l.;+E+G+G+..%+F+G+7.%+Z L t t V ~+G+h+c._._._.e...G+ +-+l.Z Z Z Z Z Z l.L.(+G+G+d._._._._.-+G+6+7+!+G+/+[._._.0.f.a._._._.|.G+6+Z L / / / L T.=+G+A.a._._._._.H.4+G+G+/+d+v+t+s+w+w+s+l+u+q+i+G+G+F+t./+G+G+6+d+u+u+q+E+G+d._._._._. +G+6+-+l.T.8+u+u+u+q+r+y+G+G+F+E+E+F+F+G+C+f+&.4 + G+G+G+G+G+G+G+G+G+G+G+G+G+G+G+G+G+G+G+G+G+G+I I =+b+s+l+k+f+f+g+A+C+G+G+9+q+l+w+z+C+G+G+G+G+= x J _+d+!+G+L.<._._._._.<.-+G+l+t+z+G+G+G+G+G+G+",
"G+G+G+G+I I I G+G+C+x+v+k+G+F+b._.0._.c.h+C+d+f+6+e+x+x+h+X.~+g+G+G+G+C+G+G+C+G+G+9+0+k+G+G+|.0.0._.a.A.G+n+r+v+t+t+t+t+t+t+l+q+p+A+G+E+z._.0._.e.F+z+q+q+q+C+G+t._.0.0.0.J.G+9+r+v+s+w+s+s+t+l+u+s+t+t+t+t+t+t+t+9+A+v+t+s+u+v+G+G+r._.0._.y.=+G+u+r+l+t+t+t+t+o+8+8+/+(+(+(+(+(+(+(+/+j.Z l.(+G+G+k._.0._.b.C+G+h+7+-+Z T L L L L L T Z -+-+X.G+G+G+G+h+T.Z L t t L Z ~+G+h+e._.0._.4.E+G+7+l.V T L L L T T Z -+c+G+G+J.0.0.0._.f.G+(+7+G+G+f._._._.b.G+I._.0._.y.Y G+%+T t / t V ~+G+G+I._.0.0._.p.!+G+G+8+Z L p r m C+G+C+z+e+l+q+t+G+G+G+G+G+o+m+v+l+v+r+z+G+d._.0.0._. +G+(+l.T L L F 6+w+t+v+l+w+s+t+t+t+t+t+A+3+/+a+~ a m C+C+C+C+C+C+C+C+C+C+C+C+C+C+C+C+C+C+C+I G+G+I I I Y =+x+/+_+f+u+u+g+t+u+t+y+C+G+G+G+G+h ( 4 8 a /+m+A+G+T.[.0.0.0._._.-+G+v+t+z+G+G+G+G+G+G+",
"G+G+G+G+G+H I C+y+w+l+q+q+G+F+b.0.0.0.c.h+G+m+d+~+/+t+l+(+_+f+q+r+p+p+p+p+p+p+p+r+0+0+q+G+G+J.a.0.0.a.A.G+3+p+q+u+u+u+u+u+u+q+r+d+C+G+_+[.0.0.0.R.F+y+p+p+r+G+G+Q.0.0.0.a.Q.G+e+r+q+l+l+l+l+l+v+q+r+p+p+p+p+p+p+p+0+0+m+u+u+r+v+G+G+I.0.0.0.H.Y G+v+r+q+v+v+f+%+8.l.l.-+<+<+<+<+<+<+<+-+-+-+-+!+G+9+a.0.0.0.|.G+G+a+<+-+L.L.8.8.8.8.l.l.L.-+S.<+/+G+G+A+<+-+Z V T T Z l.8+G+..e.0.0.0.R.E+G+%+-+l.Z Z Z Z Z Z l.-+~+G+G+d.0.0.0.0.L.G+c+8+G+..c.0.0.0.|.G+A.a.0.0.a.Q.G+(+Z t / L 8.h+G+!+q.0.0.0.0.J.G+G+~+Z L t / / < : ' I G+C+y+t+q+i+G+G+C+n+q+v+v+u+r+r+G+G+d.0.0.0.0.t.G+a+l.T L L L N (+t+l+u+q+r+r+r+r+m+d+d+m+l+t+6+(+X.a+e+w+w+w+w+w+w+w+w+w+w+w+w+w+w+w+w+x+y+C+G+G+G+G+G+G+G+h a J e+t+t+t+w+y+G+G+G+I + ( 8 8 4 x !+v+q+z+G+S.0.0.0.0.0.2.j.G+v+t+C+G+G+G+G+G+G+",
"G+G+G+G+G+I I z+s+l+k+r+s+G+F+r.a.a.a.z.6+G+w+j+m+f+n+k+f+n+u+u+q+q+q+r+r+q+q+r+m+m+q+v+G+G+Q.a.a.a.q.A.G+G+A+o+o+o+o+o+o+o+o+A+G+G+G+S.a.a.a.0.g.G+C+l+l+t+G+G+Q.a.a.a.a.Q.G+4+v+v+l+v+l+l+l+l+v+v+v+v+u+u+v+u+u+u+n+n+v+l+l+z+G+G+I.a.a.a.r.C+G+G+s+t+9+i+/+/+(+(+(+(+(+(+(+(+(+(+(+(+(+_+/+G+G+J.a.a.a.q.A.G+G+G+E+E+....E+E+E+..h+h+....h+6+!+G+G+D+8+7+T.T. +T.T.c+D+G+..4.a.a.a.R.E+G+F+(+_+_+_+_+_+_+_+_+h+G+G+G+e.a.a.a.a.%+G+!+C+G+d.a.a.a.z.7.G+C+b.a.a.a.r.G+=+T.L t L  +G+G+J.0.a.a.a.b.C+G+/+l.L / / / / / / < > , + G+y+t+m+7.A+m+u+l+k+f+o+2+6+G+G+d.a.a.a.a.%+G+b+7+L.8.8.8.8.T.8+k+q+q+q+q+q+m+d+d+m+q+u+u+u+k+f+f+f+k+u+u+u+u+u+u+u+u+u+v+v+v+l+l+t+s+e+4+C+G+G+G+G+G+G+G+# 8 m C+z+z+C+G+G+I m # 8 8 # . E+w+l+q+A+G+Y 5.a.a.a.a.a.5.F+z+u+s+C+G+G+G+G+G+G+",
"I I I I I H H b+v+G+G+G+G+G+G+I.a.a.a.z.h+G+G+G+G+G+G+G+G+G+G+G+G+G+G+G+G+G+G+G+G+G+G+G+G+G+Q.q.a.a.p.6+G+G+G+G+G+G+G+G+G+G+G+G+G+G+L.c.a.a.a.a.L.G+G+G+G+G+G+G+A.q.a.a.q.Q.G+G+G+G+G+G+G+G+G+G+G+G+G+G+G+G+G+G+G+G+G+G+G+G+G+G+G+G+I.a.a.a.Z.G+G+G+G+G+G+G+G+G+G+G+G+G+G+G+G+G+G+G+G+G+G+G+G+G+G+#+a.a.a.q.6+G+G+G+G+G+G+G+G+G+G+G+G+G+G+G+G+G+G+G+G+G+G+G+G+G+G+G+G+G+G+G+E+4.a.a.a.$+F+G+G+G+G+G+G+G+G+G+G+G+G+G+G+i.a.a.a.a.c.a+G+G+G+F+R.a.a.a.d.G+G+G+)+a.a.a.p.3+G+~+V L T 8+G+G+I.a.a.a.a.J.G+C+%+T t / / / / 2 2 / / / 1 ^ m !+9+o+o+g+3+l+f+G+G+G+G+G+G+d.a.a.a.a.~+G+G+x+!+!+!+!+!+!+!+!+e+e+e+e+e+e+e+e+e+e+e+e+e+e+e+e+e+e+w+w+w+w+x+x+x+y+y+y+y+y+y+4+e+A+A+B+C+G+G+G+G+G+G+G++ 8 # I G+G+I = . 4 8 8 ( + Y y+s+v+q+e+G+G+S.a.a.a.a.a.a.S.G+s+v+x+G+G+G+G+G+G+G+",
"I H H H h * h e+u+F+E+E+a+a+_+4.q.q.q.q. +!+h+!+!+!+7.4+4+4+=+4+b+e+C+G+G+G+G+G+G+G+C+b+b+b+I.q.q.q.q.|./+/+(+(+_+_+_+_+_+_+(+~+T.h.c.q.q.q.q.K...G+G+G+C+h+6+!+d.q.q.q.q.#+b+4+b+b+4+b+!+b+b+b+b+4+b+!+!+4+G+G+G+G+G+G+G+G+G+G+Y 3+b.q.q.q.y./+b+b+b+!+b+b+!+!+!+b+4+=+4+=+4+!+b+C+G+G+G+G+G+G+G+#+q.q.q.p.Q.7.!+h+h+6+a+a+(+a+a+(+_+_+(+a+a+(+a+a+a+a+G+G+G+G+..(+a+a+a+h+%+c.q.q.q.e.%+h+a+a+/+/+a+a+a+=.h+6+(+%+h.q.q.q.q.q.R.C+G+C+G+t.q.q.q.p./+G+G+G+!+y.q.q.q.#+G+7.8.T Z (+G+C+H.q.q.q.k.9+G+i+8.L / / 2 / / / / / 2 / / / 1 0 v h+!+4+b+l+f+G+G+G+G+..E+f.q.q.q.q.L.F+F+F+F+F+F+G+G+G+G+G+G+G+G+G+G+G+G+G+G+G+G+G+G+G+G+G+G+G+G+G+G+G+G+G+G+G+D+e+t+t+j+l+t+s+b+=+I G+G+G+G+I H I = # 4 h I * ( 8 8 4 ( h I z+w+l+u+v+C+G+G+i.q.q.q.q.q.q.R.C+G+k+t+z+G+G+G+G+G+G+G+",
"H H H H h . * e+q+F+F+-+z.K.z.q.p.p.p.p.p.s.H.y.y.H.H.H.y.H.H.x.H.{+e+G+G+G+G+G+C+G+Q.H.H.H.p.p.p.p.p.p.p.z.z.z.z.z.z.z.z.z.z.z.q.q.p.p.p.q.H.8+G+G+G+G+(+s.x.y.p.p.p.p.p.q.H.`.H.H.H.y.y.y.y.x.x.y.x.]+p+v+G+G+G+G+G+G+G+G+/+&+r.y.q.p.p.p.q.x.H.H.y.y.H.H.y.x.x.y.H.H.y.y.H.`.#+=+G+G+G+G+G+G+G+*+q.p.p.p.k.H.H.s.y.x.K.z.z.z.z.z.z.z.z.z.z.z.K.z.K.K.h.j.G+G+L.z.z.z.K.K.z.q.p.p.p.q.z.K.K.K.K.z.z.K.K.K.s.K.z.q.q.p.p.p.q.c.%+G+G+G+Y R.q.p.q.$+G+(+c+G+G+#+q.p.q.y.=+G+%+Z l.6+G+3+x.p.p.q.r.C+G+~+Z t 2 2 2 / 2 / / / 2 2 2 / / / < - a = y+l+f+G+G+j.R.R.$+x.p.p.p.p.K.$+$+$+r.b.r.I.I.I.I.#+#+#+#+#+&+#+3+G+G+G+G+G+G+G+G+G+G+G+G+G+y+A+t+l+u+u+u+u+l+l+t+w+e+4+=+Y I G+G+G+G+G+H H H . 8 4 # 8 8 # ( h H Y b+9+u+u+A+G+G+X.h.q.q.p.p.p.q.R.a+G+i+u+w+C+G+G+G+G+G+G+G+",
"H H H H * . . !+q+F+F+g.q.p.p.p.k.k.k.k.k.p.p.p.p.q.q.q.q.y.&+d+l+w+G+G+G+G+G+G+G+G+J.q.p.p.k.k.k.k.k.k.p.p.p.p.p.p.p.p.p.p.p.p.k.k.p.k.p.`.c+G+G+l+t+G+_+p.p.p.k.k.k.k.k.k.p.p.p.p.p.p.q.q.q.x.Z.)+u+l+s+C+G+G+G+G+G+G+G+G+Z.q.p.p.k.k.k.k.k.k.p.p.p.p.p.p.q.q.q.q.x.`.Z.#+)+2+3+G+G+G+G+G+G+G+G+*+p.k.k.k.p.p.p.p.p.p.p.p.p.p.p.p.p.p.p.p.p.p.p.p.p.p.p.z.<+..a+f.z.q.q.p.p.k.k.k.k.k.p.p.p.p.p.p.p.p.p.p.p.p.p.p.p.k.p.p.p.<+G+G+G+G+~+p.p.p.p.t.G+T.<+6+G+/+x.p.k.p.Q.G+a+-+L.D+G+9+x.p.k.p.I.G+G+%+T t 2 2 2 2 / 2 2 2 / / / / 2 / / / < - W l+m+G+G+i.q.p.p.k.p.k.k.k.p.p.p.p.p.p.p.p.q.q.q.q.q.q.y.`.#+d+y+G+G+G+G+G+G+G+G+G+x+t+l+u+u+u+v+l+l+t+w+x+y+z+C+Y I H H I G+G+G+G+I I G+I h ( j 4 8 # m h H S =+e+l+q+g+C+G+G+L.e.p.p.k.p.p.x.|+X.G+e+u+t+z+G+G+G+G+G+G+G+G+",
"H H H H * . . 6+q+F+F+g.p.x.k.k.k.k.k.k.k.x.x.x.x.y.Z.J.9+D+G+G+G+G+G+C+b+9+k+w+G+G+J.p.x.k.k.k.k.k.k.k.k.k.k.k.k.k.k.k.k.k.k.k.k.x.x.x.$+8+F+G+e+p+v+G+A.x.x.k.k.k.k.k.k.k.k.x.x.x.y.H.I.)+g+x+C+G+G+G+G+G+G+G+G+C+C+G+G+G+`.p.x.k.k.k.k.k.k.k.x.x.x.x.x.y.`.#+)+/+!+=+G+G+G+G+G+G+C+=+6+6+D+G+G+#+p.x.k.x.k.x.x.x.x.x.x.x.x.x.x.x.x.x.x.x.x.x.x.k.k.k.k.x.p.h.G+G+_+g.x.x.k.k.k.k.k.k.k.k.k.k.k.k.k.k.k.k.k.k.k.x.x.x.x.K.-+G+G+G+G+G+g.x.k.x.$+E+a+l.l.%+G+G+Z.x.k.x.Z.G+G+c+<+D+G+9+y.k.k.x.#+G+G+%+T t 2 2 2 / 2 2 2 2 2 2 2 / 2 / 2 2 / / t %+8+G+G+|.p.x.k.k.k.k.k.k.k.k.x.x.x.x.x.x.y.H.&+*+A.3+=+C+G+G+G+G+G+C+y+w+l+v+u+q+u+u+v+l+s+w+x+y+z+C+G+G+G+I I I H H = H G+G+G+G+G+H + ( 4 8 4 8 ( = I H S b+t+u+k+y+G+G+(+h.x.x.k.k.k.x.H.7+E+G+B+u+t+y+G+G+G+G+G+G+G+G+G+",
"H H H H h . . 6+q+F+F+S.x.y.x.k.y.y.y.k.x.H.Z.|.~+E+G+G+G+G+G+z+e+9+v+k+d+f+r+q+G+G+Q.H.H.H.k.y.y.y.y.k.y.y.y.y.y.y.k.y.y.y.y.y.x.s.R.-+=.G+G+E+m+p+l+G+(+H.H.H.k.y.y.y.y.k.H.Z.#+J./+Y G+G+G+G+G+G+G+G+G+x+w+t+v+q+r+z+G+G+&+H.H.y.k.y.y.y.k.y.`.Z.#+J.A.b+G+G+G+G+G+G+G+G+!+6+(+~+ + +l.-+8+G+G+J.H.H.H.H.H.H.H.H.H.H.y.y.H.y.y.y.H.y.y.y.y.y.y.y.x.k.y.y.x.R.h+G+G+G+8+R.x.k.y.y.y.y.k.x.x.x.x.x.x.x.x.x.x.x.x.K.K.R.<+6+G+G+D+C+G+a+K.k.k.x.7+G+%+T T 8.!+G+Q.x.y.k.y.A.G+i+<+!+G+9+y.k.y.x.&+G+G+8+Z t 2 2 2 2 2 2 2 2 2 2 2 / / 2 2 2 / 2 t V %+G+G+<+x.x.k.k.y.y.y.y.k.x.y.H.$+^+|.Q.6+G+G+G+G+G+G+G+=+e+w+l+v+u+u+u+v+l+t+s+w+x+y+z+C+G+G+G+G+G+G+G+I I I I = = = H I G+G+I m # 8 8 # ( . j # = = 7.3+v+u+s+G+G+E+S.K.x.k.y.y.k.x.^+%+G+G+e+u+l+x+C+G+G+G+G+G+G+G+G+G+",
"H H H I H + * h+k+E+E+X. +8+L.s.H.H.H.y.7+/+F+G+G+G+G+G+w+l+v+u+f+~+_+(+&.A+l+q+C+G+=+/+/+/+I.y.H.H.H.f.~+~+~+~+~+8+^+y.H.H.H.y.S._+F+G+G+G+3+k+u+q+t+G+E+A.A./+d.y.H.H.y.#+9+C+G+G+G+G+G+G+G+G+G+w+l+u+q+m+m+m+k+m+p+y+G+G+4+9+3+2+`.H.H.H.`.Q.3+C+G+G+G+G+G+G+G+7./+_+8+ +T.8.Z Z T L L Z T.Y G+G+3+6+6+9+/+/+/+A.A.A.~+~+_+~+~+~+~+~+~+~+~+~+~+~+-+K.H.H.y.$+..G+G+G+G+E+-+K.H.H.H.s.i.-+-+-+L.-+-+<+<+i.<+<+7+%+j.E+G+G+G+f+c+C+G+<+y.H.y.s.=.6+L.T L Z 8+G+b+`.y.H.y.#+G+C+d+!+G+9+y.x.y.x.Z.C+G+8+l.T L t 2 2 2 2 / 2 2 2 2 2 / 2 2 2 2 2 t V  +G+G+(+<+<+<+R.H.H.H.y.s.d.t.(+E+G+G+G+G+G+G+G+C+/+~+8+T.T.f+v+l+t+w+b+4+=+C+C+G+G+G+G+G+G+G+G+G+G+G+I I I I H H = = H I = . # 8 8 # . h H h 4 8 x !+g+k+g+z+G+G+ +R.x.y.H.H.H.y.y.-+a+G+G+9+u+t+b+C+G+G+G+G+G+G+G+G+G+G+",
"I H I I H h h !+u+F+E+F+G+G+G+|+H.b.H.$+E+G+G+=+A+l+v+k+u+v+l+s+e+W a a x C+s+v+G+G+G+G+G+G+t.H.b.H.H.(+G+G+G+G+G+G+C+s.H.b.b.H.S.G+G+G+B+m+u+t+s+v+s+G+G+G+G+G+A.H.b.b.H.2+G+G+G+G+G+C+x+s+l+u+r+p+p+p+p+r+q+q+k+q+r+z+G+G+G+G+G+G+*+H.b.H.#+G+G+G+C+!+h+(+~+%+T.8.l.l.l.l.l.Z Z T T L L L 8.=+G+G+G+G+G+G+G+G+G+G+G+G+G+G+G+G+G+G+G+G+G+G+G+G+G+G+h+R.H.b.H.`.F+G+i+g+C+G+E+R.H.b.H.f.G+G+G+G+G+G+G+G+G+G+G+G+G+G+G+G+B+o+d+|+o+G+h+R.H.H.H.^+G+8+-+L.Z l.<+3+G+*+H.H.H.`.e+G+C+C+G+4+)+*+*+#+J.C+G+6+8+_+M t 2 2 2 2 2 / / / / / / / / 2 2 2 t T %+G+G+G+G+G+G+-+H.b.H.H. +G+G+G+G+G+G+C+D+A+o+k+c+-+l.Z Z Z N /+s+b+S = H H H I I I H I I H m * I H H I I I I H I H = * ( 4 8 4 # m h H H I I m K (+k+k+B+G+G+X.i.y.H.H.H.H.H.y.^+_+G+G+D+v+u+9+4+= = I I I I I I I I I I ",
"G+G+G+G+I I H 4+g+!+e+A+z+F+h+&+`.r.`.^+..G+v+q+q+v+9+3+e+4+z+C+Y ( 8 8 j x e+l+s+w+w+y+G+G+t.`.r.`.`.(+G+C+s+t+A+G+G+&+H.r.r.`.s._+G+G+d+m+9+4+4+t+t+e+A+G+G+G+~+`.r.r.`.Q.G+G+e+v+u+u+u+u+v+v+q+l+t+t+t+t+t+t+t+t+9+!+6+6+!+G+G+G+*+`.r.`.#+G+G+/+ +8.Z Z T T L L T %+%+ +%+%+%+%+%+%+Y.L T j.(+_+_+/+6+G+G+G+G+G+G+G+G+G+G+G+G+G+G+G+G+G+G+G+G+G+a+s.`.r.`.$+G+w+p+p+j+G+=.$+`.r.`.5+F+G+z+w+w+w+w+w+w+w+w+A+3+l+v+u+u+u+q+m+G+G+7+H.`.`.`.~+G+!+/+(+(+(+(+!+G+9+`.`.r.`.J.G+G+G+G+G+G+G+G+G+G+G+G+G+G+7.j.t 2 / / / / / / / / / / / t t t t t L Y.G+G+G+G+G+G+7+`.r.r.H._+G+G+D+o+g+f+f+d+m+u+q+m+ +L.T.8.8.8. +n+t+!+h h h h h H I H H H * 8 # h h h H I I I I h m # j 8 4 . h H H I H I Y y+3+f+f+i+G+G+F+ +R.`.`.r.r.`.`.R.7+G+G+G+l+u+g+e+S H h + h I I I I I I I I I ",
"G+G+G+G+G+G+I Y e+l+u+r+k+F+Q.Z.r.r.`.$+..G+r+v+e+4+S h h H I I . 8 # m 4 8 w A+l+v+r+u+G+G+t.`.r.r.`._+G+l+r+q+r+j+G+=+`.`.r.r.`.$+g+G+f+m+3+h S b+9+k+r+k+G+G+t.`.r.r.`.Q.G+C+q+q+l+s+w+x+x+t+v+C+G+G+G+G+G+G+G+G+G+c+L.L.7+/+G+G+*+`.r.`.#+G+C+T.Z L t t t 2 2 t m.7.G+G+G+G+G+G+G+G+(+T L L T Z -+<+0+G+G+G+8+7+L.;+;+F.l.l.l.-+7+7+7+7+c+D+G+G+_+`.r.r.`.^+G+t+q+q+u+G+=.$+`.r.`.^+E+G+q+r+u+u+u+u+u+u+u+u+u+v+l+t+s+t+u+l+G+7.R.`.r.r.^+E+G+G+G+G+G+G+G+G+G+G+&+r.r.`.&+2+2+2+2+2+2+2+Q.2+G+G+G+G+G+ +Z t 2 2 2 2 2 2 2 2 / / / t L m.m.T L L T m.l.-+(+G+G+7+`.r.r.`.8+G+B+d+q+v+o+_+i+w+t+v+A+e+6+6+6+6+6+6+h+9+9+7.h h h h H H I I H H # 8 * h h H G+I h . # 8 8 4 m = G+G+I I I I =+w+l+u+n+=+G+G+j.S.`.`.r.r.r.`.$+<+a+G+G+A+k+u+t+4+= H H h + + H I I I I I I I H ",
"G+G+G+G+G+G+G+G+C+x+s+u+k+F+#+Z.Z.Z.Z.^+..C+u+t+Y H = = = I I h 8 j h G+= # 8 v !+w+u+q+G+G+8+Z.Z.Z.Z._+G+j+q+t+l+q+e+G+J.`.Z.I.Z.`.^+G+Y d+g+4+S S 4+s+u+r+G+G+8+`.Z.Z.Z.Q.G+z+q+l+y+C+G+G+C+s+u+z+G+G+G+C+C+=+G+G+G+T.Z T l.~+G+G+{+Z.Z.Z.#+G+C+ +T t 2 2 2 2 2 L T.E+G+G+G+G+C+G+G+G+/+Z t t L Z L.d+b+G+G+G+7+<+l.T.j._+/+g+g+l+l+l+v+r+1+A+G+G+^+Z.Z.Z.`.c+G+j+u+u+l+G+..^+Z.Z.Z.5+E+C+r+v+s+w+w+w+w+w+w+w+x+x+z+C+z+t+k+z+G+%+`.Z.I.Z.r.d.*+#+*+|+|+|+*+*+)+)+'+Z.I.Z.Z.Z.Z.Z.`.`.`.`.]+2+G+3+C+G+G+7+Z t 2 2 2 2 2 2 2 2 2 2 t T 8.=.h+ +Z T L L T l.7+G+G+7+`.Z.Z.`.~+G+3+r+l+b+=+7.C+C+w+k+E+G+G+G+G+G+G+G+G+=+j+e+H H H H H I I G+I I m 8 ( h h = h ( 4 8 j # m I G+G+G+G+G+G+C+y+t+v+u+A+G+G+=.7+$+`.Z.Z.Z.Z.`.^+j.G+G+y+v+u+l+e+S H = H H h h h H I I I I I I I I ",
"G+G+G+G+G+G+G+G+G+G+y+l+j+F+{+Z.I.I.Z.^+..C+u+t+Y I H H I G+I # 8 . G+G+G+I . 8 4 x t+u+G+G+t.Z.I.I.]+_+G+j+v+x+x+l+k+G+G+^+Z.I.I.I.`._+G+i+k+e+Y I G+z+t+q+G+G+8+]+I.I.Z.Q.G+z+q+v+w+x+x+x+w+v+q+z+G+G+2+[+[+&+J.G+C+T.L t T ~+G+G+)+Z.I.Z.{+G+C+ +T t t t t t t L L.D+G+4+{+[+[+{+4+G+(+Z L L Z %+9+G+G+G+G+G+Y c+d+l+w+x+z+=+=+=+4+w+l+r+7+G+G+F+`.I.I.I.`.h+G+u+l+v+v+G+=.^+Z.I.Z.5+E+C+u+t+z+C+G+G+G+G+G+G+G+G+G+G+y+v+j+G+G+^+Z.I.I.I.I.Z.Z.Z.Z.Z.Z.Z.Z.Z.Z.Z.I.I.I.I.I.I.I.I.I.Z.`.{+e+4+)+]+)+G+G+(+L.T t 2 2 2 2 2 2 2 2 t T l./+G+G+G+j.l.T L L V T.G+G+7+Z.I.I.]+~+G+w+q+s+=+C+C+C+z+t+m+B+G+G+A.0+c+t.6+G+7.f+w+I I G+G+G+G+G+G+G+G+H 4 4 * * ( 8 8 4 ( m I G+G+G+G+G+G+G+z+w+l+u+l+G+G+G+ +$+]+Z.I.I.Z.]+^+T.F+G+G+l+q+v+s+4+Y I I H I I H = H I I I I G+I G+G+I ",
"G+G+G+G+G+G+G+G+G+G+z+l+j+E+[+'+I.I.I.]+=.C+u+t+Y I I I G+G+. 8 # G+G+G+G+G+G+. 8 a /+u+z+G+0+]+I.I.'+~+G+g+l+y+C+w+u+s+G+=+]+'+I.&+'+]+G+G+n+v+x+G+G+C+t+u+F+G+8+]+I.I.]+8+G+C+r+r+u+u+u+u+u+r+r+C+G+G+[+]+]+]+[+G+G+T.L t T ~+G+G+)+'+&+'+{+G+C+7+l.T T T T T T Z 7+D+G+9+]+]+]+]+9+G+(+l.Z T._+G+G+G+i+|+f+G+G+G+c+m+l+s+e+b+b+b+e+l+q+d+E+G+G+7+Z.&+I.'+]+G+y+u+t+v+v+G+=.^+'+I.'+5+E+C+u+t+C+G+G+G+G+G+G+G+G+G+G+C+w+q+b+G+j.]+I.I.&+I.I.&+I.'+I.I.'+'+'+I.'+I.I.I.&+&+&+&+I.I.'+'+Q.G+3+[+]+Z.]+g+G+G+(+L.T L t t 2 2 t t L V L.(+G+G+G+G+G+&.8.Z L V T.G+G+7+Z.I.I.]+~+G+6+r+u+t+t+t+t+l+u+p+B+G+G+}+]+]+]+|+G+!+ +6+G+G+G+G+G+G+G+G+G+G+G+. 8 4 8 8 # . h I I I G+G+G+G+G+C+y+t+u+u+e+G+G+X.<+]+'+&+I.'+'+$+7+X.G+G+E+k+r+v+t+e+x+x+x+b+b+x+x+b+4+=+C+G+I I I I I I I ",
"G+G+G+G+G+G+G+G+G+G+z+l+j+..'+&+#+#+&+]+=.C+u+t+Y I I I G++ 8 4 = G+G+G+G+G+G+G++ v (+m+D+G+0+'+&+&+'+0+G+j+l+y+G+z+t+k+C+G+1+'+#+#+&+'+0+G+..q+t+z+G+C+t+u+F+G+8+'+&+&+'+8+G+G+B+s+e+w+w+w+w+w+x+G+G+G+{+'+&+'+{+G+G+ +L t T ~+G+G+)+'+&+'+{+G+G+/+8+8+8+8+8+8+%+c+(+G+G+3+'+&+&+'+9+G+(+l.%+E+G+G+7.0+}+]+]+~+G+G+G+(+c+m+k+j+j+u+q+0+8+F+G+G+~+]+&+#+&+]+_+G+l+v+w+l+l+G+=.^+&+&+'+5+E+C+u+t+C+G+G+G+G+G+G+G+G+G+G+y+l+k+G+G+<+'+&+#+&+'+'+'+'+'+'+'+'+'+'+'+'+'+'+'+&+#+#+#+&+'+[+9+G+G+{+]+&+&+&+&+9+G+G+3+8+8.Z T T T T Z l. +6+G+G+a+<+c+F+G+7.T.l.l.T.G+G+c+'+&+&+]+~+G+E+8+d+m+m+m+m+m+r+m+G+G+F+}+'+&+'+1+G+!+8.M Y G+G+G+G+G+G+G+G+= . 4 4 j # m = I G+I I G+G+G+G+G+G+y+t+u+t+G+G+E+7+^+'+&+&+&+'+]+^+_+G+G+G+G+q+p+r+u+v+v+v+v+v+v+v+v+v+v+l+t+x+C+I I I G+I I I ",
"G+G+G+G+G+G+G+G+G+G+z+l+j+..[+&+#+*+&+}+` F+u+t+Y I I G+= 4 8 m G+G+G+G+G+G+G+G+G+= &.d+D+F+0+'+#+#+&+1+G+g+l+y+G+C+x+v+g+G+b+'+&+#+#+&+]+!+G+o+u+w+C+C+t+u+F+G+8+'+#+#+'+~+G+G+G+G+G+G+G+G+G+G+G+G+G+G+)+&+#+&+{+G+G+%+L t T ~+G+G+)+&+#+&+{+G+G+G+G+G+G+G+G+G+G+G+G+G+G+e+&+#+&+}+9+G+(+l.8+G+G+G+0+]+'+&+&+}+c+G+G+G+G+(+c+8+8+c+~+E+G+G+G+2+'+&+#+#+&+5+G+C+q+s+x+l+l+G+h+^+&+#+&+5+E+C+u+t+C+G+G+G+G+G+G+G+G+G+C+w+u+s+G+a+^+&+#+&+^+c+d+d+d+d+f+f+2+2+2+2+2+2+2+2+#+&+#+#+&+)+=+G+G+G+g+}+&+#+#+&+[+g+G+G+G+3+~+%+ + + +8+6+G+G+G+/+^+]+]+7+a+G+G+j.-+T.G+G+c+'+#+#+'+~+G+G+G+G+G+G+G+G+G+G+G+G+G+F+1+&+#+'+0+G+!+T.N v G+G+G+G+G+I h ( 8 8 4 4 j + G+G+I I I I G+G+G+G+G+C+w+v+D+G+G+~+^+'+&+#+#+#+&+^+c+G+G+G+G+G+G+b+o+g+t+t+9+g+g+g+g+g+g+g+g+t+g+l+x+I I I I G+I I ",
"G+G+G+G+G+G+G+G+G+G+z+l+j+=.[+#+*+*+#+}+&.E+k+9+S I I I # 8 . G+G+G+G+G+G+G+G+G+G+C+3+f+7.F+0+&+#+*+&+{+G+g+l+y+G+G+z+s+q+B+G+{+&+#+*+*+&+}+C+G+m+l+y+z+t+q+F+G+8+}+#+#+&+8+G+F+F+F+G+G+G+G+G+G+G+G+G+=+{+#+#+&+{+G+G+%+T t T ~+G+G+)+&+#+#+{+7.G+G+G+G+G+G+G+G+G+G+G+G+G+9+[+#+#+[+9+G+i+d+k+v+G+G+/+}+&+#+#+&+}+<+h+G+G+G+G+G+G+G+G+G+G+G+0+'+&+#+#+&+}+i+G+l+v+x+4+g+l+G+h+^+&+#+&+|+E+C+u+t+C+G+G+G+G+G+G+G+G+G+z+t+k+C+G+}+&+#+#+}+L.G+G+G+G+G+G+G+G+G+G+G+G+G+G+G+2+&+#+*+&+2+G+G+G+G+G+2+}+#+*+#+&+[+2+=+G+G+G+G+G+G+G+G+G+G+G+8+5+&+#+&+}+^+h+G+G+L.8+G+G+c+}+#+#+&+%+e+3+e+b+b+3+e+b+b+b+G+y+9+/+|+#+#+&+0+G+!+T.N 5 h G+G+I m # 8 8 4 . = m 8 ( I I I H H H I I I G+G+C+s+j+C+G+c+^+&+#+*+*+*+#+S.X.G+G+G+G+G+G+G+G+G+G+G+G+G+G+G+G+G+G+G+G+G+G+C+k+w+Y I I G+I G+I ",
"G+G+G+G+G+G+G+G+G+G+z+l+j+a+[+{+)+)+{+}+X.E+u+9+S I I . 8 4 I G+G+G+G+G+G+G+G+G+G+C+w+k+B+E+0+[+*+*+#+1+G+g+l+y+G+G+G+y+l+j+G+b+}+#+*+)+*+[+0+G+A+k+s+y+t+q+F+G+8+}+*+)+{+[+5+|+|+|+1+1+1+1+0+0+0+0+0+{+#+*+*+#+{+G+G+%+T t T ~+G+G+)+[+*+*+#+{+1+1+1+1+1+1+1+0+)+)+)+)+)+{+{+*+{+[+9+G+t+u+l+u+t+G+G+~+}+#+*+*+{+[+5+7+6+..G+G+G+G+G+o+1+}+[+{+*+*+#+}+c+G+e+u+s+Y 4+g+l+G+h+5+#+*+#+|+E+z+u+s+C+G+G+G+G+G+G+G+G+G+x+v+g+G+6+}+{+*+{+^+a+G+D+e+w+A+A+A+A+w+w+w+w+x+G+G+D+1+#+*+#+{+G+G+G+G+G+G+)+[+{+*+*+{+[+{+2+A+=+G+G+G+G+E+h+8+|+[+#+*+*+{+}+^+..G+_+-+T.G+G+c+[+*+*+{+5+5+}+}+}+[+}+}+[+[+[+}+[+[+[+{+*+*+[+0+G+7.T.N } - , m 4 8 8 # m H I G+I 4 8 = I = h h h H H H I G+C+t+u+C+G+<+[+{+)+)+)+)+*+^+ +c+c+c+c+c+c+c+8+c+8+8+8+8+8+~+~+~+~+_+~+(+F+C+k+t+Y I I I I I I ",
"G+G+G+G+G+G+G+G+G+G+z+l+n+a+[+{+)+)+{+[+~+..u+t+S I + 4 8 + G+G+G+G+G+G+G+G+G+G+G+C+e+u+!+h+1+#+)+)+#+1+G+g+l+y+G+G+G+C+w+u+s+F+g+}+{+)+)+{+}+9+G+n+v+w+t+k+F+G+%+[+*+)+)+{+{+{+{+{+{+{+{+{+{+{+{+{+{+{+*+)+)+{+{+G+G+%+L t T ~+G+G+)+[+)+)+*+{+{+{+{+{+{+{+{+{+{+{+{+{+{+{+)+)+{+[+3+G+t+v+w+s+u+t+G+G+d+[+{+*+)+{+{+[+[+|+|+}+}+}+[+[+{+{+*+)+*+{+}+8+G+z+u+t+y+I 4+g+l+G+o+5+{+)+{+[+6+E+u+s+Y I G+I I I I G+I Y s+u+z+C+0+[+*+)+{+5+G+e+r+q+u+u+u+u+u+u+u+u+q+r+l+G+G+d+[+{+{+[+g+G+C+C+G+G+C+d+[+{+*+*+{+{+[+[+{+0+d+d+0+1+[+[+{+{+)+)+{+[+|+=.G+(+l.l.L.G+G+c+[+*+)+)+*+{+{+{+{+{+{+{+{+{+{+{+{+{+*+)+)+*+[+0+G+!+T.y 9 % 8 4 8 ( + I G+I H H I . 8 . I h + + h = = = H I C+t+u+C+G+<+[+*+)+)+)+)+)+{+{+[+[+[+[+[+[+[+[+[+[+[+[+[+[+[+[+[+[+[+}+5+a+G+k+t+=+I I I I I I ",
"G+G+G+G+G+G+G+G+G+G+z+t+n+(+[+{+)+)+*+[+0+..v+t+Y = # 8 . G+G+G+G+G+G+G+G+G+G+G+G+C+w+u+B+a+1+#+*+*+{+1+F+g+l+y+G+G+G+G+z+t+k+F+G+1+[+{+)+{+[+}+y+C+m+l+l+k+F+G+ +[+{+*+*+{+{+{+{+{+{+{+{+{+{+{+{+{+{+{+{+*+{+[+{+G+G+%+L t T ~+G+G+)+[+{+*+{+{+{+{+{+{+{+{+{+{+{+{+{+{+{+{+{+{+{+[+9+G+t+v+x+z+t+u+9+G+G+/+}+[+{+*+*+*+{+{+{+{+{+{+{+*+)+)+)+{+[+}+_+G+G+k+l+x+C+I 4+g+l+G+2+[+{+)+{+[+h+E+k+3+S H H H H H H H H 4+g+g+e+g+}+{+)+*+[+0+G+j+u+s+w+x+x+x+x+x+b+b+w+l+q+y+G+6+[+{+{+[+{+G+G+d+g+G+G+G+2+[+[+{+*+*+*+{+{+{+[+[+{+{+{+{+)+)+*+{+[+5+..G+6+8.T T 8.G+G+c+[+*+)+)+)+)+)+)+)+)+)+)+)+)+)+)+)+)+)+)+)+*+[+0+G+B+ +9.4 # 8 8 * I G+G+H H = H G+h 8 # = + * + h = H H H H Y t+u+C+G+<+[+{+)+)+)+)+)+*+{+{+{+{+{+{+{+{+{+{+{+{+{+{+{+{+{+{+{+{+[+5+a+G+k+t+=+I I I I I H ",
"G+G+G+G+G+G+G+G+I I =+t+o+_+1+{+)+)+*+[+|+h+v+t+Y I h . I G+G+G+G+G+G+G+G+G+G+G+G+C+w+u+h+(+|+#+{+{+[+1+F+g+l+y+G+G+G+G+C+x+v+l+F+C+5+[+{+{+[+}+f+G+i+q+k+k+F+B+|+}+[+[+[+[+[+[+[+[+[+[+[+[+[+[+[+[+[+[+[+[+[+}+[+G+G+ +L t T ~+G+G+0+}+[+[+[+[+[+[+[+[+[+[+[+[+[+[+[+[+[+[+[+[+[+}+i+G+t+v+y+I 4+9+u+g+G+G+g+1+[+{+{+)+)+)+)+)+)+)+)+)+)+*+{+[+1+h+G+C+k+v+w+C+G+G+4+l+l+G+2+}+{+{+[+}+E+E+k+3+S H H H H H H H S 3+k+B+g+0+}+{+{+[+}+3+z+k+3+Y I I I G+G+G+I I G+x+v+t+G+G+1+}+[+}+}+9+G+k+p+t+C+G+G+3+)+[+[+{+{+*+*+*+*+*+*+)+)+)+)+{+#+}+0+C+G+a+8.T t T 8.C+6+5+[+{+{+{+{+{+{+{+{+*+*+*+{+{+{+{+{+{+{+{+{+{+}+|+G+!+f+a+a % > < . G+G+H H = = H G+I ( # h = + + h = H H H I Y t+u+C+G+<+}+[+{+{+{+{+{+{+{+{+{+{+{+{+{+{+{+{+{+{+{+{+{+{+{+{+{+{+[+}+_+G+k+t+z+I I I I I I ",
"G+G+G+G+G+G+G+I I H =+t+o+~+[+{+*+*+{+[+|+a+v+t+Y I I I G+G+G+G+G+G+G+G+G+G+G+G+G+C+e+u+h+8+}+[+{+*+5+1+6+j+l+z+G+G+G+G+G+z+s+q+A+E+/+}+[+0+0+}+(+..G+m+r+m+F+o+1+1+d+8+d+d+f+f+f+f+f+f+f+f+f+2+2+2+2+2+2+2+2+2+9+G+G+ +L t T ~+G+G+i+f+2+2+f+f+f+f+2+2+f+2+2+2+2+2+2+2+2+2+2+2+2+2+D+G+t+v+4+G+I 7.s+u+j+4+G+G+9+1+[+{+{+*+*+*+*+{+{+{+{+[+}+d+G+G+e+u+v+w+C+G+G+G+y+l+l+F+2+}+}+[+5+5+E+D+u+s+C+I I I G+G+I I 4+l+k+C+B+1+}+}+}+}+1+G+9+j+b+H H H H I I G+G+G+G+z+t+u+G+G+6+0+0+0+0+3+G+y+r+r+q+w+G+G+G+o+0+[+[+[+{+{+{+{+{+{+{+{+#+[+|+3+G+G+_+8.L t t T 8.7.8+[+}+}+}+[+[+[+[+[+[+[+[+[+[+1+[+[+[+[+[+[+[+1+1+8+G+!+d+M 5 1 1 > + G+I H H H H I G+G+= = H I = + h H H H I I Y t+u+z+G+c+5+5+5+5+5+5+5+5+5+5+[+[+1+5+5+5+5+5+5+5+5+5+5+5+5+5+5+5+}+^+(+G+k+t+=+I G+G+G+I I ",
"G+G+G+G+G+G+G+I H = =+s+o+d+[+{+)+d+2+m+8+=.l+s+Y I I I G+G+G+G+G+G+G+G+G+G+G+G+G+G+w+v+h+~+r+q+m+m+d+8+6+f+t+C+G+G+G+G+G+G+y+l+k+F+E+3+i+2+2+m+6+=.G+..d+d+G+..a+h+` =.=.=.=.=.=.=.........E+E+E+F+F+F+F+F+F+F+G+G+G+%+L t T _+G+G+G+G+G+G+G+G+G+G+G+G+G+G+G+G+G+G+G+G+G+G+G+G+G+G+G+G+s+l+y+I I H =+w+l+u+t+G+G+z+)+[+[+[+[+[+[+[+[+[+1+)+e+G+C+l+u+l+x+C+G+G+G+G+z+l+l+E+h+g+)+d+2+E+E+D+u+w+C+G+G+G+G+G+G+C+w+v+e+F+E+g+9+g+9+b+C+G+k+9+=+I H H H H G+G+G+G+G+C+w+u+w+G+G+G+G+G+G+G+G+G+l+u+v+u+l+C+G+G+G+6+f+d+1+1+1+1+1+[+[+[+1+)+e+G+=.%+Z L t 2 2 L T.G+G+G+4+9+3+!+7.!+3+6+/+/+/+o+2+/+/+/+!+3+3+g+k+E+E+F+F+B+ +y 1 1 1 5 m G+G+G+I G+G+I I G+G+G+I H I = H I I I G+G+C+s+u+F+G+G+E+................=.a+a+a+(+(+_+(+(+(+X.X.&.X._+_+_+_+j.%+X.G+G+k+t+C+G+G+G+G+G+I ",
"G+G+G+G+G+G+G+I I I Y w+g+h+i+(+a+g+o+o+a+A+l+e+Y H I I I G+G+G+G+G+G+I G+G+G+G+G+G+x+l+!+h+6+6+h+=.6+i+.._+a+Y G+G+G+G+G+G+C+w+v+t+B+B+......B+B+B+B+z+n+q+B+B+A+A+B+B+B+B+h+h+h+h+h+h+..h+....B+....7.7.D+D+E+=+E+h+Y.t t L j.!+E+7.7.7.E+E+E+E+E+E+E+E+E+=+z+z+z+z+z+z+z+z+z+z+z+C+C+t+t+z+G+I I I C+b+t+v+u+t+z+G+G+9+m+2+2+9+3+3+y+G+G+E+t+u+v+s+y+C+G+G+G+G+G+z+s+l+E+..D+E+E+E+E+F+e+l+w+G+G+G+G+G+G+G+C+w+t+C+C+E+E+Y Y F+F+Y s+v+x+C+G+I I I G+G+G+G+G+G+G+z+t+n+=+C+C+C+C+C+C+C+C+x+t+w+s+v+u+t+y+G+G+G+G+F+..h+h+h+B+9+4+C+G+=.j.8.T t 2 2 2 2 L m...E+E+F+Y F+C+G+G+G+G+C+C+Y Y Y Y Y Y Y C+G+G+G+G+G+G+G+A+ +y | | 1 1 k G+G+G+G+G+G+G+G+G+G+G+G+I I G+G+G+G+G+G+G+C+w+l+E+G+G+G+G+G+G+G+G+G+G+G+G+G+G+G+G+G+G+G+G+G+G+G+G+G+G+G+G+G+G+G+G+G+G+v+s+Y H H I I I I ",
"G+G+G+G+G+G+G+I G+G+G+y+w+t+l+l+t+t+t+l+g+l+e+S I I I I G+G+G+G+I I H H I G+G+G+G+G+=+w+l+v+v+j+j+v+v+v+o+&.J ' = G+G+G+G+G+G+z+w+l+k+k+k+k+u+u+u+q+u+v+l+l+v+u+q+k+k+q+m+c+T.T.T.T.T.T.T.T.T.T.T.T.T.T.T.T. + + + +m.L t 2 t L 8.T.T.T.T.T. + +8+m+d+f+k+k+k+k+k+u+u+u+u+u+k+k+k+k+j+v+t+b+C+G+I I G+G+I =+e+t+v+k+g+s+b+D+G+G+G+C+B+e+t+l+u+v+t+x+z+G+G+G+G+G+G+G+Y x+t+v+u+k+j+v+u+u+v+l+s+z+G+G+G+I G+G+G+C+x+t+l+f+%+%+%+%+%+8+n+l+w+z+G+G+G+G+G+G+G+G+G+G+G+G+C+b+j.%+%+%+%+f+u+u+u+v+t+w+z+=+b+t+v+u+v+t+w+y+G+G+G+G+G+G+=+A+(+%+8.T L t 2 2 2 2 2 t L Y.T.T.T.T.T.T.%+%+%+ + + + + +T. +%+8+f+f+f+f+~+f+k+k+v+v+M b [ | | | - I G+G+G+G+G+G+G+G+I I I G+I G+G+G+G+G+G+G+G+y+t+j+v+u+u+u+u+k+k+k+k+k+k+k+k+k+j+g+g+g+j+v+l+l+l+l+g+g+j+g+g+g+g+j+l+t+l+x+= . m * h h H ",
"G+G+G+G+I I G+G+G+G+G+C+z+x+w+w+w+w+w+w+w+b+S S H I I I G+G+G+I H H H H H I G+G+G+I I =+x+w+s+s+s+s+s+w+x+7.' 8 4 + G+G+G+G+G+G+C+4+e+s+s+s+s+s+s+s+s+w+x+x+w+w+s+s+s+/+N L L N N L L L N L L L L L N L N L L N L L t t 2 2 2 t t L L L L L L L P.(+(+9+s+s+s+s+s+s+s+s+s+s+i+/+/+/+6+A+4+Y G+G+I I I G+H = Y =+b+3+o+f+n+j+j+k+k+k+k+v+l+t+3+b+=+I G+G+G+G+G+H I G+I S b+e+3+9+i+i+i+9+3+e+S S G+G+H H H I G+G+C+x+s+P.N N N N N j.s+x+z+G+G+G+G+G+G+G+G+G+G+G+G+I G+v y y N N P.t+t+t+t+s+e+=+Y G+G+z+x+s+t+v+u+u+u+q+q+q+u+u+u+v+o+j.y t / 2 2 2 2 2 2 2 t L L L L L L T T T T T N L L N F j.(+/+(+j.n.T T Y.(+l+t+e+W [ | [ [ | [ ' G+G+G+G+G+G+G+G+I H I G+G+I G+G+I I I G+G+Y b+s+9+l+l+l+l+g+g+g+g+g+g+g+l+l+l+l+l+l+l+l+l+l+l+l+l+l+l+l+l+l+l+l+l+t+w+z+= . . * + h H ",
"G+G+G+I I I I G+G+G+G+G+G+G+C+C+C+C+C+C+C+I I I I I I I I G+G+H = = = H H I G+G+G+I H = I Y Y Y C+C+C+C+G+G+I ( 8 8 m G+G+G+I I H = h = C+C+C+C+C+C+C+C+G+G+G+G+C+C+v 1 2 } } } 2 2 } } } 2 } } } } 2 } 2 2 } 2 } 2 } 2 < < < 2 2 2 2 2 2 2 1 , ..x a ( C+C+C+C+C+Y Y Y C+C+h x x m h S I I G+G+I I I G+I = = I G+C+S !+!+b+e+e+e+!+!+b+4+S Y H H I G+G+G+G+I I I I I H H S h h h 7.7.h = S H H I G+H H H G+G+G+G+C+. p p p p p p v C+G+G+G+G+G+G+G+G+G+. . = G+I I h 5 1 p o p x C+C+C+C+Y Y I I G+G+G+G+C+z+y+x+x+w+w+w+w+w+w+b+b+4+z+m ^ < / 2 2 2 2 2 2 2 2 2 2 2 2 2 2 t t t 2 b p 0 k v w a r 3 2 t t t t } r 7.h . - | [ [ [ 1 ^ I G+I I G+G+G+G+I = = I I I I I I H H H H H h h 7.7.S =+S m x ..7.S S S =+z+y+y+4+4+4+y+y+y+y+y+y+y+y+y+y+y+y+4+4+=+C+I H * . h = I I ",
"G+G+G+I H H I G+G+G+G+G+G+G+G+G+G+G+G+G+G+G+G+G+G+G+G+I G+G+I H = H H h H I G+G+G+G+h * = H = H I G+G+G+G+G+G+G+. 8 8 . G+G+I H h h + h I G+G+G+G+G+I I H I G+G+G+8 1 < < < < < < < < < < < < < < < < < < < < < < < < < < < < < < < < 2 < : . G+G+= 4 8 + G+G+G+G+I I I G+G+H * * h I I I I G+G+I I I I G+I H = I G+G+G+I I G+G+G+I I I I I I I I G+G+G+G+G+G+G+G+G+I I I I I H = = = = H H I I G+G+I I G+G+G+G+G+G+k | [ [ [ | - + G+G+G+G+G+G+G+G+G+I 4 8 4 ( m I k 1 | [ 1 d G+G+G+G+G+I I H H I G+G+G+G+G+G+G+G+G+G+G+G+G+G+G+G+G+G+G+G+( - 2 / 2 2 2 2 2 2 2 2 2 2 2 2 2 / 2 [ % 8 # # 8 ^ ; < / 2 2 2 2 2 / 2 d h I d | [ [ [ | - h G+I I G+G+G+G+G+H H I G+G+I H H I I I H h h h h h H G+H + * + = H H H I G+G+G+I I H I I I G+G+G+G+G+G+G+G+G+I I I G+I I = = H I I I ",
"G+G+G+I H = I G+G+G+G+G+G+G+G+G+G+G+G+I G+G+G+G+G+G+G+G+G+G+H H H H H H H I G+G+G+I = + h H = H I G+G+G+G+G+G+G+G++ 4 8 # I G+G+I I H I G+G+G+G+G+G+I I H I G+I d < < < < < < < < < < < < < < < < < < < < < < < < < < < < < < < < 2 2 > 4 H I I G+G+m 8 4 I G+G+G+G+I I G+G+I = = H I G+G+I G+G+G+I I I I G+I H H I I I I = H I G+G+G+G+G+G+G+G+G+G+G+G+G+G+G+G+G+G+G+I G+G+I I I I I I I I G+G+G+G+G+G+G+G+G+G+G+I : [ [ [ [ | d G+G+G+G+G+G+G+G+G+G+G+= . # 8 8 # d 5 [ 1 9 = G+G+G+G+G+G+I = H G+G+G+G+G+G+G+G+G+G+G+G+G+I G+G+G+G+G+G+G+G+I 8 1 / 2 2 2 2 2 2 2 2 2 / / < 5 d 4 # # , : [ < / 2 2 2 2 2 2 2 2 / 2 ^ h m 5 [ [ [ [ [ 4 G+I I G+G+G+G+G+I G+G+G+G+G+I I I G+I H H = = = = I G+I = h = H I I H I G+G+G+I H = = H I G+G+G+G+G+G+G+G+G+I I G+G+G+I H I I G+G+G+",
"G+G+I I I = I G+G+G+G+G+G+G+G+G+G+G+G+G+G+G+G+G+G+G+G+G+G+G+H H I I H H H I G+G+I I I = H I I I G+G+G+G+G+G+G+G+G+G+= # 8 # = G+G+I I G+G+G+G+G+G+G+G+G+I G+= ^ < < < < < < < < < < < < < < < < < < < < < < < < < < < < < < < < 2 1 d h I H = I G+G+G+# 8 m G+G+G+G+G+G+G+G+I I I I G+G+G+G+G+G+G+G+I I G+G+G+I H = H H H = = I G+G+G+G+G+G+G+G+G+G+G+G+G+G+G+G+G+G+G+I G+G+I G+G+I I I G+G+G+G+G+G+G+G+G+G+G+G+G+m 5 [ [ [ [ [ 4 I G+G+G+G+G+G+G+G+G+G+G+G+I m # 4 # j d : ' G+G+G+G+G+I I I I I I G+G+G+G+G+G+G+G+G+G+G+G+I G+G+G+G+G+G+G+G+G+G+m ^ < / 2 2 2 2 2 2 / 1 - d # # # % - | 1 1 1 2 2 2 2 2 2 2 2 2 2 2 2 - . ^ [ [ e [ [ d G+G+G+G+G+G+G+G+G+G+G+G+G+G+G+G+G+G+G+I I I I I I G+G+I I I I I I I I G+G+G+G+I I = = H I G+G+G+G+G+G+G+G+G+G+G+G+G+G+I I I G+G+G+G+",
"G+G+I I I I I G+G+G+G+G+G+G+G+G+G+G+G+G+I G+G+I G+G+G+G+G+G+I H H I H H H I G+G+I I I I G+G+I G+G+G+G+G+G+G+G+G+G+G+G+I ( 8 4 + G+I = H G+G+G+G+G+G+G+G+G+= : < < < < < < < < < < < < < < < < < < < < < < < < < < < < < < < < < $ . G+G+I I I I G+G+G+= j 4 = G+G+G+G+G+G+G+I I I G+G+G+G+G+G+G+G+G+G+G+G+G+G+G+G+I = = H G+G+G+G+G+G+G+G+G+G+G+G+G+G+G+G+G+G+G+G+G+G+I I G+G+I I I I G+G+G+G+G+G+G+G+G+G+G+G+G+G+8 [ e [ [ e 5 m H H I G+G+G+G+G+G+G+G+G+G+G+G+= % , 4 # 4 # + I G+G+G+G+I = I I G+G+G+G+G+G+G+G+G+G+G+G+G+I G+G+G+I G+G+G+G+G+G+I H 4 [ / / 2 2 2 ; ^ 8 # # 8 c [ 2 2 1 1 1 1 < 2 2 2 2 2 2 2 2 2 2 2 / > ^ [ [ 5 [ [ 9 = G+G+G+G+G+G+I I I I G+G+G+G+G+G+G+G+G+G+G+G+G+G+G+G+G+G+G+G+G+I I I G+G+G+G+G+G+I H H I I G+G+G+G+G+G+G+G+G+G+G+G+G+I I I G+G+G+G+",
"G+G+G+I I I G+G+G+G+G+G+G+G+G+G+G+G+G+I I G+G+I I G+G+G+G+G+I H H H H H I I G+G+I I I G+G+G+G+G+G+G+G+G+G+G+G+G+G+G+G+G+I . 8 8 m I = H G+G+G+G+G+G+G+G++ - < < 1 < < < < < < < < < < < < < < < < < < < < < < < < < < < < 2 [ k I G+G+G+G+I I I I G+G+G+. 8 ( G+G+G+G+G+G+G+G+I G+G+G+G+G+G+G+G+G+G+G+G+G+G+G+G+G+G+H h H G+G+G+G+G+G+G+G+G+G+G+G+G+G+G+G+G+G+G+G+G+I I I G+G+G+I I I I I G+G+G+G+G+G+G+G+G+G+G+I ^ [ 5 e e [ c I I I I G+G+G+G+G+G+G+G+G+G+G+G+. [ [ : d 4 8 8 # m I G+G+I I H G+G+G+G+G+G+G+G+G+G+G+G+G+G+I G+G+G+I G+G+G+G+G+G+I I I h d 1 / 1 % 8 # # , : 1 2 / 2 2 1 1 1 1 1 2 2 2 2 2 2 2 2 2 2 2 2 / 1 5 5 5 5 5 [ x G+G+G+G+G+G+H = H I I G+G+G+G+G+G+G+G+G+G+G+G+G+G+G+G+G+G+G+G+G+G+G+G+G+G+G+G+G+H H H H H G+G+G+G+G+G+G+G+G+G+G+G+G+I I G+G+G+G+G+",
"G+G+G+I H H I G+G+G+G+G+G+G+G+G+G+G+G+G+I G+G+G+G+G+G+G+G+G+G+I I H H H I G+G+G+I I I I G+G+G+G+G+G+G+G+G+G+G+G+G+G+G+G+G+I m j 8 . H I G+G+G+G+G+G+G+m 5 < < < < 1 < 1 < < < < < < < < < < < 1 < < < < < < < < < < < < < $ m G+G+G+G+I I I H H I G+G+G+I 4 8 + G+G+G+G+G+G+G+I I G+G+G+G+G+G+G+G+G+G+G+G+G+G+G+G+I I H h H G+G+G+G+G+G+I I I G+G+G+G+G+G+G+I I G+G+I = H G+G+I G+I H = H H I G+G+G+G+G+G+G+G+G+= 9 [ 5 5 5 [ a G+G+G+G+G+G+G+G+G+G+G+G+G+G+G+G+d [ 5 [ 9 + h # 8 4 = G+G+G+I = H G+G+G+G+G+G+G+G+G+G+G+G+G+G+G+G+G+G+G+G+G+G+G+G+G+I I I H ( [ > # # d - 1 / 2 2 2 2 2 < | 1 1 | < 2 2 2 2 2 2 2 2 2 2 2 2 < e 5 5 5 5 [ 8 G+G+G+G+G+I = = = I I I G+G+G+G+G+G+G+G+G+G+G+G+G+G+G+G+G+G+G+G+G+G+G+G+G+G+G+G+I I I I I G+G+G+G+G+G+G+G+G+G+G+G+G+G+I G+G+G+G+G+",
"G+G+G+G+I H I G+G+G+G+G+G+G+G+G+G+G+G+G+G+G+G+G+G+G+G+G+G+G+G+G+I I H H I G+G+G+I I I I G+G+G+G+G+G+G+G+G+G+G+G+G+G+G+G+G+G+I * 4 8 # h I G+G+G+G+G+. > < 1 1 1 < < 1 1 < < < < 1 1 1 < < < < < < < < 1 1 < 1 < < < < 1 , I G+G+G+G+G+I I G+I I I G+G+G+G++ 8 # I G+G+G+G+G+G+I I G+G+G+G+G+G+G+G+G+G+G+G+G+G+G+G+I H H h h H G+G+G+G+I h H H I G+G+G+G+G+G+I I G+G+I + h G+G+G+G+G+H H H H I G+G+G+G+G+G+G+G+G+m 5 5 5 5 5 e . G+G+G+G+G+G+G+G+G+G+G+G+G+G+G+= : 5 5 [ d G+G+G+h + G+G+G+G+G+I H I G+G+G+G+G+G+G+G+G+G+G+G+G+G+G+G+G+G+G+G+G+G+G+G+I I H I G+= % ^ [ < / 2 2 2 2 2 2 2 2 1 | | | 1 2 2 2 2 2 2 2 2 2 2 2 2 < [ 5 5 5 5 e % G+G+G+G+G+I h + = G+I H H I G+G+G+G+I I I G+G+G+G+G+G+G+G+G+G+G+G+G+G+G+G+G+G+G+G+G+G+G+G+G+G+G+G+G+G+G+G+G+G+G+G+G+G+I I G+G+G+G+",
"G+G+G+G+G+I H I G+G+G+G+G+G+G+G+G+G+G+G+G+G+G+G+G+G+G+G+G+G+G+G+I I I I I G+G+G+I I I I G+G+G+G+G+G+G+G+G+G+G+G+G+G+G+G+G+G+I H * # 8 4 * I I G+I ( [ < 1 1 1 1 < 1 1 1 1 < 1 1 1 < < 1 1 < 1 < < < 1 1 1 < 1 1 < < - . G+G+G+G+G+G+G+G+G+G+G+G+G+G+G+G+G+G+# 8 . G+G+G+G+G+G+I I G+G+G+G+G+G+G+G+G+G+G+G+G+G+G+G+H H H H H h h H G+G+G+H H I G+G+G+G+G+G+G+I I I I I h h G+G+G+G+G+G+I G+G+G+G+G+G+G+G+G+G+G+G+8 [ 5 5 5 5 9 = G+G+G+G+G+G+G+G+G+G+G+G+G+G+G+. _ 5 5 5 . G+G+G+G+G+G+G+G+G+G+I I I I G+G+G+G+G+G+G+G+G+G+G+G+G+G+G+G+G+G+G+G+G+G+G+G+G+G+I G+G+G+' 1 / 2 2 2 2 2 2 2 2 2 1 [ [ [ | 2 2 2 2 2 2 2 2 2 2 2 2 2 | 5 5 5 5 5 : = G+G+G+I I = h = I I h h I G+G+G+G+I I I G+G+G+G+G+G+G+G+G+G+G+G+G+G+G+G+G+G+G+G+G+G+G+G+G+G+G+G+G+G+G+G+G+G+G+G+G+G+I H I G+G+G+",
"G+G+G+G+G+G+I H I G+G+I G+G+G+G+G+G+G+I G+G+G+G+G+G+G+G+G+G+G+G+G+G+G+G+G+G+G+G+I I I I G+G+G+G+G+G+G+G+G+G+G+G+G+G+G+G+G+G+I H H h # 8 4 m I I 4 [ < 1 1 1 1 1 1 1 1 1 1 1 1 1 1 1 1 1 1 1 1 < 1 < 1 1 < 1 1 < 1 ^ = G+G+I I G+G+G+G+G+I G+G+G+G+G+G+G+G+G+h 8 4 = G+G+G+G+I H I I G+G+G+G+G+G+G+G+G+G+G+G+G+G+G+H h h H H H = H G+G+G+G+G+G+G+G+G+G+G+G+G+G+G+G+G+I H H G+G+G+G+G+G+G+I G+G+G+G+G+G+G+G+G+G+G+d e 5 5 5 e ^ I G+G+G+G+G+G+G+G+G+G+G+G+G+G+G+a 5 5 5 : = G+G+G+G+G+G+G+G+G+G+G+I I H H I G+G+G+G+G+G+G+G+G+G+G+G+G+G+G+G+G+G+G+G+G+G+G+G+G+G+G+G+G+m : 2 / 2 2 2 2 2 2 2 1 [ [ [ [ < 2 2 2 2 2 2 2 2 2 2 2 2 1 5 5 5 5 5 9 m G+G+I I H H H I I H = h I G+G+G+G+G+G+G+G+G+G+G+G+G+G+G+G+G+G+I I I I G+G+G+G+G+G+G+G+G+G+G+G+G+G+G+G+G+G+G+G+G+G+G+I H I I G+G+",
"G+G+G+G+G+G+I H = = I I I I I I I I I I G+G+G+G+I I I G+G+G+G+G+G+G+G+G+G+G+G+G+G+I I I I G+I G+G+G+G+G+G+G+G+G+G+G+G+G+G+G+I H H = + # 8 8 . 4 1 < 1 1 1 1 1 1 1 1 1 1 1 1 1 1 1 1 1 < 1 1 1 1 1 1 1 1 < 1 < [ 4 I G+I I I I I G+G+G+G+G+G+G+G+G+G+G+G+G+G+G+m m G+G+G+G+G+I H H I G+G+G+G+G+G+I I I G+G+G+G+G+G+I H h h I G+G+G+G+G+G+G+G+G+G+G+G+G+G+G+G+G+G+G+G+G+I I G+G+G+G+G+G+I G+I G+G+G+G+G+G+G+G+G+I ^ 5 5 5 5 e d G+G+G+G+G+G+G+G+G+G+G+G+G+G+G+I % 5 - 5 d G+G+G+G+G+G+G+G+G+G+G+G+G+I = h = I I I I I I I I I G+G+G+G+G+I I I G+G+G+G+G+G+G+G+G+G+G+G+G+I , 1 2 2 2 2 2 2 2 < [ [ [ [ 1 2 2 2 2 2 2 2 2 2 2 2 2 1 5 5 5 5 5 5 ( G+I I I I I I I I I = h I G+G+G+G+G+G+I I G+G+G+G+I G+G+G+G+I I H I I G+G+G+G+G+G+G+G+G+G+G+G+G+G+G+G+G+G+G+G+G+G+G+I I G+G+G+G+",
"G+G+G+G+G+G+G+I H = = H I H = H I I I G+G+G+G+G+I I I I G+G+G+G+G+G+G+G+G+G+G+G+G+I I = H I I I G+G+G+G+G+G+G+G+G+G+G+G+G+G+I H H I I = m # # , [ < 1 1 1 1 1 1 1 1 1 1 1 1 1 1 1 1 1 1 1 1 1 1 1 1 1 1 < < - . G+G+I I H H I I G+G+G+G+G+G+G+G+G+G+G+G+G+G+G+G+G+G+G+G+G+G+I I I G+G+G+I I I I H = h H I I I I I I H h h I G+G+G+H H I G+G+G+I G+G+G+G+G+G+G+G+G+G+G+G+G+G+G+G+G+G+G+I I G+G+G+G+G+G+G+G+G+G+= 9 5 - - 5 5 8 G+G+G+G+G+G+G+G+G+G+G+G+G+G+G+= : 5 - - ( G+G+G+G+G+G+G+G+G+G+G+G+G+G+I = = = I I H H I I I G+G+G+G+G+I I I I G+G+G+G+G+G+G+G+G+G+G+G+I G+G+' [ / 2 2 2 2 2 2 [ 5 [ [ 1 2 2 2 2 2 2 2 2 2 2 2 2 < 5 - - 5 - 5 8 G+I I I I I G+G+I I H = I G+G+G+G+G+I h h I G+G+G+I I G+G+G+I I H I I G+G+G+I I G+G+G+G+G+G+G+G+G+G+G+G+G+G+G+G+G+G+G+G+G+G+G+H ",
"G+G+G+G+G+G+G+G+I H H H I I = I I I G+G+G+G+G+G+I I I I G+G+G+G+G+G+G+G+G+G+G+G+I I I H I I I I G+G+G+G+G+G+G+G+G+G+G+G+G+I H H I G+G+G+G+4 8 # 8 5 < 1 1 1 1 1 1 1 1 1 1 1 1 1 1 1 1 1 1 1 1 1 1 1 1 < < ^ h G+G+G+G+I I I I G+G+G+G+G+I G+G+G+G+G+G+G+G+G+G+G+G+G+G+G+G+G+G+G+G+G+G+I H H = h h h h + = = = = H H I I H H I G+G+I h h H G+I H G+G+G+G+G+G+G+G+G+G+G+G+G+G+G+G+G+G+G+G+G+G+G+G+G+G+G+G+G+G+G++ - - - - 9 - x G+G+G+G+G+G+G+G+G+G+G+G+G+G+G+m 9 9 9 9 m G+G+G+G+G+G+G+G+G+G+G+G+G+G+I H H H = H I H H I G+G+G+G+G+G+G+I H I G+G+G+G+G+G+G+G+G+G+G+G+I H I G++ - / 2 < 2 2 2 1 5 e > [ < 2 2 2 2 2 < 2 2 2 2 2 2 5 - - - - 5 d I G+G+G+G+I I I I I I H I G+G+I I I I = = I G+G+G+G+I I G+G+G+I I I G+G+G+G+G+G+G+G+G+G+G+G+G+G+G+G+G+G+G+G+G+G+G+G+G+G+G+G+G+I ",
"G+G+G+G+G+G+G+G+G+I I H H I I I G+G+G+G+G+G+G+G+I I H I G+G+G+I I G+G+G+G+G+G+I I H I G+G+G+I I I I G+G+I I H I I I I I I I H H I I G+G+. [ [ , # 8 : 1 < 1 1 1 1 1 1 1 1 1 1 1 1 1 1 1 1 1 1 1 1 1 < 1 k G+G+G+G+G+G+G+G+G+G+G+G+G+G+G+G+G+G+G+G+G+G+G+G+G+G+G+G+G+G+G+G+G+G+G+G+G+G+G+I H H H H h * h H H H H H I G+G+I I G+G+G+I H h H I H H G+G+G+G+G+G+G+G+G+G+G+G+G+G+G+G+G+G+G+G+G+G+G+G+G+G+G+G+G+G+G+. - - - - 5 9 m G+G+G+G+G+G+G+G+G+G+G+G+G+G+G+( 5 9 9 : I G+G+G+G+G+G+G+G+G+G+G+G+G+G+G+I I I H = I G+I G+G+G+G+G+G+G+G+I H I G+G+G+I H I G+G+G+G+G+I I I I G+G+I % < 2 < 2 2 1 5 5 5 [ < 2 2 2 2 2 2 2 2 2 2 2 2 [ 9 - - 9 9 5 4 G+G+G+G+I I I H H I I I I I I I I I I I I I G+G+G+G+G+G+G+G+G+G+G+G+G+G+G+G+G+G+G+G+G+G+G+G+G+G+G+G+G+G+G+G+G+G+G+I G+G+G+G+G+",
"G+G+G+G+G+G+G+G+G+G+G+G+I I G+G+G+G+G+G+G+G+G+G+I H H I G+G+I h h H I G+G+I I I I H I G+G+G+G+I H H I H H H H H H H H H H H H H H H I m > < < ; d # # ^ 1 < 1 1 1 1 1 1 1 1 1 1 1 1 1 1 1 1 1 1 1 < [ 4 I G+G+G+G+G+G+G+G+G+G+G+G+G+G+G+G+G+G+G+G+G+G+G+G+G+G+G+G+G+G+G+G+G+G+I G+G+G+G+G+I I I I h + H I I G+I I I I G+G+G+G+G+G+I I I G+I h H G+G+G+G+G+G+G+G+G+G+G+G+G+G+I I I I I I I I G+G+G+G+G+G+G+G+G+' _ - - 9 5 : + G+G+G+G+G+G+G+G+G+G+G+G+G+G+G+j 9 9 9 d G+G+G+G+G+G+G+G+G+G+G+G+G+G+G+G+G+G+G+G+I I G+G+G+G+G+G+G+G+G+I H H I I G+I H + h I I I I I I I H I I G+G+G+a 1 2 2 < < 5 5 5 5 1 < < < 2 < < < 2 < 2 2 2 [ 9 9 9 9 9 5 [ ( G+G+I I I H H H I I G+I I I H H I I I I I I G+G+G+G+I I G+G+G+G+G+G+G+G+G+G+G+G+G+G+G+G+G+G+G+G+G+G+G+G+G+G+G+G+G+G+G+G+G+I ",
"G+G+G+G+G+G+G+G+G+G+G+G+G+I G+G+G+G+G+G+G+G+G+G+G+I I I I I I h + h I I I I H H H H I I G+G+G+G+I I I I H H H H I G+G+G+G+G+G+G+I G+m 5 < 1 1 < 1 ^ 4 # d | < 1 1 1 1 1 1 1 1 1 1 1 1 1 1 1 1 1 < - m I G+I G+G+G+I G+G+G+G+G+G+G+G+G+G+G+G+G+G+G+G+G+G+G+G+G+G+G+G+G+G+G+G+G+G+G+G+G+G+I I H H H h + I G+I I I I I I G+G+G+G+G+G+G+G+G+G+I h h I G+G+G+G+G+G+G+G+G+G+G+G+I H H H H H H H I G+G+G+G+G+G+G+G+G+4 9 9 9 9 5 f = G+G+G+G+G+G+G+G+G+G+G+G+G+G+G+k 9 : 9 k G+G+G+G+G+G+G+G+G+G+G+G+G+G+G+G+G+G+G+G+G+G+G+G+G+G+G+G+G+G+G+G+I I I I I I I = = I I I I I H H I I I G+G+G+G+( [ 2 < < 5 5 5 5 1 < 2 < < 2 < < < < < 2 2 [ 9 9 9 9 9 - 2 1 . G+I I I H H H I I G+I H H H H H H H H I G+G+G+G+G+G+I I G+G+G+G+G+G+G+G+G+I G+G+G+G+G+G+G+G+G+G+G+G+G+G+G+G+G+G+G+G+G+G+I ",
"G+G+G+G+G+G+G+G+G+G+G+G+G+G+G+G+G+G+G+G+G+G+G+G+G+G+G+I I G+G+I H I I I I I I I I I I I G+G+G+G+G+G+G+G+G+I H I G+G+G+G+G+G+G+G+G+= - < 1 1 1 1 < 1 : j # 8 [ < 1 1 1 1 1 1 1 1 1 1 1 1 1 1 < < : * G+G+G+G+G+G+G+G+I G+G+G+G+G+G+G+G+G+I I G+G+G+G+G+G+G+G+G+G+G+G+G+G+G+G+G+G+G+G+G+G+I I H H H h h I G+H h = H H H I G+G+G+G+G+G+G+G+G+I H h I G+G+G+G+G+G+G+G+I G+G+I I H H H H H H H I G+G+G+G+G+G+G+G+G+a - 9 9 9 - ^ I G+G+G+G+G+G+G+G+G+G+G+G+G+G+G+d : : 9 4 G+G+G+G+G+G+G+G+G+G+G+G+G+G+G+G+G+G+G+G+G+G+G+G+G+G+G+G+G+G+G+G+G+G+I I I G+G+G+I I I I I I I I I I G+G+G+G+G+G+m 5 2 < 5 5 5 5 1 < < < < < 2 < < < < < < [ 9 9 9 9 9 9 1 / ) m G+I I H H H H I I H h h h h h h = I G+G+G+G+G+G+G+G+I I G+G+G+G+G+G+G+G+I G+G+G+G+G+G+G+G+G+G+G+G+G+G+G+G+G+G+G+G+G+G+I ",
"G+G+G+G+G+G+G+G+G+G+G+G+G+G+G+G+G+G+G+G+G+G+G+G+G+G+G+G+G+G+G+G+G+G+G+G+G+G+G+I I I G+G+G+G+G+G+G+I I I I H H G+G+G+G+G+G+G+G+G+= : < 1 1 1 1 1 1 < < 5 8 # 8 - 1 1 1 1 1 1 1 1 1 1 1 1 1 < 1 ^ * H I G+G+G+G+G+G+G+G+I G+G+G+G+G+G+G+I I I G+G+G+G+G+G+G+G+G+G+G+G+G+G+G+G+G+G+G+G+G+G+I H H H = + h I G+h + h = H = h H G+G+G+G+G+I H I I H h I G+G+G+G+I I I I I G+G+G+G+I I I I I I G+G+G+G+G+G+G+G+G+G+G+7 9 9 9 9 9 ^ G+G+G+G+G+G+G+G+G+G+G+G+G+G+G+I d f f 9 4 G+G+G+G+G+G+G+G+G+G+G+G+G+G+G+G+G+G+G+G+G+G+G+G+G+G+G+G+G+G+G+G+G+G+G+G+G+G+G+G+G+G+G+G+G+G+I I I G+G+G+G+G+G+G+G+m 9 < [ - - - 1 < < < < < < < < < < 2 < | : : : : 9 9 1 < 2 > + G+I H H = H I H = h h h h h h = H G+G+G+G+G+G+G+G+G+I G+G+G+G+G+G+I I I G+G+G+G+G+G+G+G+G+G+G+G+G+G+G+G+G+G+G+G+G+G+I ",
"G+G+G+G+G+G+G+G+G+G+G+G+G+G+G+G+G+G+G+G+G+G+G+G+G+G+G+G+G+G+G+G+G+G+G+G+G+G+G+G+G+G+G+G+G+G+G+G+G+H h H H H H G+G+I H I I I G+= ^ < 1 1 1 1 1 1 1 1 1 < [ d # 4 : 1 < 1 1 1 1 1 1 1 1 1 < 1 % * = h I G+G+G+G+G+G+G+G+G+G+G+G+G+G+G+G+I I I G+G+G+G+G+G+G+G+G+G+G+G+G+G+G+G+G+I G+G+G+I H H H H = + + I I h * + = = h h h I G+G+G+G+I H = h h = I G+G+G+G+I I I I I G+G+G+G+G+G+G+G+G+G+G+G+G+G+G+G+G+G+G+G+G+d 9 : : 9 9 ^ G+G+G+G+I G+G+G+G+G+G+G+G+G+G+I ^ f f 9 ( G+G+G+G+G+G+G+G+G+G+G+G+G+G+G+G+G+G+G+G+G+G+G+G+G+G+G+G+G+G+G+G+G+G+G+G+G+G+G+G+G+G+G+G+G+G+G+G+G+G+G+G+G+G+G+G+I = * ^ 5 - - 9 | 2 < < < < < < < < < < < | : : : : : : 1 2 < / - m I = h H I I I H = h h = = H H I I G+G+G+G+G+G+G+G+G+I I G+G+G+G+I I I G+G+G+G+G+G+G+G+G+G+G+G+G+G+G+G+G+G+G+G+G+G+H ",
"G+G+G+G+G+G+G+G+G+G+G+G+G+G+G+G+G+G+G+G+G+G+G+G+G+G+G+G+G+G+G+G+G+G+G+G+G+G+G+G+G+G+G+G+G+G+G+I I I = = H H H G+G+I H H I G+H % 1 1 1 1 1 1 1 1 1 1 1 1 < 1 % # # % 1 1 1 1 1 1 1 1 1 < 1 k = I I I I I G+G+G+G+G+G+G+G+G+I I G+G+G+G+I I I G+G+G+G+G+G+G+G+G+G+G+G+G+G+G+G+G+G+G+G+G+I H H H H = h h I I = h = H H h h h I G+G+G+G+G+I H h h H I G+G+G+G+I H I I I I I I I I I I I G+I I I G+G+G+G+G+G+G+G+G+d 9 : : : 9 d G+G+G+I H H I I I I G+G+G+G+G+I ^ f f : x G+G+G+G+G+G+G+G+G+G+G+G+G+G+G+G+G+G+G+G+G+G+G+G+G+G+G+G+G+G+G+G+G+G+G+G+G+G+G+G+G+G+G+G+G+G+G+G+G+G+G+G+G+G+G+H H H H h ^ n 9 9 | 2 < < < < < < < < < < 2 1 : : : : : : 1 2 < < 2 : * = + = H I I I I I I I I I I I I G+G+G+G+G+G+G+I G+G+I G+G+G+G+I I I G+I G+G+G+G+G+G+G+G+G+G+G+G+G+G+G+G+G+G+G+G+I ",
"G+G+G+G+G+G+G+G+G+G+G+G+G+G+G+G+G+G+G+G+G+G+G+G+G+G+G+G+G+G+G+G+G+G+G+G+G+G+G+G+G+G+G+G+G+G+G+I H I H H H H H G+G+I H H I I k 1 1 1 1 1 1 1 1 1 1 1 1 1 1 1 1 : # # d [ 1 1 1 1 1 1 1 | j I I I I I I G+G+G+G+G+G+G+G+G+G+G+I G+G+G+G+I I I I I G+G+I G+G+G+G+G+G+G+G+G+G+G+G+G+G+G+G+G+I H H H H = H G+G+I I I I I = h = I G+G+G+G+G+G+I H h h I G+G+G+G+I H H H H H H I I I H H H H H H I G+G+G+G+G+G+G+G+G+d 9 : : : 9 d G+G+I H H H H H H H I G+I G+G+I ^ f ^ : x G+G+G+G+G+G+G+G+G+G+G+G+G+G+G+I G+G+G+I I I G+G+G+I I I G+G+I I I G+G+G+G+G+I I I I I H H I G+G+G+G+G+G+G+G+I H H H H H d 9 9 9 [ 2 < < < < < < < < < < 2 | f f : : f f 1 2 < < < < % + h + = I I H H H H H I I I I I G+G+G+G+G+G+G+G+G+G+G+G+G+G+G+I I I I I I I H I I G+G+G+G+G+G+G+G+G+I G+G+G+G+G+I ",
"G+G+G+G+G+G+G+G+I H H = = H H I I H H I I G+G+I I I G+G+G+G+G+I I I H H H H I G+G+G+G+G+G+G+G+H H H H H H H H G+G+I I I G+4 1 1 1 1 1 1 1 1 1 1 1 1 1 1 1 1 1 1 - 8 # 8 5 1 1 1 1 < [ 4 I I H H H H I G+G+G+G+G+G+I G+G+G+G+G+G+G+G+G+I H = H H I I H I G+G+G+G+G+G+G+G+G+G+I G+G+G+G+G+I H H H H I I G+G+G+G+G+G+G+I h h I G+G+G+G+I H H H h h I G+G+G+G+I I I I H I I I I I I I I I I I I G+G+G+G+G+G+G+I G+d 9 : f : 9 d G+G+G+H H H H H H H I I I G+G+I d ^ ^ f x G+G+G+G+G+G+G+G+G+I G+G+G+I I H H H = h h = H H H H H H I I I H H H I I I I I H H H H H H H I G+G+G+G+G+G+G+I H H H H H d 9 9 9 [ 2 < < < < < < < < < < 2 | f f f f f f 1 2 < < < < < d h h h = = H H H = = = = H H I G+G+G+G+G+G+G+G+G+G+G+G+G+G+G+I I H H H H H H H I G+I I G+G+G+G+G+G+I G+G+G+G+I I ",
"G+G+G+G+G+G+I H h + * * * + h h h h h H H H I I H H H I I I I I H H H H H H H I G+G+G+G+G+G+G+I = H H H H H I G+G+G+G+G+. | < 1 1 1 1 1 1 1 1 1 1 1 1 1 1 1 1 1 < > , # j 9 1 1 < [ ( I H H = = = = H G+I I I I I I H G+G+G+G+G+G+G+G+I H h = H I I H H I G+I G+G+G+G+G+G+G+G+G+G+G+I H I I h h h H I I I I I G+G+G+I H H G+G+G+G+I I = H H h h H G+G+G+G+I I I I I I I I I I I I I I I I I G+G+G+G+G+G+G+I H d : f f f : d G+G+G+H H H H H H H I I I G+G+I d ^ ^ f ( G+G+G+G+G+G+G+G+G+I G+G+G+I I H + * * * * * h h h h H H H H G+I H H I I I I I H H H H H H H I G+G+G+G+G+G+G+I H H H H H d 9 : : | 2 < < < < < < < < < < 2 | f f f f f f 1 2 < < < < 2 < 8 H = = = = H H H = = = = H I I I I G+G+I H H I G+G+G+G+I I G+I H H H I H H H I I I I G+G+G+G+G+G+G+G+G+G+I H h ",
"G+G+G+G+G+G+I h * * * * * * * + h h h = = H I G+I H I H H H H H H H H H H H H H I I I I G+G+G+I = = = H H I G+G+G+G+G++ 5 1 1 1 1 1 1 1 1 1 1 1 1 1 1 1 1 1 1 1 1 < [ d # 4 ^ 1 [ # I H I I H H H = H I H H I I G+H h h G+G+G+G+G+G+G+G+I = = H I I H H I I I G+G+G+G+G+G+G+G+G+G+G+I H H H = + + h h = = H H I I I I G+G+G+G+G+G+G+I = = H h h = G+G+G+G+I H H H H H H H H I I I I I I I I I H I G+G+G+G+I = 7 : f f f : d G+G+I H H H H H H H H H I G+G+G+7 ^ ^ ^ ( G+G+G+G+G+G+G+G+G+G+G+G+G+G+H h * * * * * * + h H H H H H H I G+G+G+G+I I I I I I H H H H H I I I I I G+G+I H h h h H H d : : f d 1 2 < < < < < < < < < < [ f f f f f f 1 2 < < < < < 2 1 # H = = H H I I H H H H = H = = H I G+I h h H G+G+G+G+G+I I G+H H I I H H H I I I I G+G+G+G+G+G+G+G+G+G+G+H H ",
"G+G+G+G+G+G+H h * * + h h h h h H H H H = H H I G+G+G+G+G+I I I I I H H H H I I H I I I G+G+I H h h + h H I I I I G+= : 1 1 1 1 1 1 1 1 1 1 1 1 1 1 1 1 1 1 1 1 1 1 1 1 c # # d # I = H H H H H H = h = h = I G+G+I h h I G+G+G+G+G+I I I H H H I I H H I I I G+G+G+G+G+G+G+G+G+G+G+I H H H H = + h h = H H H H I H I G+G+G+G+G+G+I H h h h + h H G+G+G+G+H h + + h h h h h h H H H H H H H H H I G+G+G+G+I H 8 : f f f : d I G+I H H H H = = H H H I G+G+G+8 c c ^ 4 G+G+G+G+G+G+G+G+G+G+G+G+G+G+H h h h H H h h H I I G+I I I H I G+G+G+G+G+G+G+G+G+G+G+G+I I I I H I I I G+G+G+H h + + h h c : : f m 4 1 2 < < < < < < < < < [ ^ f f f f f 1 2 < < < < < < 2 [ . = h = H I I H H = = + + + = I G+G+G+H h H G+G+G+G+G+G+I I H H H H H H H H I I I G+G+G+I I G+G+G+G+G+G+I H ",
"G+G+G+G+G+I H h h H I I I H I I I G+G+I I I H I G+G+G+G+G+G+G+G+G+G+G+G+I I I I I G+G+G+G+G+G+H H h * * * h H I H h % 1 1 1 1 1 1 1 1 1 1 1 1 1 1 1 1 1 1 1 1 1 1 1 1 1 1 : 8 # ( h = = = = = h h + + + h I G+G+G+G+H H I G+G+G+G+G+G+I H h H H H H H H I I I G+G+G+G+H I G+G+G+G+G+G+H H H H H I H H H H H I I G+G+G+G+G+G+G+G+G+H h h h + + h I G+G+G+G+H h + + + * * * * h h H H H H H H H I G+G+G+G+G+G+G+j : f f f : % I G+I H H H H H H H H I G+G+G+G+4 ^ d c 8 G+G+G+G+G+G+G+G+G+I G+G+G+I = + H I G+G+I I I G+G+G+I I I I I G+G+G+G+G+G+G+G+G+G+G+G+G+I I I I G+G+G+G+G+G+I H h * * . ^ f f ^ m I j 1 < < < < < < < < < e ^ f f ^ ^ : 1 < < < < < < < < 2 : * h h h h h h h * m . * = G+G+G+G+G+G+H H G+G+G+G+G+G+I H H H H I H H H H I I I G+G+G+I H G+G+G+G+G+G+I I ",
"G+I I G+I I H h H G+G+G+G+I I G+G+G+G+I I I H I G+G+G+G+G+G+G+G+G+G+G+G+I I I I G+G+G+G+G+G+G+I I H h * * + H I H 8 1 1 1 1 1 1 1 1 1 1 1 1 1 1 1 1 1 1 1 1 1 1 1 1 1 1 1 [ # # 8 # * + * * * m . . . + I G+G+G+G+G+G+H I G+G+G+G+G+G+I H = H I I I H H I I I G+G+G+G+H I G+G+G+G+G+I I I G+G+I G+G+I I I G+G+G+G+G+G+G+G+G+G+G+G+I H H = h + h I G+G+G+G+H H = h h + + + h h H H I I I I H I G+G+G+G+G+G+G+G+( f ^ ^ ^ f ^ = G+G+I I I I I I I G+G+G+G+G+G+m c d d d I G+G+G+G+G+G+G+H H G+G+I H = h I G+G+G+G+I G+G+I I I I I I I G+G+G+G+G+G+G+G+G+G+G+G+I I H I G+G+G+G+G+G+G+G+I H = + ( f f : c h I I 4 1 2 < < < < < < < 5 ^ ^ ^ ^ ^ : 1 < < < < < < < < < < c + * * * * * . . . . + G+G+G+G+G+G+G+G+G+G+G+G+G+G+G+I H I H I I I H H I G+I G+G+G+G+I I G+G+G+G+G+I G+G+",
"I H I G+I H I H I G+G+G+G+I I G+G+I I G+I H H I G+G+G+G+G+G+G+G+G+G+G+G+I I I G+G+G+G+G+G+G+G+I I I I H H I I I 4 | 1 1 1 1 1 1 1 1 1 1 1 1 1 1 1 1 1 1 1 1 1 1 1 1 1 1 [ # H h # 8 4 ( * * . . . . . = G+G+G+G+G+G+G+G+G+G+G+G+G+G+G+I H H H I I I I I I G+G+G+G+G+G+I G+G+G+G+G+G+I I G+G+G+G+G+G+G+I G+G+G+G+G+G+G+G+G+G+G+G+G+G+G+I H = + h I G+G+G+G+G+G+G+I I I I H H I G+G+G+G+G+G+G+G+G+G+G+G+G+G+G+G+. ^ ^ ^ ^ f c + G+G+G+I I I I I I G+G+G+G+G+G+h d d d d = G+G+I I G+G+G+H H I I I H H I G+G+G+G+G+I G+G+I H I G+I H I G+G+G+G+G+G+G+G+G+G+G+G+I I I G+G+G+G+G+G+G+G+G+G+G+G+I ( f f : d I G+G+G+4 1 < < < < < < < 9 ^ ^ ^ ^ c : 1 < < < < < < < < < < < , + + + + m . . . * I G+G+G+G+G+G+G+G+G+G+G+G+G+G+G+G+I I I G+G+I I I I G+G+G+G+G+G+G+G+G+G+G+G+G+I I G+",
"I H H I I I I I G+G+G+G+G+G+G+G+G+I I G+G+I I G+G+G+G+G+G+G+G+G+G+G+G+I I I G+G+G+G+G+G+G+G+G+G+G+G+G+G+G+G+G++ - 1 1 1 1 1 1 1 1 1 1 1 1 1 1 1 1 1 1 1 1 1 1 1 1 1 1 [ 4 H = I H ( 8 j ( + + m m m h I G+G+G+G+G+G+G+G+G+G+G+G+G+G+G+G+I I I I G+G+G+I G+G+G+G+G+G+G+G+G+G+G+G+G+G+G+G+G+G+G+G+G+G+G+G+G+G+G+G+G+G+G+G+G+G+G+G+G+G+I H I I h h I G+G+G+G+G+G+G+G+G+G+G+I I G+G+G+G+G+G+G+G+G+G+G+G+G+G+G+G+G+m ^ ^ ^ ^ ^ ^ m G+G+G+G+G+G+G+G+G+G+G+G+G+G+G+= 7 d d d m G+G+H H G+G+G+I H H I I I G+G+G+G+G+G+G+G+G+G+G+H I G+I I I G+G+G+I G+G+G+G+G+G+G+I I I G+G+G+G+G+G+G+G+G+G+G+G+G+G+j f ^ f j G+G+G+G+G+8 1 < < < < < 1 : c c c c c 9 < < < < < < < < < < < 2 [ ( I H = = = h h I G+G+G+G+G+G+G+G+G+G+G+G+G+G+G+G+G+I I G+G+G+G+G+G+G+G+G+G+G+G+G+G+G+G+G+G+G+G+G+G+G+",
"G+I h H I I G+G+G+G+G+G+G+G+G+G+G+I I I G+G+I G+G+G+G+I G+G+G+G+G+G+G+I I G+G+G+G+G+G+G+G+G+G+G+G+G+G+G+G+G+I ^ 1 1 1 1 1 1 1 1 1 1 1 1 1 1 1 1 1 1 1 1 1 1 1 1 1 1 [ 4 G+G+G+G+G+G+m 8 8 ( h H = = I G+G+G+G+G+G+G+G+G+G+G+G+G+G+G+G+G+G+G+G+G+G+G+G+G+G+G+G+G+G+G+G+G+G+G+G+G+G+G+G+G+G+G+G+G+G+G+G+G+G+G+G+G+G+G+G+I G+G+G+G+G+I H H G+G+H h I G+G+G+G+G+G+G+G+G+G+I I I I G+G+G+G+G+G+G+G+G+G+G+G+G+G+G+G+= c ^ c ^ ^ ^ x G+G+G+G+G+G+G+G+G+G+G+G+G+G+G+I j d d d ( G+G+H H I G+G+G+H = H I G+G+G+G+G+G+G+G+G+G+G+G+I I I G+I G+G+G+G+G+G+G+G+G+G+G+G+G+G+G+G+G+G+G+G+G+G+G+G+G+G+G+G+I k f ^ ^ ( G+G+G+G+G+G+8 < < < < < 1 f d c ^ ^ d - < < < < < < < < < < < < < - = G+G+I I I I G+G+G+G+G+G+G+G+G+G+G+G+G+G+G+G+G+G+G+G+G+G+G+G+G+G+G+G+G+G+G+G+G+G+G+G+G+G+G+G+G+G+G+",
"G+I H H I G+G+G+G+G+G+G+G+G+G+G+G+G+I I G+G+G+G+G+G+G+G+G+G+G+G+G+G+G+G+G+G+G+G+G+G+G+G+G+G+G+G+G+G+G+G+G+G+k 1 1 1 1 1 1 1 1 1 1 1 1 1 1 1 1 1 1 1 1 1 1 1 1 1 1 | 4 G+G+G+G+G+G+G+G+h # 8 # h I I G+G+G+G+G+G+G+G+G+G+G+G+G+G+G+G+G+G+G+G+G+G+G+G+G+G+G+G+G+G+G+G+G+G+G+G+G+G+G+G+G+G+G+G+G+G+G+G+G+G+G+G+G+G+I I I G+I I I I H h = I G+G+h h I G+G+G+G+G+G+G+G+G+G+H + + h h H H I I I G+G+G+G+G+I G+G+G+G+G+d c c c c f 4 G+G+G+G+G+G+G+G+G+G+G+G+G+G+G+G+( d d d 8 G+G+I H I G+G+G+I H I G+G+G+G+G+G+G+G+G+G+G+G+G+G+I I G+G+G+G+G+G+G+G+G+G+G+G+G+G+G+G+G+G+G+G+G+G+G+G+G+G+G+G+G+G+h d ^ ^ ^ h G+G+G+G+G+G+G+d < < < < 1 c c c c c d 5 < < < < < < < < < < < < < < ^ I I I I I I G+G+G+G+G+G+G+G+G+G+G+G+G+G+G+G+G+G+G+G+G+G+G+G+G+G+G+G+G+G+G+G+G+G+G+G+G+G+G+G+G+G+G+",
"G+I H I I G+G+G+G+G+G+G+G+G+G+G+G+G+G+I G+G+G+G+G+G+G+G+G+G+G+G+G+G+G+G+G+G+G+G+G+G+G+G+G+G+G+G+G+G+G+G+G+. [ 1 1 1 1 1 1 1 1 1 1 1 1 1 1 1 1 1 1 1 1 1 1 1 1 1 1 k G+G+G+G+G+G+G+I G+G+= # 8 # + G+G+G+G+G+G+G+G+G+G+G+G+G+G+G+G+G+G+G+G+G+G+G+G+G+G+G+G+G+G+G+G+G+G+G+G+G+G+G+G+G+I G+G+G+G+G+G+G+G+G+G+G+G+I H H I G+G+H H H h h H I G+I + * I G+G+G+G+G+G+G+G+G+H h h h h h h h h h H G+G+G+G+G+H I G+G+G+G+8 c c ^ c ^ 8 G+G+G+G+G+G+G+G+G+G+G+G+G+G+G+G+m 7 7 d k = G+I H I G+G+I I I I G+G+G+G+G+G+G+G+G+G+G+G+G+G+I G+G+G+G+G+G+G+G+G+G+G+G+G+G+G+G+G+G+G+G+G+G+G+G+G+G+G+G+G+G+G+. ^ ^ ^ d I G+G+G+G+G+G+G+I % < < < [ d d c d d c [ < < < < < < < < < < < < < < 1 8 = h h H I G+G+G+G+G+G+G+G+G+G+G+G+G+G+G+G+G+G+G+G+G+G+G+G+G+G+G+G+G+G+G+G+G+G+G+G+G+G+G+G+I I G+",
"G+I H I G+G+G+G+G+G+G+G+G+G+G+G+G+G+G+I G+G+G+G+G+G+G+G+G+G+G+G+G+G+G+G+G+G+G+G+G+G+G+G+G+G+G+G+G+G+G+G+= - 1 1 1 1 1 1 1 1 1 1 1 1 1 1 1 1 1 1 1 1 1 1 1 1 1 1 d G+G+G+G+G+I H H H H H H + # 8 4 m G+G+G+G+G+G+G+G+G+G+G+G+G+G+G+G+G+G+G+G+G+G+G+G+G+G+G+G+G+G+G+G+G+G+G+G+G+G+G+G+I G+G+G+G+G+G+G+G+G+G+G+G+G+H h H G+G+G+G+I I I G+G+I I * @ H G+G+G+G+G+G+G+G+G+H H H h h h h h h h H G+G+G+G+G+H H H G+G+G+4 ^ c c c c 7 I G+G+G+G+G+G+G+G+G+G+G+G+G+G+G+I k 7 7 u m G+G+I I G+G+I H I G+G+G+G+G+G+G+G+G+G+G+G+G+G+G+G+G+G+G+G+G+G+G+G+G+G+G+G+G+G+G+I G+G+G+G+G+G+G+G+G+G+G+G+G+G+G+8 ^ c ^ 4 G+G+G+G+G+I H I G+= : < < 5 d d d d d ^ ; < < < < 1 < < < < < < < < < 1 [ ( h * + H G+G+G+G+G+I G+G+G+G+G+G+G+G+G+G+G+G+G+G+G+G+G+G+G+G+G+G+G+G+G+G+G+G+G+G+G+G+G+G+G+G+G+",
"G+H H G+G+G+G+G+G+G+G+G+G+G+G+G+G+G+G+I G+G+G+G+G+G+G+G+G+G+G+G+G+G+G+I G+G+G+G+G+G+G+G+G+G+G+G+G+G+G+G+^ 1 1 1 1 1 1 1 1 1 1 1 1 1 1 1 1 1 1 1 1 1 1 1 1 1 1 ^ I G+G+G+G+G+H H H H H H H H + ( j 8 . I G+G+I I G+G+G+G+G+G+G+G+G+G+G+G+G+G+G+G+G+G+G+G+G+G+G+G+G+G+G+G+G+G+G+G+G+G+G+G+G+G+G+G+G+G+G+G+G+G+G+I H h H G+G+G+G+G+G+G+G+I I I * . = G+G+G+G+G+G+G+G+G+I H H H H H H H H H I G+G+G+G+G+H H I G+G+G+m c d d d c d h G+G+G+G+G+G+G+G+G+G+G+G+G+G+G+G+B 7 7 7 j I G+I I G+G+I H I G+G+G+G+G+G+G+G+G+G+G+G+G+G+G+G+G+G+G+G+G+G+G+G+G+G+G+G+I G+G+G+G+G+G+G+G+G+G+G+G+G+G+G+G+G+= d d d d + G+G+G+G+I H H I G+G+= - < : d d d d d f 1 1 < 1 < < 1 1 < < 1 < < < 1 t < - * + + I G+G+G+G+I H H I G+G+G+G+G+G+G+G+G+G+G+G+G+G+G+G+G+G+G+G+G+G+G+G+G+G+G+G+G+G+G+G+G+G+G+",
"G+H H I G+G+G+G+I G+G+G+G+G+G+G+G+G+G+G+G+G+G+G+G+G+G+G+G+G+G+I I G+G+G+G+G+G+G+G+G+G+G+G+G+G+G+G+G+G+4 1 1 1 1 1 1 1 1 1 1 1 1 1 1 1 1 1 1 1 1 1 1 1 1 1 1 : I G+G+G+G+G+G+I H H H H H H H = + . 4 8 ( I G+I H H G+G+G+G+G+G+G+G+G+G+G+G+G+G+G+G+G+G+G+G+G+G+G+G+G+G+G+G+G+G+G+G+G+G+G+G+G+G+G+G+G+G+G+G+G+I H H H H I G+G+G+G+G+G+G+I = = * . H G+G+G+G+G+G+G+G+G+G+G+I G+G+G+I G+G+G+I G+G+G+G+I H I G+G+G+G+= d d d d d c . G+G+G+G+G+I H I G+G+G+G+G+G+G+G+h 7 7 7 7 h G+I I G+G+H H H G+G+G+I H I I I G+G+G+G+G+G+G+G+G+G+G+G+I G+G+G+G+G+G+I H I G+G+G+G+G+G+G+G+G+G+G+G+G+G+G+G+( c d c k I G+G+G+G+H H H G+G+G+G+m 5 f d d d d d 9 < < 1 < < 1 1 < 1 1 < < 1 1 < p < < d H h I G+G+G+G+I H H I G+G+G+G+G+G+G+G+G+G+G+G+G+G+G+G+G+G+G+G+G+G+G+G+G+G+G+G+G+G+G+G+G+G+G+",
"I H H I G+G+G+H H H I G+G+G+G+G+G+G+G+G+G+G+G+G+G+G+G+G+G+G+G+H H G+G+G+G+I G+G+G+G+G+G+G+G+G+G+G+G+m > 1 1 1 1 1 1 1 1 1 1 1 1 1 1 1 1 1 1 1 1 1 1 1 1 1 - + G+G+G+G+G+G+G+G+I I H H H H H H H = + # 8 # = I H I G+G+G+G+G+G+G+I I G+G+G+G+G+G+G+G+G+G+G+G+G+G+G+G+G+G+G+G+G+G+G+G+G+G+G+G+G+G+G+G+G+G+G+I H H H H H I G+G+G+G+G+G+G+I H = + * H G+G+G+G+G+G+G+G+G+G+G+G+I I G+I I G+G+G+G+G+G+G+I H I G+G+G+G+I k c d d d c 4 G+G+G+G+G+G+I I G+G+G+G+G+G+G+G+I j k k 7 B G+I I h = I H I G+G+G+H H H H I G+G+G+G+G+G+G+G+G+G+G+I I G+G+G+G+G+G+H H G+G+G+G+G+I I G+G+G+G+G+G+G+G+G+I 7 d d d . G+G+G+G+I H H H I G+G+G+G+( d d d d d d 5 < < 1 1 1 < < < < < < < 1 1 1 [ < < 1 ( G+H I I G+G+I H G+G+G+G+G+G+G+H I G+G+G+G+G+G+G+G+G+I I G+G+G+G+G+G+G+G+G+G+G+G+G+G+G+G+G+",
"I H H I G+G+I H = = H G+G+G+G+G+G+G+G+G+G+G+I I I I G+G+G+G+G+H I G+G+G+G+I = I G+G+G+G+G+G+G+G+G+I ^ 1 1 1 1 1 1 1 1 1 1 1 1 1 1 1 1 1 1 1 1 1 1 1 1 1 [ x G+G+G+G+G+G+G+G+G+G+G+G+I I I I I I I = + # 8 # m I G+G+G+G+G+G+G+I I I G+G+G+G+G+G+G+G+I G+G+G+G+G+G+G+G+G+G+G+G+G+G+G+G+I I G+G+G+G+G+G+G+I H H H H H I I H H I G+G+G+G+G+I = + + I G+G+G+G+G+G+G+G+G+I I H H h h H H H I I G+G+G+G+I H H H G+G+G+G+B c d d d d k I G+G+G+G+G+G+G+G+G+G+G+G+G+G+G+G+m 7 8 8 8 h H m 8 4 h H I G+G+I H H H H I G+G+G+G+G+G+G+G+I I I H H H I G+G+G+G+I I G+G+G+G+G+= h H G+G+G+G+G+G+G+G+. d d d 7 = G+G+G+I H H H H I G+G+G+G+m d d d d d d | < 1 1 < 1 1 1 1 < 1 1 1 1 1 < [ < 1 < - h I H H I G+H H G+G+G+G+G+G+G+h H G+G+G+G+G+G+G+G+G+I I G+G+G+G+G+G+G+G+G+G+G+G+G+G+G+G+H ",
"I H H G+G+G+I H = h H G+G+G+G+G+G+G+G+I H H H H H H I G+G+G+G+G+G+G+G+G+G+I + * = G+G+G+G+G+G+G+G+a 1 1 1 1 1 1 1 1 1 1 1 1 1 1 1 1 1 1 1 1 1 1 1 1 1 1 8 G+G+G+G+G+G+G+G+G+G+G+G+G+G+G+G+G+I H H I H h ( 8 8 . I G+G+G+G+G+I H I G+G+G+G+G+G+G+G+G+G+G+G+G+G+G+G+G+G+G+G+G+G+G+G+G+G+I H G+G+G+G+G+G+G+I H h h H H H G+G+H I G+G+G+G+G+G+I h h I G+I G+G+G+G+G+G+G+G+I I I H = H I I I G+G+G+G+G+G+I H I G+G+G+G+m d d d d d d h G+G+G+G+G+G+G+G+G+G+G+G+G+G+G+G+I j 8 8 8 B . 8 8 . H H I G+G+I H H I I I G+G+G+G+G+G+G+I H h h h h h H I G+G+G+G+G+G+G+G+G+H h * + I G+G+G+G+G+G+h 8 d d d B G+G+G+I H H H H H H I I I I 4 d d d d 7 ^ 1 1 1 1 1 1 1 1 1 1 1 1 1 1 1 1 ) 1 1 1 < c H I H I I = h H I G+G+G+G+G+H I G+G+G+I G+G+G+G+G+G+G+G+G+G+G+G+G+G+G+G+G+G+G+G+G+G+I H ",
"I H H G+G+G+G+I I I I I I G+G+G+G+I H h + * * + h h H G+G+G+G+G+G+G+G+G+I = h * * I I I G+G+G+I # [ 1 1 1 1 1 1 1 1 1 1 1 1 1 1 1 1 1 1 1 1 1 1 1 1 1 % I G+G+G+G+G+G+G+G+G+G+G+I H H H H H h h h I I H H m 8 8 # = G+I G+G+I I G+G+G+G+I I G+G+G+G+G+G+G+G+G+G+G+G+G+G+G+G+G+G+G+G+G+I H G+G+G+G+G+G+G+I H H h H H H I G+G+G+G+G+G+G+G+G+I = = I G+G+G+G+G+G+G+G+G+G+G+G+G+G+G+G+G+G+G+G+G+G+= ( m G+G+G+G+G+G+h B d d d d d d ( G+G+G+G+I H I G+I G+G+G+G+G+G+G+G+m k 8 8 j 8 4 + G+H H I G+G+G+G+I G+G+G+I I G+G+G+G+I = h + * * + h H G+G+G+G+G+G+G+G+G+G+= * * * = G+I I G+G+I j d 7 7 7 = G+G+G+H H H H H h = H I G+= k d 7 d d 7 9 1 1 1 1 1 1 1 1 1 1 1 1 1 1 1 1 [ 1 1 1 < 1 4 G+I I I H h h H I I G+G+G+I G+G+G+G+I I G+G+G+G+G+G+G+G+G+G+G+G+G+G+G+G+G+G+G+G+G+G+I ",
"I = H G+G+G+G+G+G+G+G+I H H I I I I H h + * * * + h I G+G+G+G+G+G+G+G+G+G+h h + + H I H I I I * $ 1 1 1 1 1 1 1 1 1 1 1 1 1 1 1 1 1 1 1 1 1 1 1 1 1 : * G+G+G+G+G+G+G+G+G+G+G+G+G+I I I I I I I H I I I H I * 4 8 # h I I G+G+G+G+G+G+G+I I G+G+G+G+G+G+G+G+G+G+G+G+G+G+G+G+G+I G+G+G+G+I G+G+G+G+G+G+G+I H H H H H I G+G+G+G+G+G+G+G+G+G+G+H H G+G+G+G+G+G+G+G+G+G+G+G+G+G+G+G+G+G+G+G+G+G+G++ 8 # I G+G+I . j d d d 7 8 7 d d j I G+G+I I H I G+G+G+G+G+G+G+G+G+G+I j 8 4 4 8 * G+G+= = I G+G+G+G+G+I G+I I H I I I I I H h + * * * h H G+G+G+G+G+G+G+G+G+G+H * m * = I I H I G+m 7 7 7 u ( G+G+G+I H H H H h h h I G+G+m u 7 7 7 7 d [ < 1 1 1 1 1 1 1 1 1 1 1 1 1 1 1 [ 1 1 1 1 < 5 h G+I H I I I I I I I G+G+G+G+G+G+G+G+I G+G+G+I I I I I G+G+G+G+G+G+G+G+G+I G+G+G+G+G+",
"I = H G+G+G+G+G+G+G+G+G+I H I I I I I I H = h h h H I G+G+G+G+G+G+G+G+G+G+H h h = I I H H I I k 1 1 1 1 1 1 1 1 1 1 1 1 1 1 1 1 1 1 1 1 1 1 1 1 1 5 . = I G+G+G+G+G+G+G+G+G+G+G+G+G+G+G+G+G+G+G+G+I I I I I I h # 8 # + I G+I G+G+G+G+G+G+I G+I G+I H I I G+G+G+G+G+G+G+G+G+G+I G+G+G+G+G+G+G+G+G+G+G+G+G+G+G+G+G+I G+G+G+G+G+G+G+I I G+G+G+H H I G+G+G+G+G+G+G+G+G+G+G+G+G+G+G+G+G+G+G+G+G+G+G+( 8 m h 4 7 d d d 7 j 8 8 7 7 7 7 h G+G+G+G+G+G+G+G+G+G+G+G+G+G+G+G+G+( j 4 4 8 A G+G+H H I G+G+G+I I G+G+G+I I I I I I G+G+I H h h h h H G+G+G+G+G+G+G+G+G+G+I h * + H I H H I H j 7 7 7 8 I G+G+G+I I H H H = h = G+G+G+4 7 7 7 7 7 ^ 1 < 1 1 1 1 1 1 1 1 1 1 1 1 1 1 1 [ 1 1 1 1 1 < d I G+I I I I I I I I G+G+G+G+G+G+G+G+G+G+G+G+I I I I G+G+G+G+G+G+G+G+G+G+I G+G+G+G+G+",
"I H H G+G+G+I I G+G+G+G+G+I G+G+G+G+G+G+I H H H H H I G+G+G+G+G+G+G+G+G+G+I H h H G+G+I I G+m > 1 | 1 1 1 1 1 1 1 1 1 1 1 1 1 1 1 1 1 1 1 1 1 1 [ 4 H h I G+G+G+G+G+G+G+G+G+G+G+G+G+G+G+G+G+G+G+G+I I I G+I I G+I ( 8 4 m I I G+G+G+G+G+G+G+G+G+G+I I I I G+G+G+G+G+G+G+G+G+G+G+G+G+G+G+G+G+G+G+G+G+G+G+G+G+G+G+G+G+G+G+G+G+G+G+G+I I G+G+G+I H I G+G+G+G+G+G+G+G+G+I I I I I I I I G+I G+G+G+G+= 4 j 7 d d 7 8 # m = 8 7 7 7 7 u ( G+G+G+G+G+G+G+G+G+G+G+G+G+G+G+G+. 4 8 j j 8 j h G+H H I G+G+G+I G+G+G+G+G+G+I G+G+G+G+G+G+I I H H H I G+G+G+G+G+G+G+G+G+G+G+H H h I G+G+I G+A 7 7 7 7 m G+G+G+G+G+G+G+G+G+I H I G+G+= 7 7 7 7 7 k d 1 1 1 1 1 1 1 1 1 1 1 1 1 1 1 1 1 [ 1 1 1 1 1 < 1 ( G+I I I I I I I I G+G+G+G+G+G+G+G+G+G+G+G+G+G+G+G+G+G+G+G+G+G+G+G+G+G+G+G+G+G+G+G+",
"I H H G+G+G+G+I I G+G+G+G+G+G+G+G+G+G+G+G+I I H H H I G+G+G+G+G+G+G+G+G+G+I H H H G+G+G+G+G+^ 1 | 1 1 1 1 1 | | | 1 1 1 | | 1 1 1 1 1 1 1 1 1 1 , I h h I G+G+G+G+G+G+G+G+G+G+G+G+G+G+G+G+G+G+G+G+G+G+G+G+G+G+G+G+I . 8 8 . I G+G+G+G+G+G+G+G+G+G+G+G+G+G+G+G+G+G+G+G+G+G+G+G+G+G+G+G+G+I G+I G+G+G+G+G+G+G+G+G+G+G+G+G+G+G+G+G+G+G+I G+G+G+H = I G+G+G+G+G+G+G+G+I H = H h h = H H H H I G+G+G+I ( 8 8 7 8 ' + I G+G+( 7 7 7 7 7 E I G+G+G+G+G+G+G+G+G+G+G+G+G+I ( 8 # . B j j 8 B H I H I G+G+G+G+G+G+G+G+G+G+G+G+G+G+G+G+G+G+I I H H I G+G+G+G+G+G+G+G+G+G+G+H H H G+G+G+G+m 8 8 8 7 B G+G+G+G+G+G+G+G+G+G+G+G+G+G+G+. 7 7 7 7 7 8 h ^ < 1 1 1 1 1 1 1 1 1 1 1 1 1 1 1 3 1 1 1 1 1 1 < 0 = G+G+G+G+G+G+G+G+G+G+G+G+G+G+G+G+G+G+G+G+G+G+G+G+G+G+G+G+G+G+G+G+G+G+G+G+G+G+G+I ",
"I H H I G+F+F+Y I F+F+G+F+F+G+7.F+F+F+F+I G+I I I H I G+G+G+G+G+G+G+G+G+G+I H H I G+G+G+G+' | 1 | 1 ; | | | 1 1 1 1 1 1 1 | | | 1 1 1 1 1 1 1 : = G+h h H G+G+G+G+G+G+G+G+G+G+I G+G+G+G+G+G+G+G+I G+G+G+G+G+G+G+G+G+G+m 4 8 . I G+G+G+G+G+G+G+G+G+G+G+G+G+G+G+G+G+G+G+G+G+G+G+G+G+G+G+G+I I I G+G+G+G+G+G+G+G+G+G+G+G+G+G+G+G+G+G+G+G+G+G+G+I = I G+G+G+G+G+G+G+G+G+H = H h H H H H H H H G+G+G+G+h 8 4 . = G+G+G+G+G+= k 7 7 7 7 7 m G+G+G+G+G+G+G+G+G+G+G+G+= 4 8 # = G+m j j j j ( H I I G+G+G+G+G+G+G+G+G+G+G+G+G+G+G+G+G+G+G+G+I I I G+G+G+G+G+G+G+G+G+G+I H H I G+G+G+= 8 8 8 8 j H G+G+G+G+G+G+G+G+G+G+G+G+G+G+I j 7 7 7 7 7 B G+m 5 < 1 1 1 1 1 1 1 1 1 1 1 1 1 1 [ 1 1 1 1 1 1 1 < a G+I G+G+G+G+G+G+G+G+G+G+G+G+G+G+G+G+G+G+G+F+F+F+F+7.G+F+F+I = F+G+Y F+F+G+G+G+I ",
"X $.m.F.o.>.>.*.F.W.@+F.*.R %.%.n.%.%.#.F...G+G+I I G+G+G+G+G+G+G+G+G+G+G+I H H I G+G+G+= - 1 | | 1 1 | 1 1 | 1 1 | | | | | 1 1 1 1 1 1 1 1 5 m G+I H h H G+G+G+G+G+G+G+G+G+I H H H H H H H = = = I G+G+G+I I G+G+G+G+G+= # 8 # = G+G+G+G+G+G+G+G+G+G+G+G+G+G+G+G+G+G+G+G+G+G+G+G+G+G+I H I I G+G+G+G+G+G+G+G+G+G+G+G+G+G+G+G+G+G+G+G+G+G+G+I H I G+G+G+G+I G+G+G+G+H H H H H H H H H H I G+G+G+G+G+m = G+G+G+G+G+G+G+G+B 7 7 8 7 7 j G+G+G+G+G+G+G+G+G+G+G+m 4 8 ( I G+G+G+m D D D j A H I G+G+G+G+G+G+G+G+I I G+= I G+G+G+G+G+G+G+G+I I G+G+G+G+G+G+G+G+G+G+G+H H I G+G+= j 8 8 8 8 G I I G+G+G+G+G+G+G+G+G+G+G+G+G+m 7 7 8 k 7 k G I I # 1 < 1 1 1 1 1 1 1 1 1 1 1 1 1 [ 1 1 1 1 1 1 1 < [ m I I G+G+G+G+G+G+G+G+G+G+G+G+G+G+G+G+..F.#.%.%.n.%.%.R *.F.@+W.F.*.>.>.o.F.m.$.",
"U U @.@.,+++*.D.U.C.,+w.+. .Y. .$.-.].*.C.Y.G+G+G+I G+G+G+G+G+G+G+G+G+G+G+I H I G+G+G+G+k 1 | | | | | | | | | | | | | 1 | | | 1 1 1 | | 1 | 4 G+I I H h H G+G+G+G+G+G+G+G+G+I H H H H H H H h h = I G+G+G+I I G+G+G+G+G+G+= # 8 4 + G+G+G+G+G+G+G+G+G+G+G+G+G+G+G+G+G+G+G+G+G+G+G+G+G+G+I I I G+G+G+G+G+G+G+G+G+G+G+I I I I G+G+G+G+G+G+G+G+I H I G+G+G+G+H I G+G+G+I H H H H H H H H H I G+G+G+G+G+G+G+G+G+G+G+G+G+G+G+h 8 7 8 8 k k h G+G+G+G+G+G+G+G+I . 8 8 m G+G+G+G+G+I ( j D D j A H I G+G+G+G+G+G+G+I I I 4 # I G+G+G+G+G+G+G+G+G+G+G+G+G+G+G+G+G+G+G+G+G+G+G+G+I 4 8 8 8 8 m I I G+G+G+G+G+G+G+G+G+G+G+G+G+I B 7 8 8 8 7 B I G+I H d 1 1 1 1 1 1 1 1 1 1 1 1 1 1 [ 1 1 1 1 1 1 1 1 < ^ I G+G+G+G+G+G+G+G+G+G+G+G+G+G+G+G+G+Y.C.*.].-.$. .Y. .+.w.,+C.U.D.*.++,+@.@.U ",
"U @.@.w.++++u.,+D.D.U.V.W.C.M.*.>.>.#.M.;.o.G+G+G+G+G+G+G+G+G+G+G+G+G+G+G+G+G+G+G+G+G+m > | | | | | | | | | | | | | | | | | | | | 1 | | 1 d I G+I I = h I G+G+G+G+G+G+G+G+G+I I I I H H H H H H H I G+G+G+G+G+G+G+G+G+G+G+G+I . 8 8 m G+G+G+G+G+G+G+G+G+G+G+G+G+G+G+G+G+G+G+G+G+G+G+G+I H H H I G+G+G+G+G+G+G+G+G+G+I H H I G+G+G+G+G+G+G+G+H H I G+G+G+G+H H G+G+G+I I I H H H H H H H I G+G+G+G+G+G+G+G+G+G+G+G+G+G+G+G+B 7 8 8 8 8 B I G+G+G+G+G+G+= # 8 4 + G+G+G+G+G+G+G+I ( D D D D ( H G+G+G+G+G+G+G+I I + 8 ( G+G+G+G+G+G+G+G+G+G+G+G+G+G+G+G+G+G+G+G+G+G+G+G+= B 8 8 8 8 m I I I G+G+G+G+G+G+G+G+G+G+G+G+I m 8 8 8 8 8 8 G G+I H H h : < 1 1 1 1 1 1 1 1 1 1 1 1 [ 1 1 1 1 1 1 1 1 1 1 ' G+G+G+G+G+G+G+G+G+G+G+G+G+G+G+G+G+o.;.M.#.>.>.*.M.C.W.V.U.D.D.,+u.++++w.@.@.",
"U U @.u.O.>+V.N.v.V.,+N.D.,+++W.].w.M.W.w.W.&.9.P. .n.Y. .n.P.G.G.$.R +.$.n.n.Y.m.n.n.Q P L P N y [ | [ | [ | | | | | | | | | | | | | 1 - = G+G+I I = h I G+G+G+G+I I G+G+G+G+I I I H H H H H H H G+G+G+G+G+G+G+G+G+G+G+G+G+G+G+m 8 8 . I G+G+G+G+G+G+G+G+G+G+G+G+G+I I G+G+G+G+G+G+I H H H = H G+G+G+G+G+G+G+G+G+G+G+G+G+G+G+G+G+G+G+G+G+G+I H I G+G+G+G+H H G+G+G+I I I H H H H H H H I G+G+G+G+G+G+G+G+G+G+G+G+G+G+G+G+h 8 8 8 8 8 8 + G+G+G+G+G+h # 8 # = G+G+G+G+G+G+G+G+G+H B j D D D ( = G+G+I I I I I I . 8 m G+G+G+G+G+G+G+G+G+G+G+G+G+G+= h G+G+G+G+G+G+G+h j 8 j j 8 m I I I H I G+G+G+G+G+G+G+G+G+G+G+H D 8 8 8 8 8 B I G+I H h I m [ 1 1 1 1 1 1 1 1 1 1 1 1 s F y L P L P O Q Q O Q Y.n.$.+.R $.G.G.P.n. .Y.n. .n.9.&.W.w.W.M.w.].W.++,+D.N.,+V.v.N.V.>+O.u.@.U ",
"U U @.O.N.>+u.V.u.++O.N.D.M.N.w.,+D.D.>.@.N.Y.B.M.w.++].*.*.D.V.w.N.U U U >.V.>+N.++V.W.U.C.E.F.n.[ | | [ | | | [ | | | | [ | | | | | [ ' G+G+G+I I H h H G+G+G+G+H H I G+G+I I I I H H H H H = H G+G+G+G+G+G+G+G+G+G+G+G+G+G+G+G++ 4 8 # I G+G+G+G+G+G+G+G+G+G+G+G+I I G+G+G+G+G+G+I H H H H H I G+G+G+G+G+G+G+G+G+G+G+G+G+G+G+G+G+G+G+G+G+I H I G+G+G+G+I I G+G+G+I I I H H H H H H H I G+G+G+G+G+G+G+G+G+G+G+G+G+G+G+G+G+B 7 8 8 8 8 B I G+G+G+m 4 8 . I G+G+G+G+G+G+G+G+G+I G+I ( D D B D B h G+G+G+G+I I I ( 8 h G+G+G+G+G+G+G+G+G+G+G+G+G+I # 4 = G+G+G+G+I m j j j j j m G+I I I I H I G+G+G+G+G+G+G+G+G+G+m 8 8 8 8 8 8 h G+I G+H H H G+a 1 1 1 1 1 1 1 1 1 1 1 1 &.X.n.F.E.C.U.W.V.++N.>+V.>.U U U N.w.V.D.*.*.].++w.M.B.Y.N.@.>.D.D.,+w.N.M.D.N.O.++u.V.u.>+N.O.@.U ",
"O.].,+u.O.N.++,+v.N.].O.,.,.u.++W.W.E.>.>.W.P.Y.F.w.D.*.#.D.N.++V.U.].U U >.U.++,+M.M.D.D.M.E.m.P.[ [ [ [ [ [ [ [ | | | [ | | [ [ | 1 d G+G+G+G+I I H h H G+G+G+G+H H G+G+G+I I I H H H H H = h H G+G+G+G+G+G+G+G+G+G+G+G+G+G+G+G+G+= # 8 # h G+G+G+G+G+G+G+G+G+G+G+I I G+G+G+= = G+G+G+I G+I G+G+G+G+G+G+G+G+G+G+G+G+G+I G+G+G+G+G+G+G+G+G+H H I G+G+G+G+G+G+G+G+G+I I I H H H H H H H I G+G+G+G+G+G+G+G+G+G+G+G+G+G+G+G+G+h 8 8 8 8 8 8 m G+I . 8 8 m G+G+G+G+G+G+G+G+G+G+G+I I G+I A D B B D D m I G+G+I I h # 4 I G+G+G+G+G+G+G+G+G+G+G+G+G+G+( 8 ( I G+G+= B j j j j D m G+G+I H H I I I G+G+G+G+G+G+G+G+G+I j 8 8 8 8 8 ( G+G+I G+H H H G+I ^ 1 1 1 1 1 1 1 1 1 1 1 J X.P.m.E.M.D.D.M.M.,+++U.>.U U ].U.V.++N.D.#.*.D.w.F.Y.P.W.>.>.E.W.W.++u.,.,.O.].N.v.,+++N.O.u.,+].",
"u.O.].#.++++V.u.++N.N.D.].*.O.++u.C.$.,+@+o.P.Y.F.D.++C.o.].++W.M.u.u.].].w.N.++++V.W.,+w.U.F..+G.[ [ [ [ [ [ [ [ [ [ [ [ [ [ [ [ | - = G+G+G+G+I I H h H G+G+G+G+I H G+G+G+I H H H H H H H = = H G+G+G+G+G+G+G+G+G+G+G+G+G+G+G+G+G+G+I ( 8 4 + G+G+G+G+G+G+G+G+G+G+G+I G+G+= 4 # I G+G+G+G+G+G+G+G+G+G+G+G+G+G+G+G+G+G+G+G+G+G+G+G+G+G+G+G+H H I G+G+G+G+G+G+G+G+G+I I I I H H H H H H I G+G+G+G+G+G+I G+G+G+G+G+G+G+G+G+G+G+( 8 8 8 8 8 j h ( 8 4 * G+G+G+G+G+G+G+G+G+G+G+G+I I G+G+H A B B B B B i G I I I h 8 # G+G+G+G+G+G+G+G+G+G+G+G+G+I I = # 8 * = m D j D j j D h G+G+G+G+I I I G+G+G+G+G+G+G+G+G+G+G+m 8 8 8 8 8 j = G+G+I G+H h H G+G+m [ 1 1 1 1 1 1 1 1 1 1 W &.G..+F.U.w.,+W.V.++++N.w.].].u.u.M.W.++].o.C.++D.F.Y.P.o.@+,+$.C.u.++O.*.].D.N.N.++u.V.++++#.].O.",
"V.*.U @.N.N.V.u.O.O.w.V.U.D.V.N.,+B.-.*.o.+.G.G.E.M.O.>.].N.N.V.++>+:+W.D.++O.++>+N.++u.C.M.M.m.P.[ [ [ [ [ [ [ [ [ [ [ [ [ [ [ | [ ' G+G+G+G+G+G+G+H H I G+G+G+G+G+G+G+G+G+I H H H H H = = = H H G+G+G+G+G+I I I G+G+G+G+G+G+G+G+G+G+G+I . 8 8 . I G+G+G+G+G+G+G+G+I I G+I # 8 . G+G+G+G+G+G+G+G+G+G+G+G+G+G+G+G+G+G+G+G+G+G+G+G+G+G+G+G+G+H H I G+G+G+G+G+G+G+G+G+I I I H H H H H H H I G+G+G+G+G+I H I I G+G+G+G+G+G+G+G+G+= j 8 8 8 8 j 4 8 # = G+G+G+G+G+G+G+G+G+G+G+G+G+I I G+G+I H G i B i B i B ( m H m 8 . G+G+G+G+G+G+G+G+G+G+G+G+G+I I G+m 8 4 B j D D D D ( = G+G+G+G+G+G+G+G+G+G+G+G+G+G+G+G+G+G+= j 8 j j 8 8 m G+G+G+G+G+I H H G+G+G+a 1 1 1 1 1 1 1 1 1 1 J &.P.m.M.M.C.u.++N.>+++O.++D.W.:+>+++V.N.N.].>.O.M.E.G.G.+.o.*.-.B.,+N.V.D.U.V.w.O.O.u.V.N.N.@.U *.",
"U.D.;.$.W.N.N.++N.O.w.++W.W.u.v.w.#.].,.C.D.G.G.B.U.++@.>.@.>.O.O.N.++V.N.++N.++O.u.W.C.F.M.,+C.G.[ [ [ [ [ [ [ [ [ [ [ [ [ [ [ 1 d G+G+G+G+G+G+G+G+H H I G+G+G+G+G+G+G+G+G+I H H H H H = h h H H I G+G+I I = = H I G+I G+G+I G+G+G+G+G+G+G+m 4 8 ( I G+G+G+G+G+I I I I I # 8 # I G+G+G+G+G+G+G+G+G+G+I I I I I I I I G+G+G+G+G+G+G+G+G+G+G+H H I G+G+G+G+G+G+G+G+G+I G+G+I H I H H H I G+G+G+G+G+G+G+G+I I I G+G+G+G+G+G+G+G+G+m j j j j 4 8 # I G+G+G+G+G+G+G+G+G+G+G+G+G+G+I G+G+G+I I G+H m i i i i i B i 4 8 m G+G+G+G+G+G+G+G+G+I G+G+G+H h G A 4 4 j D D j B m I G+G+G+G+G+G+G+G+G+G+G+G+G+G+G+G+G+G+G+( 8 j j j 8 i I G+G+G+G+G+I H H G+G+G+I : < 1 1 1 1 1 1 1 1 W 9.G.C.,+M.F.C.W.u.O.++N.++N.V.++N.O.O.>.@.>.@.++U.B.G.G.D.C.,.].#.w.v.u.W.W.++w.O.N.++N.N.W.$.;.D.",
"D.@+-.m.W.N.++++>+v.++#.D.++v.N.N.M.V.N.w.N.P.9..+U.N.>.@.@.>.>.N.O.N.w.w.++>+++D.V.V.M.C.F.,+U.Y.[ [ [ [ [ [ [ [ [ [ [ [ [ [ | 5 + G+G+G+G+G+G+G+G+H h H G+G+G+G+G+G+G+G+G+H = H H H h h h h = H I I I G+G+H H H I I G+G+G+G+G+G+G+G+G+G+G+G++ # 8 # = G+G+G+G+G+G+I I . 8 # = G+G+G+G+I I G+G+G+G+G+I H h h h H H H G+G+G+G+G+G+G+G+G+G+G+I H G+G+G+G+G+G+G+G+G+G+G+G+G+G+G+G+G+G+I G+G+G+G+G+G+G+G+G+G+G+G+G+G+G+G+G+G+G+G+G+I A j j 4 4 j i I G+G+G+G+G+G+G+G+G+G+G+G+G+G+G+I G+G+G+I G+G+G+h A i i i i i 4 4 i A m G h H I I H H = h G m A B D B i 4 4 B B A h G+G+G+G+G+G+G+G+G+G+G+G+G+G+G+G+I I I I m j j j j j j h G+G+G+G+G+G+I h H G+G+G+G+. [ 1 1 1 1 1 1 1 1 W X.Y.U.,+F.C.M.V.V.D.++>+++w.w.N.O.N.>.>.@.@.>.N.U..+9.P.N.w.N.V.M.N.N.v.++D.#.++v.>+++++N.W.m.-.@+",
"W.U.,+B.M.W.U.N.w.D.V.w.M.,.].O.N.++u.D.D.D.G.9.n.C.O.>.@.@.@.@.>.].N.w.W.++O.N.E.V.V.;+B.B.F.M..+[ [ [ [ [ [ [ [ [ [ [ [ [ | [ 4 G+G+G+G+G+G+G+G+G+= h H G+G+G+G+G+G+G+G+G+I H I I H H H H = H I H I I G+G+G+G+G+G+G+G+G+G+G+G+G+G+G+G+G+G+G+G+= # 8 4 + G+G+G+G+G+G+m 8 4 = G+G+G+G+G+I H G+G+G+G+G+I H H H h H H H G+G+G+G+G+G+G+G+G+G+G+I I G+G+G+G+G+G+G+G+G+G+G+G+G+G+G+G+G+G+G+G+G+G+G+G+G+G+G+G+I G+G+G+G+G+G+G+G+G+G+G+G++ j 4 4 j j j m G+G+G+G+G+G+G+G+G+G+G+G+G+G+G+I G+G+G+G+G+G+G+G+G+h A i i i 4 4 i i B i i i i C i i i i i B i B B B i j 8 4 = G+G+G+G+G+G+G+G+G+G+G+I H G+G+G+G+G+H H H h D j j j j j m G+G+G+G+G+G+G+I h H G+G+G+G+G+d 1 1 1 1 1 1 1 1 J 9..+M.F.B.B.;+V.V.E.N.O.++W.w.N.].>.@.@.@.@.>.O.C.n.9.G.D.D.D.u.++N.O.].,.M.w.V.D.w.N.U.W.M.B.,+U.",
"w.w.++u.C.F.C.#.W.M.M.-.-.%.%.o.D.U.C.D.U.E.9.X.G.E.D.].@.@.@.@.>.].++w.D.O.N.N.++N.++U.F.M.F.m.m.[ [ [ [ [ [ [ [ [ [ [ [ [ | ^ I G+G+G+G+G+G+G+G+G+I H I G+G+G+G+G+G+G+G+G+G+I G+G+G+I G+G+I I I H I I G+G+G+G+G+G+G+G+G+G+G+G+G+G+G+G+G+G+G+G+G+I . 8 8 m G+G+G+G+m 8 j + G+G+G+G+G+G+G+I G+G+G+G+G+G+I H H h h H H G+G+G+G+G+G+G+G+G+G+G+I I G+G+G+G+G+G+G+G+G+G+G+G+G+G+G+G+G+G+G+G+G+G+G+G+G+G+I I G+G+G+G+G+G+G+G+G+G+G+G+h # 8 j j j j j j m G+G+G+G+G+G+G+G+G+G+G+G+G+G+G+G+G+G+G+G+G+G+G+G+G+G+= m i 4 4 i i i i i i i i i i i i i i i i i i A m # 8 + G+G+G+G+G+G+G+G+G+G+G+I H G+G+G+G+I H H h B j j j j j ( I G+G+G+G+G+G+G+G+H I G+G+G+G+G+= 5 1 1 1 1 1 1 1 x 9.m.m.F.M.F.U.++N.++N.N.O.D.w.++].>.@.@.@.@.].D.E.G.X.9.E.U.D.C.U.D.o.%.%.-.-.M.M.W.#.C.F.C.u.++w.",
"*.N.w.O.++M.U.,+W.V.D. .P.&.` P.G.M.C.u.M.E.9.a+X.n.F.w.,.].,.@.@.O.++,+N.++N.N.N.N.N.N.V.M..+P.X.[ [ [ [ [ [ [ [ [ [ [ [ [ [ ( G+G+G+G+G+G+G+G+G+G+G+I G+G+G+G+G+G+G+G+G+G+G+G+G+G+G+G+G+G+G+I H = I G+G+G+G+G+G+G+G+G+G+G+G+G+G+G+G+G+G+G+G+G+G+G+G+m 8 8 . I G+h 4 8 m G+G+G+G+G+G+G+G+G+G+G+G+G+I G+G+G+I I I I I G+G+G+G+G+G+G+G+G+G+G+I I G+G+G+G+G+G+G+G+G+G+G+G+G+G+G+G+G+G+G+G+G+G+G+G+G+I I G+G+G+G+G+G+G+G+G+G+G+G+m 8 8 . m j D D D j B h G+G+G+G+G+G+G+G+G+G+G+G+G+G+G+G+G+G+G+G+G+G+G+G+G+G+G+( 8 ( A i i i i i i i i i i i i i ( m G = I G++ 8 4 I G+G+G+G+G+G+G+G+G+G+I H G+G+G+G+I H H A j j D D D B = G+G+G+G+G+G+G+G+G+I G+G+G+G+G+G+G+4 1 1 1 1 1 1 1 K &.X.P..+M.V.N.N.N.N.N.N.++N.,+++O.@.@.,.].,.w.F.n.X.a+9.E.M.u.C.M.G.P.` &.P. .D.V.W.,+U.M.++O.w.N.",
"++u.N.++u.N.v.u.N.V.D.%...P.n.%. .n.V.v.W.E.X.h+h+X.%.F.C.@+,.;.>.N.N.N.N.++++v.:+u.++D.M.,+C.n.X.[ [ [ [ [ [ [ [ [ [ [ [ | d G+G+G+G+G+G+G+G+G+G+G+G+G+G+G+G+G+G+G+G+G+G+G+G+G+G+G+G+G+G+G+G+I H H I G+G+G+G+G+G+G+G+G+G+G+G+G+G+G+G+G+G+G+G+G+G+G+G+G++ 4 8 ( h # 8 . G+G+G+G+G+G+I H H G+G+G+G+H H I G+G+G+G+G+G+G+G+G+G+G+G+G+G+G+G+G+G+G+I G+G+G+G+G+G+G+G+G+G+G+G+G+G+G+G+G+I I G+G+G+G+G+G+G+G+G+G+G+G+G+G+G+G+G+G+I . 8 8 m G+G+( j j D D j B h G+G+G+G+G+G+G+G+G+G+G+G+G+G+G+G+G+G+G+G+G+G+G+G+G+G+# 8 = G+I h h G G m m m m G G h = I G+G+G+G+G+G+. 8 . G+G+G+G+G+G+G+G+G+G+G+G+G+G+G+G+G+H m D D j j D D h G+G+G+G+G+G+G+G+G+G+G+G+G+G+G+G+G+G+I ^ 1 1 1 1 1 1 M P.X.n.C.,+M.D.++u.:+v.++++N.N.N.N.>.;.,.@+C.F.%.X.h+h+X.E.W.v.V.n. .%.n.P...%.D.V.N.u.v.N.u.++N.u.",
"V.U.D.w.D.u.N.++++>+U.%.n.9.9.P.G.P.-.u.U.Y.X...E+` n.%. .B.C.;.;.N.++V.N.N.N.N.v.N.O.++O.M.%.%.n.[ [ [ [ [ [ [ [ [ [ [ | 5 h G+G+G+G+G+G+G+G+G+G+G+G+G+G+G+G+G+G+G+G+G+G+G+G+G+G+G+G+G+G+G+G+G+I I G+G+G+G+G+G+G+G+G+G+G+I I I I I I I I G+G+G+G+G+G+G+G+= # 8 j 8 ( G+G+G+G+G+G+G+I H I G+G+G+G+H H I G+G+G+G+G+G+G+G+G+G+G+G+G+G+G+G+G+G+G+I G+G+G+G+G+G+G+G+G+G+G+G+G+G+G+G+G+G+I G+G+G+G+G+I G+G+G+G+G+G+G+G+G+G+G+= # 8 # h G+G+G+I ( D D j j D ( H G+G+G+G+G+G+G+G+G+G+G+G+G+G+G+G+G+G+G+G+G+G+G+G+= j 4 I G+G+G+G+G+G+G+G+G+G+G+G+G+G+G+G+G+G+G+G+G+= 4 j = G+G+G+G+G+G+= H I I I G+G+G+I I m D D D D D D m G+G+G+G+G+G+G+G+G+G+G+G+G+G+G+I G+G+G+G+. | 1 1 1 1 1 K n.n.%.%.M.O.++O.N.v.N.N.N.N.V.++N.;.;.C.B. .%.n.` E+..X.Y.U.u.-.P.G.P.9.9.n.%.U.>+++++N.u.D.w.D.U.",
".+F.D.V.U.V.u.u.M.C.W.U.n.X.P.G.G.P.P.-.E.n.X.E+E+` 9.Y.Q  . .%.+.W.,+++++++u.,.@.@.>.*.,++.>.X Y.[ [ [ [ [ [ [ [ [ [ [ [ 8 G+G+G+G+G+G+G+G+G+G+G+G+G+G+G+G+I I G+G+G+G+G+G+G+G+G+G+G+G+G+G+= h I I G+G+G+G+G+G+G+G+G+H H H H H H h h I G+G+G+G+G+G+G+G+G+G+I ( 8 8 m G+G+G+G+G+I G+I H H H G+G+I H H H I I G+G+G+G+G+G+G+G+G+G+G+G+G+G+G+G+I I H H H H I G+I G+G+G+G+G+G+G+G+G+G+I H I G+G+G+I I G+G+G+G+G+G+G+G+G+G+h 4 8 # = G+G+G+G+G+= B D D D D D ( I G+G+G+G+G+G+G+G+G+G+G+G+G+G+G+G+G+G+G+G+G+G+G++ 8 . G+G+G+G+G+G+I G+G+G+G+G+G+G+G+G+G+G+G+G+G+G+G+. 8 # G+G+G+G+= . 4 . H H I G+G+I H m D D D D D D m G+G+G+G+G+G+G+G+G+G+G+G+I I I I H I G+G+G+G+d 1 1 1 1 1 K Y.Y.X >.+.,+*.>.@.@.,.u.++++++,+W.+.%. . .Q Y.9.` E+E+X.n.E.-.P.P.G.G.P.X.n.U.W.C.M.u.u.V.U.V.D.F.",
"B.F.M.M.U.u.V.U.U.M.U.M.C.n.G.&.9.P.P.-.Y.9.9.=.=.&.G.P. .Y.P. .+.+.B.B.F.M.M.].@.;.,.X +.-.$. .P.[ [ [ [ [ [ [ [ [ [ [ : = G+G+G+G+G+G+G+G+G+G+G+G+G+I I I H I I G+G+G+G+G+G+G+G+G+G+G+G+I + * I I I G+G+G+G+G+G+G+G+I I I I I I H H G+G+G+G+G+G+G+G+G+G+G+G+I ( 8 4 . G+G+G+G+I G+I h H H G+G+I H H H I I G+G+I I I G+G+G+G+G+G+G+G+G+G+I H H H H H I I G+I G+G+G+G+G+G+G+G+G+G+I H H G+G+G+I I G+G+G+G+G+G+G+G+G+m 8 8 . I G+G+G+G+G+G+G+h i D D D D D A I G+G+G+G+G+G+G+G+G+G+G+G+G+G+G+G+G+G+G+G+G+G+I + = G+G+G+G+G+G+I G+G+G+G+G+G+G+G+G+G+G+G+G+G+G+G+I # 8 m I = . 4 8 j . H H I G+G+H G B D B D B B m I G+G+G+G+G+G+G+G+G+G+G+I H H H H H H I G+I G++ [ 1 1 1 1 ~ X.P. .$.-.+.X ,.;.@.].M.M.F.B.B.+.+. .P.Y. .P.G.&.=.=.9.9.Y.-.P.P.9.&.G.n.C.M.U.M.U.U.V.u.U.M.M.F.",
"F.E.F.F.F.C.W.M.F.Y.B.E.M.M.$.G.9.9.n.P.X.X.X.J &.&.&.X.9.9.&.&.P. .Y.n.n.n.P.Y. . . . .n.9.X.&.=.[ [ [ [ [ [ [ [ [ [ [ 4 G+G+G+G+G+G+G+G+G+G+G+G+G+I H H H H H I G+G+I G+G+G+G+G+G+G+G+G+I + * = H I G+G+G+G+G+G+G+G+G+G+G+G+G+G+G+G+G+G+G+G+G+G+G+G+G+G+G+G+I H m j 8 . I G+G+I G+I h H H G+G+I H H H I I I I G+I H G+G+G+G+G+G+G+G+G+G+I H H H H I I I I I G+G+G+G+G+G+G+G+G+G+H h H G+G+G+G+G+G+G+G+G+G+G+G+I . 8 j m G+G+G+G+G+G+G+G+G+G+h i D B B D D m I G+G+G+G+G+G+G+G+G+G+G+G+G+G+G+G+G+G+G+G+G+G+G+G+G+G+G+G+G+G+G+G+G+G+G+G+G+G+G+G+G+G+G+G+G+G+G+G++ j # # 8 8 4 . = I H H I G+G+h i D B B B 4 i I G+G+G+G+G+G+G+G+G+G+G+G+I H H H H H H I I I G+G+, 1 1 1 1 x ..=.&.X.9.n. . . . .Y.P.n.n.n.Y. .P.&.&.9.9.X.&.&.&.J X.X.X.P.n.9.9.G.$.M.M.E.B.Y.F.M.W.C.F.F.F.E.",
"B.Y.Y..+B.B.E.F.B..+-.+.E.F.C.E.F.Y.n.G.=.9.h+F+F+F+F+7.F+F+G+G+F+F+= v 6 6 6 r 6 6 s ! 6 r r r , [ [ [ [ [ [ [ [ [ [ ^ I G+G+G+G+G+G+G+G+G+G+G+G+I H H H H H H H G+I I G+G+G+G+G+G+G+G+G+I h * H H H G+G+G+G+G+G+G+G+G+G+G+G+G+G+G+G+G+G+G+G+G+G+G+G+G+G+G+G+I H I h # 8 # = I I G+I H H H I G+I H H I G+I I I G+I H G+G+G+G+G+G+G+G+G+G+I H H H H H H I I I G+G+G+G+G+I G+G+G+G+I H H G+G+G+G+G+G+G+G+G+G+G+= # 8 # + G+G+G+G+G+I H I G+I I G+= i D B i B D A I G+G+G+G+G+G+G+G+G+G+G+G+G+G+G+G+G+G+G+G+G+G+G+G+G+G+G+G+G+G+G+G+G+G+G+G+G+G+G+G+G+G+G+G+G+G+I + # j 8 4 . I G+G+I H H I G+h B B B i i B 4 8 . H G+G+G+G+G+G+G+G+G+G+G+H H H H H H H I I I G+G+= 5 1 1 1 0 , d r { 6 ! s q ! 6 6 ! ! 0 6 0 6 6 a I F+F+7.F+F+F+F+=.9.=.G.n.Y.F.E.C.F.E.+.-..+B.F.E.B.B..+Y.Y.",
"9.G.G.P.n.Y..+.+m..++.,.+.Y.P.G.n.P.9.a+E+X.G+G+G+G+G+G+G+G+G+G+G+G++ - [ [ [ [ [ [ e [ [ [ [ [ [ [ [ [ [ [ [ [ [ [ [ ( G+I H G+G+G+G+G+G+G+G+G+G+I H H H H H H I I I I G+G+G+G+G+G+G+G+G+I h h I I I I G+G+G+G+G+G+G+G+G+G+G+G+G+G+G+G+G+G+G+I I I I G+G+G+G+I H I G+= # 8 4 * I G+I H H H I G+G+H H I G+I I I I I I G+G+G+G+G+G+G+G+G+G+I I I H H H I I I I G+G+G+G+I I G+G+G+G+I H H G+G+G+G+G+G+G+I I G++ 4 8 # = G+G+G+G+G+G+I H H I G+I G+G+= A B i B B i A = G+G+G+G+G+G+G+G+G+G+G+G+G+G+G+G+G+G+G+G+G+G+G+G+G+G+G+G+G+G+G+G+G+G+G+G+G+G+G+G+G+G+G+I m # 8 8 j 8 . G+G+G+G+I H H h m B B B i i i m m 4 8 # = G+G+G+G+G+G+G+G+G+I H H H H H H H I I I G+G+G+a 1 1 1 1 1 1 1 1 1 1 1 1 1 1 1 1 1 1 1 1 1 1 | . G+G+G+G+G+G+G+H X.E+a+9.P.n.G.P.Y.+.,.+..+m..+.+Y.n.P.G.G.",
"=.a+&.&.X.X.9.G.G.G.G.G.G.&.&.&.a+a+=.7.E+a+G+G+G+G+G+G+G+G+G+G+G+G+8 [ [ e [ [ e e e [ [ e [ e e e [ [ [ e [ [ [ | ^ H G+H H I G+G+G+G+G+G+G+G+G+H = H H H H H H I I I G+G+G+I H I G+G+G+I h H G+I I I I G+G+G+G+G+G+G+G+G+G+G+G+G+G+G+G+G+I H H H H I G+G+G+I h H G+G+I ( 8 j m G+G+H H h I G+G+I H I G+I I I G+H I G+G+G+G+G+G+G+G+G+G+G+I I I I I I I I I G+G+G+G+I I G+G+G+G+I H I G+G+G+G+G+G+G+G+h . j 8 . I G+G+G+G+G+G+G+G+I H I G+G+G+G+G+= A B i i i i i h G+G+G+G+G+G+G+G+G+G+G+G+G+G+G+G+G+G+G+G+G+G+G+G+G+G+G+G+G+G+G+G+G+G+G+G+G+G+G+G+= . # 8 8 # m m 8 # I I I G+I H h A i B i i B i G I I h # 8 # I G+G+G+G+G+G+G+G+I H H H H H H H I I I G+G+G+h - 1 1 1 1 1 1 1 1 1 1 1 1 1 1 1 1 1 1 1 1 1 1 % G+G+G+G+G+G+I H a+E+7.=.a+a+&.&.&.G.G.G.G.G.G.9.X.X.&.&.a+",
"E+E+7.......=.` ` ` =.7...h+..E+..E+....h+F+G+G+G+G+G+G+G+G+G+G+G+= : [ [ e e e [ e 5 [ [ [ e [ [ [ e [ [ [ [ [ [ e ( G+G+H H I G+G+G+G+G+G+G+G+G+I H H H H H H H I I I G+G+G+H H G+G+G+G+I h h G+G+I I I I I G+I I I I G+G+G+G+G+G+G+G+G+G+H H H H H I G+G+G+I h H G+G+G+G+. 8 8 . I H h h G+G+G+I H H I H H G+G+I H G+G+G+G+G+G+G+G+G+G+G+I I I I I I I G+G+G+G+G+G+I I G+G+G+G+I H H G+G+G+G+G+G+G+I ( 8 8 m G+G+G+G+G+G+G+G+G+G+G+I G+G+G+G+G+G+G+H A B i i i i B m I G+G+G+G+G+G+G+G+G+G+G+G+G+G+G+G+G+G+G+G+G+G+G+G+G+G+G+G+G+G+G+G+G+G+G+G+G+= 4 8 4 ( + I G+I # 8 m I I G+I h A i i i i i C h I I I G+= # 8 4 = G+G+G+G+G+G+G+G+H H H I I H H I I I G+G+G+G+8 1 1 1 1 1 1 1 1 1 1 1 1 1 1 1 1 1 1 1 1 1 1 [ + G+G+G+G+G+G+H h =.x ..E+..E+..=...7.=.` ` ` =.......7.7.",
"G+G+G+G+G+G+G+G+G+G+G+G+G+G+G+G+G+G+G+G+G+G+G+G+G+G+G+G+G+G+G+G+G+4 [ [ e 5 > 5 > [ [ e [ [ [ [ e [ [ 5 e [ e e [ % H I G+I H G+G+G+G+G+G+G+G+G+G+I H H I I I I I I I I G+G+G+I H G+G+G+G+I h = I G+G+I I I I G+= h h H G+G+G+G+G+G+G+G+G+G+I H H H H G+G+G+G+G+H H G+G+G+G+G++ 4 8 # h h H G+G+G+H H H I H I G+G+I H I G+G+G+G+G+G+G+G+G+G+G+G+G+G+G+G+G+G+G+G+G+G+G+G+G+G+G+G+G+I H H G+G+G+G+G+G+I # 8 # + G+G+G+G+G+G+G+G+G+G+G+G+I G+G+G+G+G+G+G+G+H G C i i i i i A = G+G+G+G+G+G+G+G+G+G+G+G+G+G+G+G+G+G+G+G+G+G+G+G+G+G+G+G+G+G+G+G+G+G+G+G+I . . = G+G+G+G+G+h j 4 = I I m i i i B i i A h I G+I I G+G+= ( 8 m G+G+G+G+G+G+G+G+I I I G+G+I I I I G+G+G+G+G+h 9 1 1 1 1 1 1 1 1 1 1 1 1 1 1 1 1 1 1 1 1 1 1 , G+G+G+G+G+G+I I I I G+G+G+G+G+I H G+G+G+G+G+G+G+I G+I h ",
"G+G+G+G+G+G+G+G+G+G+G+G+G+G+G+G+G+G+G+G+G+G+G+G+G+G+G+G+G+G+G+G+I ^ [ 5 [ [ [ [ [ 5 [ [ [ 5 [ [ [ [ [ [ [ e e [ 5 ( G+I G+I H G+G+G+G+G+G+G+G+G+G+I H I I I I I I G+G+G+G+G+G+I I G+G+G+G+I h = G+G+G+G+G+G+G+G+H = = H G+G+G+G+G+G+G+G+G+G+G+I I I I G+G+G+G+G+I G+G+G+G+G+G+G+h # 8 # H H G+G+G+H H H I I I G+G+H H G+G+G+G+G+G+G+G+G+G+G+G+G+G+G+G+G+G+G+G+G+G+G+G+G+G+G+G+G+G+I H I G+G+G+G+G+G+I # # = G+G+G+G+G+G+G+G+G+G+G+G+G+I I I G+G+G+G+G+I I G+h A i i i i i C G I G+G+G+G+G+G+G+G+G+G+G+G+G+G+G+G+G+G+G+G+G+G+G+G+G+G+G+G+G+G+G+I I I I H I G+G+G+G+G+G+G+. 8 ( h A i i i i i i m H H I G+I I G+G+H H + G+G+G+G+G+G+G+G+G+I I G+G+G+G+G+G+G+G+G+G+G+G+G+8 1 1 1 1 1 1 1 1 1 1 1 1 1 1 1 1 1 1 1 1 1 1 - I G+G+G+G+G+G+I I I G+G+G+G+G+H I G+G+G+G+G+G+G+I I I H ",
"G+G+G+G+G+G+G+G+G+G+G+G+G+G+G+G+G+G+G+G+G+G+G+G+G+G+G+G+G+I H I ( e [ e 5 5 5 [ 5 5 [ [ 5 [ 5 e [ e e 5 [ [ [ [ ^ I I I G+I H I G+G+G+G+G+G+G+G+G+I I G+G+G+G+G+G+G+G+G+G+G+G+G+G+G+G+G+G+G+H H G+G+G+G+G+G+G+G+G+G+G+G+G+G+G+G+G+G+G+G+G+G+G+I I I I G+G+G+G+I I G+G+G+G+G+G+G+G+= # m I I G+G+G+H h H I I I G+G+I I G+G+G+G+G+G+G+G+G+G+G+G+G+G+G+G+G+G+G+G+G+G+G+G+G+G+G+G+G+G+I H I G+G+G+G+G+G+G+I I G+G+G+G+G+G+G+G+G+G+G+G+G+G+I I I G+G+G+G+G+I I G+G+I m i i i i i i A h G+G+G+G+G+G+G+G+G+G+G+G+G+G+G+G+G+G+G+G+G+G+G+G+G+G+G+G+G+G+I H H I I I G+G+G+G+G+G+G+I 4 8 i i i i i i A h I H H I G+I I G+G+H I G+G+G+G+G+G+G+G+G+I G+G+G+G+G+G+G+G+G+G+G+G+G+G+G+I - 1 1 1 1 1 1 1 1 1 1 1 1 1 1 1 1 1 1 1 1 1 1 4 G+G+G+G+G+I I I I G+G+G+G+G+H I G+G+G+G+G+G+G+G+I I G+",
"G+G+G+G+G+G+G+G+G+G+G+G+G+G+G+G+G+G+G+G+G+G+G+G+G+G+G+G+I H H I d [ e 5 [ 5 5 e 5 [ e 5 > 5 5 5 5 [ [ 5 5 5 e 5 ( G+I I G+I H I G+G+G+G+G+G+G+G+I G+G+G+G+G+G+G+G+G+G+G+G+G+G+G+G+G+G+G+G+G+H H G+G+G+G+G+G+G+G+G+G+G+G+G+G+G+G+G+G+G+G+G+G+G+I I I I G+G+G+G+I H G+G+G+G+G+G+G+G+G+I I G+G+G+G+G+H h H I I I I G+I I G+G+G+G+G+G+G+G+G+G+G+G+G+G+G+G+G+G+G+G+G+G+G+G+G+G+G+G+G+G+I H H G+G+G+I G+G+G+G+G+G+G+G+G+G+G+G+G+G+G+G+G+G+G+G+G+G+G+G+G+G+G+G+I G+G+G+I h A i i i i i i m h G+G+G+G+G+G+G+G+G+G+G+G+G+G+G+G+G+G+G+G+G+G+G+G+G+G+G+G+I H H I H H I G+G+G+G+G+I G B 8 4 B i i i m H G+G+H H I G+I I G+G+H I G+G+G+G+G+G+G+G+G+I G+G+G+G+G+G+G+G+G+G+G+G+G+G+G+G+8 1 1 1 1 1 1 1 1 1 1 1 1 1 1 1 1 1 1 1 1 1 1 : I G+G+G+G+I I I I G+G+G+G+G+H I G+G+G+G+G+G+G+G+G+G+G+",
"G+G+G+G+G+G+G+G+G+G+G+G+G+G+G+G+G+G+G+G+G+G+G+G+G+G+G+G+I H I m - [ e [ e e 5 e 5 5 5 5 5 e 5 5 5 5 e e 5 5 [ ^ I G+I I G+I H G+G+G+G+G+G+G+G+G+G+I G+G+G+G+G+G+G+G+G+G+G+G+G+G+G+G+G+G+G+G+H H G+G+G+I G+G+G+G+G+G+G+G+G+G+G+G+G+G+G+G+G+G+G+I G+I G+G+G+G+G+I H G+G+G+G+G+G+G+G+G+G+G+G+G+G+G+G+H H H G+I I I G+G+G+G+G+G+G+G+G+G+G+G+G+G+G+G+G+G+G+G+G+G+G+G+G+G+G+G+G+G+G+G+G+G+H I G+G+G+G+I G+G+G+G+G+G+G+G+G+G+G+G+G+G+G+G+G+G+G+G+G+G+G+G+G+G+G+G+G+G+G+G+G+I m i i i i i i i m h I G+G+G+G+G+G+G+G+G+G+G+G+G+G+G+G+G+G+G+G+G+G+G+G+G+I H H I H H G+G+G+G+I G A i i 4 4 4 i A h G+G+G+G+H H I I I I G+G+H I G+G+G+G+G+G+G+G+G+G+G+G+G+G+G+G+G+G+G+G+G+G+G+G+G+G+= - 1 1 1 1 1 1 1 1 1 1 1 1 1 1 1 1 1 1 1 1 1 [ . G+G+G+G+G+G+G+G+G+G+G+G+G+I G+G+G+G+G+G+G+G+G+G+G+G+",
"G+G+G+G+G+G+G+G+G+G+G+G+G+G+G+G+G+G+G+G+G+G+G+G+G+G+G+G+I H H 8 [ e 5 5 5 5 e 5 [ 5 5 5 e 5 e 5 e 5 [ 5 e e [ B G+I I I G+I I G+G+G+G+G+G+G+G+G+I G+G+G+G+G+G+G+G+G+G+G+G+G+G+G+G+G+G+G+G+G+I H G+G+G+I I G+G+G+G+G+G+G+G+G+G+G+G+G+G+G+G+G+G+G+G+G+G+G+G+G+G+G+I G+G+G+G+G+G+G+G+G+G+G+G+G+G+G+G+I H I I G+G+G+G+G+G+G+G+G+G+G+G+G+G+G+G+G+G+G+G+G+G+G+G+G+G+G+G+G+G+G+G+G+G+G+G+G+H I G+G+G+G+G+G+G+G+G+G+G+H I I I I G+G+G+G+G+G+G+G+G+G+G+G+G+G+G+G+G+G+G+G+G+G+G+I = m i i i i i i i A G H I G+G+G+G+G+G+G+G+G+G+I G+G+G+G+G+G+G+G+G+G+G+I H H I I I G+I h m i i i i i B j j m I G+G+G+G+G+H H I I H I G+G+I I G+G+G+G+G+G+G+G+I G+G+G+G+G+G+G+G+G+G+G+G+G+G+G+G+G+G+a 1 1 1 1 1 1 1 1 1 1 1 1 1 1 1 1 1 1 1 1 1 1 % G+G+G+G+G+G+G+G+G+G+G+G+G+G+G+G+G+G+G+G+G+G+G+G+G+G+",
"G+G+G+G+G+G+G+G+G+G+G+G+G+G+G+G+G+I G+G+G+G+G+G+G+G+G+G+I I h : [ 5 5 5 5 5 5 5 5 5 5 5 5 5 5 5 5 5 5 e 5 [ : H G+I I I G+G+I G+G+G+G+G+G+G+G+G+G+I G+G+G+G+G+G+G+G+G+G+G+G+G+G+G+G+G+G+G+G+I H G+G+G+I I G+G+G+G+G+G+I I G+G+G+G+G+G+G+G+G+G+G+G+G+G+G+G+G+G+G+G+G+G+G+G+G+G+G+G+G+G+G+G+G+G+G+G+G+I I I G+G+G+G+G+G+G+G+G+G+G+G+G+G+G+G+G+G+G+G+G+G+G+G+G+G+G+G+G+G+G+G+G+G+G+G+G+I I G+G+G+G+G+G+G+G+G+G+I H H H H H I I G+G+G+G+G+G+G+I I G+G+G+G+I I G+G+G+G+G+G+G+G+I h m i i i i B i i A m G H G+G+G+G+G+G+G+G+I I G+G+I G+G+G+G+G+G+G+I H H H H h G A i i i i i i i A ( 8 ( G+G+G+G+G+G+I I I G+I I G+G+G+G+G+G+G+G+G+G+G+G+G+G+G+G+G+G+G+G+G+G+G+G+G+G+G+G+G+G+G+= 5 1 1 1 1 1 1 1 1 1 1 1 1 1 1 1 1 1 1 1 1 1 5 h G+G+G+G+G+G+G+G+G+G+G+G+I I G+G+G+G+G+G+G+G+G+G+G+",
"G+G+G+G+G+G+G+G+G+G+G+G+G+G+G+G+G+I G+G+I G+G+G+G+G+G+G+I I 4 e 5 5 5 5 5 5 5 5 5 5 5 5 5 5 e 5 5 5 5 5 5 [ j G+I G+G+G+G+G+G+G+G+G+G+G+G+G+G+G+I I G+G+G+G+G+G+G+G+G+G+G+G+G+G+G+G+G+G+G+G+H H G+G+G+G+G+G+G+G+G+G+G+H H H H H H I I I G+G+G+G+G+G+I G+G+G+G+G+I I G+G+G+G+G+G+G+G+G+G+G+G+G+G+G+G+G+I I G+G+G+G+G+G+G+G+G+G+G+G+G+G+G+G+G+G+G+G+I I I G+G+G+G+G+G+G+G+G+G+G+G+G+G+H I G+G+G+G+G+G+G+G+I I H H H H H H I G+G+G+G+G+G+G+G+H I G+G+G+G+G+I G+G+G+G+G+G+G+G+G+G+G+= m A 4 j 4 i i i i i A G h = I G+G+G+G+G+G+G+G+G+G+G+G+G+G+I H h m A A i i i i i i i i A G I I # 8 + G+G+G+G+G+G+I I G+G+G+G+G+G+G+G+G+G+G+G+G+G+G+I I G+G+G+G+G+G+G+G+G+G+G+G+G+G+G+G+G+G+d 1 1 1 1 1 1 1 1 1 1 1 1 1 1 1 1 1 1 1 1 1 1 8 G+G+G+G+G+I H G+G+G+G+G+I I I G+G+G+G+G+G+G+G+G+G+",
"G+G+G+G+G+G+G+G+G+G+G+G+G+G+G+G+G+G+G+G+G+G+G+G+G+G+G+G+G+H d [ 5 5 5 5 5 5 5 5 5 5 5 5 5 5 5 5 5 e 5 5 [ : = G+I G+G+G+G+G+G+G+G+G+G+G+G+G+G+G+I I G+G+G+G+G+G+G+G+G+G+G+G+G+G+G+G+G+G+G+G+H H G+G+G+G+G+G+G+G+G+G+G+H = H h H H H I G+G+G+G+G+G+I H G+G+G+G+G+I I G+G+G+G+G+G+G+G+G+G+G+G+G+G+G+G+G+G+G+G+G+G+G+G+G+G+G+G+G+I G+G+G+G+G+G+G+I I H H H I I G+G+G+G+G+G+G+G+G+G+G+G+H H I G+G+G+G+G+G+G+I I I H H H H H I G+G+G+G+G+G+G+G+I G+G+G+G+G+G+G+G+G+G+G+G+G+G+G+G+G+G+G+G+h 4 8 i i i i i i i i i i A m m G G h h h h h h h G m m A i i i i i i i i i i A m h I G+G+G++ 8 4 I G+G+G+G+G+G+G+G+G+G+G+G+G+G+G+G+G+G+G+G+G+G+I I G+G+G+G+G+G+G+G+G+G+G+G+G+G+G+G+G+F+m [ 1 1 1 1 1 1 1 1 1 1 1 1 1 1 1 1 1 1 1 1 1 : G+G+G+G+G+I H I G+G+G+G+G+I G+G+G+G+G+G+G+G+I I I ",
"G+G+G+G+G+G+G+G+G+G+G+G+G+G+G+G+G+I G+G+G+G+G+G+G+G+G+G+G+h 9 e 5 5 5 5 5 5 5 5 5 5 5 5 5 5 5 5 5 5 5 5 [ k G+G+I G+G+G+G+G+G+G+G+G+G+G+G+G+G+I I I I G+G+G+I I G+G+G+G+G+G+G+G+G+G+G+G+G+G+I H I G+G+G+G+G+G+I I I I H h h h h H I G+G+G+G+G+G+G+I H G+G+G+G+G+G+G+G+G+G+G+G+G+G+I I I I G+G+G+G+G+G+G+G+G+G+G+G+G+G+G+G+G+G+I G+G+G+G+G+G+G+G+I I I I I I G+G+G+G+G+G+G+G+G+G+G+G+H H I G+G+G+G+G+G+G+G+G+I H H H H I G+G+G+G+G+G+G+G+G+G+G+G+G+G+G+G+G+G+G+G+G+G+G+G+G+G+G+G+G+G+m 8 . = G A i i i i i i i i i i i i i B B B B i i i i i i i i i i i i i A m h I G+G+G+G+G+G+G+. 8 . G+G+G+G+G+G+G+G+G+G+G+G+G+G+G+G+G+I I G+G+I I I I I I I I H I I G+G+G+G+G+G+G+G+G+=.G+^ 1 1 | 1 | 1 1 1 | 1 1 | 1 1 1 1 1 1 1 1 1 | . G+G+G+G+I I G+G+G+G+G+G+G+G+G+G+G+G+G+I I H H H ",
"G+G+G+G+G+G+G+G+G+G+G+G+G+G+G+G+I H G+G+G+G+G+G+G+G+G+G+G+j e 5 5 5 5 5 5 5 5 5 5 5 5 5 5 5 5 5 5 5 5 e - + G+G+G+G+G+G+G+G+G+G+G+G+G+H I G+I I I H I I H H I I I I G+G+G+G+G+G+G+G+G+G+G+G+H h H I I I I I I H = = h h + * * h H G+G+G+G+G+G+G+G+I I G+G+G+G+G+G+G+G+G+G+G+G+I = H H H H I G+G+G+G+G+G+G+G+G+G+G+G+G+G+G+G+G+I G+G+G+G+G+G+G+G+G+G+G+G+G+G+G+G+G+G+G+G+I G+G+G+G+I h H I I G+G+G+G+G+G+G+G+I H H H H I G+G+G+G+G+G+G+G+G+G+G+G+G+G+G+G+I G+G+G+G+G+G+G+G+G+G+G+G+= # 4 = G+G+I H h m A ( i i i i i i i i i i i i i i i i i i i B i A A G h I G+G+G+G+G+G+G+I = H h 4 8 h G+G+G+G+G+G+G+G+G+G+G+G+G+G+G+G+H H G+I I I H I I I I I G+G+G+G+G+G+G+G+G+G+G+G+9.G+( [ 1 1 | 1 | | 1 1 | | 1 1 1 | | 1 1 1 1 1 1 , G+G+G+G+G+G+G+G+G+G+G+G+G+G+G+G+G+G+G+h h I I H ",
"G+G+G+G+G+G+G+G+G+G+G+I I I I I I H I G+G+G+G+G+G+G+G+G+H ^ [ 5 5 5 5 5 5 5 5 5 5 5 5 5 5 5 5 5 5 5 5 [ d G+G+G+G+G+G+G+G+G+G+G+G+G+G+H I I I I H H I I G+I G+G+G+G+G+G+G+G+G+G+G+G+G+G+G+G+h h h = H H H = = = = H h . . * * = I G+G+G+G+G+G+G+G+G+G+G+G+G+G+G+I I G+G+G+G+G+I h = I I H G+G+G+G+G+G+G+G+G+G+G+G+G+G+G+G+G+G+I G+G+G+G+G+G+I G+G+I H I I I I G+G+G+G+G+G+G+G+G+G+H h H G+G+G+G+G+G+G+G+G+G+G+H H H I I G+G+G+G+G+G+G+G+G+G+G+G+G+G+G+G+G+G+G+G+G+G+G+G+G+G+G+G+G+. 8 . G+G+G+G+G+G+G+I H h G m m A A i i i i i i i i A A m m G G h H I G+G+G+G+G+G+G+I I I h . * * # 8 # I G+G+G+G+G+G+G+G+G+G+G+G+G+G+G+I H I I I I H I I G+G+G+G+G+G+G+G+G+G+G+G+G+G+G+E.=.I : 1 | | ; | 1 | 1 1 1 1 1 | | 1 | | 1 | | 1 - = G+G+G+G+G+G+G+G+G+G+G+I I G+G+G+G+I H H G+G+I ",
"a+&.a+=.X.` &.&.&.9.&.=.&.&.W K n.N G.a+&.9.X.a+a+a+7.=.M q q p p p p F p q g y y y F p ! 6 6 0 5 5 5 5 . G+G+G+G+G+G+G+G+G+G+G+G+G+G+I I I I I I I I G+G+G+G+G+G+G+G+G+G+G+G+G+G+G+G+G+G+I h h h h = H H = = H H I = . . * h I G+G+G+G+G+G+G+G+G+G+G+G+G+G+G+G+I I G+G+G+G+G+I h H G+G+G+G+G+G+G+G+G+G+G+G+G+G+G+G+G+G+G+G+G+I G+G+G+G+G+G+I I H H h h H H I G+G+G+G+G+G+G+G+G+G+H h H G+G+G+G+G+I G+G+G+G+G+I H H I G+G+G+G+G+G+G+G+G+G+G+G+I G+G+G+G+G+G+G+G+G+G+G+G+G+G+G+G+I 4 j = G+G+G+G+G+G+G+G+I I I I I H = = = = h H H H H I I I G+G+G+G+G+G+G+G+G+G+G+I I I I I + . + * . 4 8 m G+G+G+G+G+G+G+G+G+G+G+G+G+G+G+I I I I I I I I I I I I I I G+I G+G+G+G+G+G+G+G+m.&.E+a q 0 q y y y t t g p y y y y p p 3 p g p q y M a+X.9.&.a+9.n.n.&.` &.&.h+&.9.&.&.&.W X.=.a+&.",
"U.M.E.Y.P.Y.].$.E.o.B..+B.B.Y.$.>.@.]..+@+;.W.U.E.F.E.M.@+o..+Y.B.E.B.m.P.Y.,.F.C.C.;+.+P.n.G.&.n.5 5 ^ I G+G+G+G+G+G+G+G+G+G+G+G+G+G+I I G+I I I I I I I I I H H I I G+G+G+G+G+G+G+G+G+G+I h * H H H I H H H I I I I + * h H G+G+G+G+G+G+G+G+G+G+G+G+G+G+G+G+G+G+G+G+G+G+G+G+G+I G+G+G+G+G+G+G+G+G+G+G+G+G+G+G+G+G+G+G+G+G+G+G+G+G+G+G+G+G+I I H H I H I I I G+G+G+G+G+G+G+G+G+G+I h H G+G+G+I H H I I G+G+G+G+I I G+G+G+G+G+G+G+G+G+G+G+G+G+I G+G+G+G+G+G+G+G+G+G+G+G+G+G+G+G+. 8 . G+G+G+G+G+G+G+I I I H I G+G+G+G+G+G+G+G+G+G+G+G+G+G+G+G+G+G+G+G+G+G+G+G+G+G+I H I I G+= h I I * . 8 ( I G+G+G+G+G+G+G+G+G+G+G+G+G+G+G+I G+G+G+G+G+I I H H H H H H I G+G+G+G+G+G+G+G+9.Y.P.&.G.n.P..+;+C.C.F.,.Y.P.m.B.E.B.Y..+o.@+M.E.F.E.U.W.;.@+.+].@.>.$.Y.B.B..+B.o.E.$.].Y.P.Y.E.M.",
"m.E.m.n.&.F.X $.G.P.G.P.&.....=.n.%. .P.P.n.n.n.Y.Y.m.Y.n.B.m..+.+B.n.m.G.9.n.n.n.n.j.P.9.9.` h+9.5 e 8 G+G+G+G+G+G+G+G+G+G+G+G+G+G+G+G+G+G+G+G+G+G+I I H H H H H H I G+G+G+G+G+G+G+G+G+G+I * * = I I H = h H I G+G+G+H = H I G+G+G+G+G+G+G+G+G+G+G+G+I G+G+G+G+G+G+G+G+G+G+G+G+G+G+G+G+G+G+G+G+G+G+G+I H H I G+I G+G+G+G+G+G+G+G+G+G+G+G+I G+G+I I I I G+G+G+G+G+G+G+G+G+G+G+G+G+I h H G+G+I H H H I I G+G+G+G+G+G+G+G+G+G+G+G+G+G+G+G+G+G+G+I G+G+G+G+G+G+G+G+G+G+G+G+G+G+G+I 4 8 = G+G+G+G+G+G+I I I I I G+G+G+G+G+G+G+G+G+G+G+G+G+G+G+G+G+G+G+G+G+G+G+G+G+G+I I I G+G+G+I I G+G+H I + H I G+G+G+G+G+G+G+G+G+G+G+G+G+G+G+G+G+G+G+G+G+I I I I I H H H I G+G+G+G+G+G+G+G+..G.9.h+` 9.9.P.j.n.n.n.n.9.G.m.n.B..+.+m.B.n.Y.m.Y.Y.n.n.n.P.P. .%.n.=.....&.P.G.P.G.$.X F.&.n.m.E.",
"9.X.` &.&.G.&.K J 7.Y G+G+G+G+G+F+..F+..........=.=.` &.K K M K K K K J w J K K K K K K J ~ J w K 5 9 + G+G+G+G+G+I G+G+G+G+G+G+G+G+G+G+G+G+G+G+G+G+I I I I I I I I G+G+G+G+G+G+G+G+G+G+G+I + * H I I = + h H H I G+G+G+I G+G+I I G+I G+G+G+G+G+G+G+G+I G+G+G+G+G+G+G+G+G+G+G+G+G+G+G+G+G+G+G+G+G+G+I H H H I G+I G+G+G+G+G+G+G+G+G+G+G+G+I I I I I I G+G+G+G+G+G+G+G+G+G+G+G+G+G+H h H G+G+I H I G+G+G+G+G+G+G+G+G+G+G+G+G+G+G+G+G+G+G+G+G+G+G+G+G+G+G+G+G+G+G+G+G+G+G+G+G+G+G+m . G+G+G+G+G+G+I I I G+G+G+G+G+G+G+G+G+G+G+G+G+G+G+G+G+G+G+G+G+G+G+G+G+G+G+G+G+I G+G+G+G+G+G+G+G+G+G+G+G+G+I G+G+G+I H I G+G+G+G+G+G+G+G+G+G+G+G+G+G+G+G+G+G+G+G+G+G+G+G+G+G+G+G+G+G+G+G+G+E+=...] ~ K K K K K K K K w J K K K K M K K M M K K ] ........F+..F+G+G+G+G+G+Y 7.J K &.G.&.&.` X.",
"G+G+G+G+G+I I I G+G+G+G+G+G+G+G+G+G+G+G+G+G+G+G+G+G+G+a e 5 5 5 5 5 5 5 5 5 5 5 5 5 5 5 5 5 5 5 5 [ d I G+G+G+G+H H I G+G+G+G+G+G+G+G+G+G+G+G+G+G+G+G+G+G+G+G+G+G+G+G+G+G+G+G+G+G+G+G+G+G+I h * H I H h h H I G+G+G+G+G+G+G+G+G+I I G+G+G+G+G+G+G+G+G+I G+G+G+G+G+G+G+G+G+G+G+G+G+G+G+G+G+G+G+G+G+G+G+I H I G+G+G+G+G+G+G+G+G+G+G+G+G+G+G+G+I I I G+G+G+G+G+G+G+G+G+G+G+G+G+G+G+G+I H I G+I I G+G+G+G+G+G+G+G+G+G+G+G+G+G+G+G+G+G+G+G+G+G+G+G+G+G+G+G+G+G+G+G+G+G+G+G+G+G+G+G+G+G+G+G+G+G+G+G+I I H I G+G+I G+G+G+G+G+G+G+G+G+G+G+G+G+G+G+G+G+G+I G+G+G+G+G+G+G+G+G+G+G+G+G+G+G+G+G+G+G+G+G+I I G+G+I H H G+G+I G+G+G+G+G+G+G+G+G+G+G+G+G+G+G+G+G+G+G+G+G+G+G+G+G+G+G+G+G+G+G+G+= . 9 | | [ [ | [ [ [ [ [ [ [ | | | | | | | [ 1 ^ G+G+G+G+G+G+G+G+G+G+G+G+G+G+G+G+G+G+G+G+G+G+",
"G+G+G+G+G+I I G+G+G+G+G+G+G+G+G+G+G+G+G+G+G+G+G+G+G+I ^ 5 5 5 5 5 5 5 5 5 5 5 5 5 5 5 5 5 5 5 5 5 5 ( G+G+I G+I H H I G+I I G+G+G+G+G+G+G+G+G+G+G+G+I G+G+G+G+G+G+G+G+G+G+G+G+G+G+G+G+G+G+G+h + I H = = I G+G+G+G+G+G+G+G+G+G+G+G+I G+G+G+G+G+G+G+G+G+G+G+G+G+G+G+G+G+G+G+G+G+G+G+G+G+G+G+G+G+G+G+G+G+G+G+G+G+G+G+G+G+G+G+G+G+G+G+G+G+G+G+G+I I I G+G+G+G+G+G+G+G+G+G+G+G+G+G+G+G+I H H I I G+G+G+G+G+G+G+G+G+G+G+G+G+G+G+G+G+G+G+G+G+G+G+G+G+G+G+G+G+G+G+G+G+G+G+G+G+G+G+G+G+G+G+G+G+G+G+G+G+I I I G+G+G+I I G+G+G+G+G+G+G+I G+G+G+G+G+G+G+G+I H I G+G+G+G+G+G+G+G+G+G+G+G+G+G+G+G+G+G+G+G+G+G+G+I I I I G+G+I G+G+G+G+G+G+G+G+G+G+G+G+I G+G+G+G+G+G+G+G+G+G+G+G+G+G+G+G+G+G+G+= + d | [ [ [ [ [ [ [ [ [ | [ | | [ | [ [ [ | | 5 = G+G+G+G+G+G+G+G+G+G+G+G+G+G+G+G+G+G+G+G+G+",
"G+G+G+G+G+G+G+G+G+G+I I G+G+G+G+G+G+G+G+G+G+G+G+G+G+. - 5 5 5 5 5 5 5 5 5 5 5 5 5 5 5 5 5 5 5 5 5 : = G+G+G+G+I I I G+G+G+G+G+G+G+G+G+G+G+G+G+G+G+G+I I G+G+G+G+G+G+G+G+G+G+G+G+G+G+G+G+G+G+h h I H H I G+G+G+G+G+G+G+G+G+G+G+G+G+G+G+G+G+G+G+G+G+G+G+G+G+G+G+G+G+G+G+G+G+G+G+G+G+G+G+G+G+G+G+G+G+G+G+G+G+G+G+G+G+G+G+G+G+G+G+G+G+G+G+G+I I I I I G+G+G+G+G+G+G+G+G+G+G+G+G+G+G+G+I H = H I I I G+G+G+G+G+G+G+G+G+G+G+G+G+G+G+G+G+G+G+I G+G+I G+G+G+G+G+G+G+G+G+G+G+G+G+G+G+G+G+G+G+G+G+G+G+G+I G+G+G+G+G+G+G+G+G+G+G+G+G+G+G+G+G+G+G+G+G+G+G+I H I G+G+G+G+G+G+G+G+G+G+G+G+G+G+G+G+G+G+G+G+G+G+G+G+G+G+G+G+G+G+G+G+G+G+G+G+G+G+G+I I I I I G+G+G+G+G+G+G+G+G+G+G+G+G+G+G+G+G+G+H h ( [ | [ [ [ [ [ [ [ [ [ [ [ | [ [ [ | [ [ | | ' G+G+G+G+G+G+G+G+G+G+G+G+G+G+G+G+I I I G+G+",
"G+G+G+G+G+G+G+G+G+G+G+G+G+G+G+G+G+G+G+G+G+G+G+G+G+G+a 5 5 5 5 5 5 5 5 5 5 5 5 5 5 5 5 5 5 5 5 5 5 k G+G+G+G+G+G+G+G+G+G+G+G+G+G+G+G+G+G+G+G+G+G+I I I I G+G+G+G+G+G+G+G+G+G+G+G+G+G+G+G+G+G+h h = H I G+G+G+G+G+G+G+G+G+G+G+G+G+G+G+G+G+G+G+G+G+G+G+G+G+G+G+G+G+G+G+G+G+G+G+G+I I I I G+G+G+G+G+G+G+G+G+G+G+G+G+G+G+G+G+G+G+G+G+G+G+G+G+I I H H I G+G+G+G+G+G+G+G+G+I H I G+G+G+G+I h h H H H H I G+G+G+G+G+G+G+G+G+G+G+G+G+G+G+I I H H I I I G+G+G+G+G+G+G+G+G+G+G+G+G+G+G+G+G+G+G+G+G+G+G+G+G+G+G+G+G+G+G+G+G+G+G+G+G+G+G+G+G+G+G+G+G+G+G+G+G+G+G+G+G+G+G+G+G+G+G+G+G+G+G+G+G+G+G+G+G+G+G+G+G+G+G+G+G+G+G+G+G+G+G+G+G+G+G+G+G+G+G+I I I I G+G+G+G+G+G+G+G+G+G+G+G+G+G+G+G+G+G+= + + c | [ [ [ [ [ [ [ [ [ [ [ [ [ [ [ [ [ [ [ 1 d G+G+G+G+G+G+G+G+G+G+G+G+G+G+G+G+I I I G+G+",
"G+G+G+G+G+G+G+G+G+G+G+G+G+G+G+G+G+G+G+G+G+G+G+G+G+I ^ 5 5 5 5 5 5 5 5 5 5 5 5 5 5 5 5 5 5 5 5 5 5 . G+G+G+G+G+G+G+G+G+G+G+G+G+G+G+G+G+G+G+G+G+G+G+G+I G+G+G+G+G+G+G+G+G+G+G+G+G+G+G+G+G+G+I h * + = I G+G+G+G+G+G+G+G+G+G+G+G+G+G+G+G+G+G+G+G+G+G+G+G+G+G+G+G+G+G+G+G+G+G+G+G+G+G+I I G+G+G+G+G+G+G+G+G+G+G+G+G+G+G+G+G+G+G+G+G+G+G+G+I I I I I I G+G+G+G+G+G+G+G+G+I H I G+G+G+G+I h h H H H I G+G+G+G+G+G+G+G+G+G+G+G+I I G+I H H = = h = I G+G+G+G+G+G+G+G+G+G+G+G+G+G+G+G+G+G+G+G+G+G+G+G+G+G+G+G+G+G+G+G+G+G+G+G+G+G+G+G+G+G+G+G+G+G+G+G+G+G+G+G+G+G+G+G+G+G+G+G+G+G+G+G+I I G+G+G+G+G+G+G+G+G+G+G+G+G+G+G+G+G+G+G+G+G+G+G+G+G+G+I I I G+G+G+G+G+G+G+G+G+G+I H I G+G+G+G+G+h * + 8 | [ [ [ [ [ [ [ [ [ [ [ [ [ [ [ [ [ [ [ | - h G+G+G+G+G+G+G+G+G+G+G+G+G+G+G+G+G+G+G+G+",
"G+G+G+G+I G+G+G+G+G+G+G+G+G+G+G+G+G+G+G+G+G+G+G+G++ 9 5 5 5 5 5 5 5 5 5 5 5 5 5 5 5 5 5 5 5 5 5 ^ I G+G+G+G+I G+G+G+G+G+G+G+G+G+G+G+G+G+G+G+G+G+I I I I G+G+G+G+G+G+G+G+G+G+I H I G+G+G+G+I   . m + = I G+G+G+G+G+G+G+G+G+G+G+G+G+G+G+G+G+I G+G+I I G+G+G+G+G+G+G+G+G+G+G+G+G+G+G+G+G+G+G+G+G+G+G+G+G+G+G+G+G+G+G+G+G+G+G+G+G+G+G+G+G+G+G+I I I G+G+G+G+G+G+G+G+G+G+G+I I G+G+G+G+I = = H I I G+G+G+G+G+G+G+G+G+G+G+G+I I I I I H = h h H = I G+G+G+G+G+G+G+G+G+G+G+G+G+G+G+G+G+G+G+G+G+G+I G+G+G+G+G+G+G+G+G+G+G+G+G+G+G+G+G+G+G+G+G+G+G+G+G+G+G+G+G+G+G+I G+G+G+G+G+G+G+G+G+I I G+G+G+G+G+G+G+I I G+G+G+G+G+G+G+G+G+G+G+G+G+G+G+G+I I I I G+G+G+G+G+G+G+G+G+I I H I G+G+G+G+I + . m . 5 | [ [ [ [ [ [ [ [ [ [ [ [ [ [ [ [ [ [ | [ ( I I G+G+G+G+G+G+G+G+G+G+G+G+G+G+G+G+G+G+",
"G+G+G+I G+G+G+G+G+G+G+G+G+G+G+G+G+G+G+G+G+G+G+G+G+4 5 5 5 5 5 5 5 5 5 5 5 5 5 5 5 5 5 5 5 5 5 5 k G+G+G+G+G+I I G+G+G+G+G+G+G+G+G+G+G+G+G+G+G+I I I I I G+G+G+G+G+G+G+G+G+I I I I G+G+G+G+H . x m + = I G+G+G+G+G+G+G+G+G+G+G+I I I I I H H H I I H G+G+G+G+G+G+G+G+G+G+G+G+G+G+G+G+G+G+G+G+G+G+G+G+G+G+G+G+G+G+G+G+G+G+G+G+G+G+G+G+G+G+G+G+G+I G+G+G+G+G+G+G+G+G+G+G+G+I I G+G+G+I H H I I I G+G+G+G+G+G+I G+G+G+G+G+G+G+G+I I I H h = H I G+G+G+G+G+G+G+G+G+G+G+G+G+G+G+G+G+G+G+G+G+G+G+I I G+G+G+G+G+G+G+G+G+G+G+G+G+G+G+G+G+G+G+G+G+G+G+G+G+G+G+G+G+G+G+G+G+G+G+G+G+G+G+G+G+G+G+G+G+G+G+G+G+I I G+G+G+G+G+G+G+G+G+G+G+G+G+G+I I I I I I G+G+G+G+G+G+G+G+G+G+G+G+G+G+G+G+I I m ( m + ^ 1 [ [ [ [ [ [ [ [ [ [ [ [ [ [ [ [ [ [ [ 1 d I I G+G+G+G+G+G+G+G+G+G+G+G+G+G+G+G+G+G+",
"G+G+G+I I I G+G+G+G+G+G+G+G+G+G+G+G+G+G+G+I I G+G+d 5 5 5 5 5 5 5 5 5 5 5 5 5 5 5 5 5 5 5 5 5 9 m G+G+G+G+G+G+I G+G+G+G+G+G+G+G+G+G+G+G+G+G+I I I I I I G+G+G+G+G+G+G+G+G+I G+G+G+G+G+G+G+H . . + + = G+G+G+G+G+G+G+G+G+G+G+G+I I I I H = h = H I G+G+G+G+G+G+G+G+G+G+G+G+G+G+G+G+G+G+G+G+G+G+G+G+G+G+G+G+G+G+G+G+G+G+G+G+G+G+G+G+G+G+G+G+G+I I I G+G+G+G+G+G+G+G+I I I G+I G+G+G+I H H I I I G+G+G+G+G+G+H H G+G+G+G+G+G+G+G+G+I I I I I G+G+G+G+G+G+G+G+G+G+G+G+G+G+G+G+G+G+G+G+G+G+G+G+G+I H I G+G+G+G+G+G+G+G+G+G+G+G+G+G+G+I G+G+G+G+G+G+G+G+G+G+G+I H H I G+G+G+G+G+G+G+G+G+G+G+G+G+G+G+G+G+G+G+G+G+G+G+G+G+G+G+G+G+G+G+G+I I I I I I I G+G+G+G+G+G+G+G+G+I G+G+G+G+G+G+I . ( m = 8 [ [ [ [ [ [ [ [ [ [ [ [ [ [ [ [ [ [ [ [ | : I G+G+G+G+G+G+G+G+G+G+G+G+G+G+G+G+G+G+G+",
"G+G+G+G+I h = I G+G+G+G+G+G+G+G+G+G+G+G+I H H G+= : 5 5 - - 5 5 5 5 5 5 5 5 5 5 5 5 5 5 5 5 5 ^ I G+G+G+G+G+G+G+G+G+G+G+G+G+G+G+G+G+G+G+G+G+I I H I I I I I G+G+G+G+G+G+G+G+I G+G+G+G+I G+= . x + + h I G+G+G+G+G+G+I G+G+G+G+G+G+G+G+G+= h H H I G+G+G+G+G+G+G+G+G+G+G+G+G+G+G+G+G+G+G+G+G+G+G+G+G+G+G+G+G+G+G+G+G+G+G+G+G+G+G+G+G+G+G+I I I I I I G+G+G+G+G+G+I I I H I G+G+G+G+I H H I I G+G+G+G+G+G+G+H H I G+G+G+G+G+G+G+I H I G+G+G+G+G+G+G+G+G+G+G+G+G+G+G+G+G+G+G+G+G+G+G+G+G+G+G+G+I + . + H I I I I I I I I I I I I = h H G+I I I I I H H = H H + + = I G+G+G+G+G+G+G+G+G+G+G+G+G+G+G+G+G+G+G+G+G+G+G+G+G+G+G+G+G+G+G+I I H I I I I I G+G+G+G+G+G+I I I G+I G+G+G+G+I m ' m = . 5 [ [ [ [ [ [ [ [ [ [ [ [ [ [ [ [ [ [ [ | [ m G+G+G+G+G+G+G+G+G+G+G+G+G+G+G+G+G+G+G+",
"G+G+G+G+= . . * h H I I I I I I I H = h h h = I ( 5 - - 5 5 - - - - 5 - - 5 5 5 5 5 5 5 5 5 5 k G+G+G+G+I G+G+G+G+G+G+G+G+G+G+G+G+G+G+G+G+I I H = H I G+I I I I G+I I I I I G+G+G+G+I I I H . . * + + H I G+G+G+G+I I I G+G+G+G+G+G+G+G+I H I G+G+G+G+G+G+G+G+G+G+G+G+G+G+G+G+G+G+G+G+G+G+G+G+G+G+G+G+G+G+G+G+G+G+G+G+G+G+G+G+G+G+G+G+I I I I I G+I G+G+G+G+G+I I I H = I G+G+G+G+I H H I I G+G+G+G+G+G+G+H h H G+G+G+G+G+G+G+H H I G+G+G+G+G+G+G+G+G+G+G+G+G+G+G+G+G+G+G+G+G+G+G+G+I G+G+I h * . . * H H H I I I I H H H h + * + h H H H I H H H = h h h h + h H I G+G+G+G+G+G+G+G+G+G+G+G+I G+G+G+G+G+G+G+G+G+G+G+G+G+G+G+G+I I I = H I G+I I I I I I I I I I G+G+I I G+I I I + . . + h ^ [ [ [ [ [ [ [ [ [ [ [ [ [ [ [ [ [ [ [ [ 1 8 G+G+G+G+G+G+G+G+G+G+G+G+G+G+G+G+I G+G+",
"I G+G+I h * . . * h H H H H I H H H h * * h h H 7 5 - - - - - - - 5 - - - 5 5 - 5 5 - 5 5 5 - . G+G+G+I I G+G+G+G+G+G+G+G+G+G+G+G+G+G+G+G+G+I H = I I G+I I I I I I I I I I I I I G+I I I I + @ + + + H I G+G+G+G+I H H I G+G+G+G+G+G+I = I G+G+G+G+G+G+G+G+G+G+G+G+G+G+G+G+G+G+G+G+G+G+G+G+G+G+G+I I I I I I G+G+G+G+G+G+G+G+G+G+G+G+I I I G+G+G+G+G+G+G+G+G+I I I I I I I G+G+G+I H H I I H I G+G+G+G+G+h h H I G+I H I G+G+I I G+G+G+G+G+G+G+G+G+G+G+G+G+G+G+G+G+G+G+G+G+G+G+G+G+I G+G+I h * @ . . h H H H H H I H H = + * + h = H I I I I H H H h H h H H = H H I G+G+G+G+G+G+G+G+G+G+I I G+G+G+G+G+G+G+G+G+G+G+G+G+G+G+G+G+I I H I I I G+I I I I I I I I I I I I I I I G+I +   m * = 8 [ [ [ [ [ [ [ [ [ [ [ [ [ [ [ [ [ [ [ [ | ^ G+G+G+G+G+G+G+G+G+G+G+G+G+G+G+G+G+G+G+",
"G+G+G+I H h * * * + h h h = H H H H h + h H I = ^ 5 - - - - - - - - - - - - 5 5 - - - - - 5 f = G+G+I I G+G+G+G+G+G+G+G+G+G+G+G+G+G+G+G+G+G+I H H I I G+G+I I I I I I I G+I I I I I I G+G+I h h h h h = I I G+G+G+H h H I G+G+I G+G+G+H h I G+G+G+G+G+G+G+G+G+G+G+G+G+G+G+G+G+G+G+G+G+G+G+G+G+G+I I H H H H H I G+G+G+G+G+G+G+G+G+G+G+I I G+G+G+G+G+I G+G+G+G+G+G+I I I I G+G+G+G+I H H I I I I G+G+G+G+I H h H I I H H I G+G+G+G+G+G+G+G+G+G+G+G+G+G+G+G+G+G+G+G+G+G+G+G+G+G+G+G+G+G+G+G+G+I H h + * * h h H H H I G+G+I h + = I G+G+G+G+G+G+I I I I H H H I G+I I I I G+G+G+G+G+G+G+G+G+I G+G+G+G+G+I I G+G+G+G+G+G+G+G+G+G+I I I H I I G+G+G+G+G+G+G+G+G+G+I I I I I G+G+G+G+h + = = + ( 5 [ [ [ [ [ [ [ [ [ [ [ [ [ [ [ [ [ [ [ [ 5 = G+G+G+G+G+G+G+G+G+G+G+G+G+G+G+G+G+G+",
"G+G+G+G+I I H = h * + + + h = I G+I I H H I G++ 9 5 - - - - - - 9 - - - - - - - - - - - - 5 7 G+G+G+G+G+G+G+G+G+I I I I G+G+G+G+G+G+G+G+G+G+I H H I G+G+G+G+G+G+G+G+G+G+G+G+I I I I G+G+G+G+h h I = + h H H I G+I h * h I G+I I I G+G+H H I G+G+G+G+G+G+G+G+G+G+G+G+G+G+G+G+G+G+G+G+G+G+G+G+G+G+I I = h h = H H I G+G+G+G+G+G+G+G+G+G+I I I I I I I I G+G+G+G+G+G+G+G+G+G+G+G+G+G+G+H H G+G+G+G+G+G+G+G+G+I I I I G+I I G+G+G+G+G+G+G+G+G+G+G+G+G+G+G+G+G+G+G+G+G+G+G+G+G+G+G+G+G+G+G+G+G+G+G+G+I H H h + + h = H I G+G+G+I I G+G+G+G+G+G+G+G+G+G+G+G+G+G+G+G+G+G+I I I I I I I I I G+G+G+G+G+G+G+I H H H I I G+G+G+G+G+G+G+G+I I I H I G+G+G+G+G+I G+G+G+G+G+G+I I I I G+G+G+G+H h = G+= * : [ [ [ [ [ [ [ [ [ [ [ [ [ [ [ [ [ [ [ [ [ . G+G+G+G+G+G+G+G+G+G+G+G+G+G+G+G+G+G+",
"G+G+G+G+G+G+I I I = + + h = H I G+G+G+G+G+G+G+( 5 5 - - - 9 - - 9 - - - - - - - - - - - - 5 B G+G+G+G+G+G+G+I I H H H I I G+G+G+G+G+G+G+G+I I I I I G+G+G+G+G+G+G+G+G+G+G+I I I I I G+G+G+I h * H G+= H I I I I I = h H G+G+I H I G+G+I H I G+G+G+G+G+G+G+G+G+G+G+G+G+G+G+G+G+G+G+G+G+G+G+G+G+G+I I H h + h = H I G+G+G+G+G+G+G+G+G+G+I G+G+G+G+G+G+G+G+G+G+G+G+G+G+G+G+G+G+G+G+G+G+I G+G+G+G+G+G+G+G+G+G+G+G+G+G+G+G+G+G+G+G+G+G+G+G+G+G+G+G+G+G+G+G+G+G+G+G+G+G+G+G+G+G+G+G+G+G+I I G+G+G+G+G+I I I I = + h = = H I G+G+G+G+G+G+G+G+G+G+G+G+G+G+G+G+G+G+G+G+G+G+G+G+G+G+I G+I I I G+G+G+G+G+G+G+I H H H H I G+G+G+G+G+G+G+G+G+I I H I G+I G+G+I G+G+G+G+G+G+G+I I I I G+G+G+G+H + = G+G+I k | [ [ [ [ [ [ [ [ [ [ [ [ [ [ [ [ [ [ [ [ 8 G+G+G+G+G+G+G+G+G+G+G+G+G+G+G+G+G+G+",
"I G+G+G+G+G+G+I I I H h H H H I G+G+G+G+G+G+G+, 5 - - - - 9 9 - - - - 9 - - - - - - - - - 9 h G+G+G+G+G+G+G+I H H H H H I G+G+G+G+G+G+G+G+G+I I I I I I I I G+G+G+G+G+G+G+G+I I I G+G+G+G+I h + I G+G+G+G+G+G+I I I I G+G+G+G+I I G+G+I H I G+G+G+G+G+G+G+G+G+G+G+G+G+G+G+G+G+I G+G+G+G+G+G+G+G+I I H h h h h H I G+G+G+G+G+G+G+G+G+G+G+G+G+G+G+G+G+G+G+G+G+G+G+G+G+G+G+G+G+G+G+G+G+G+G+G+G+G+G+G+G+G+G+G+G+G+G+G+G+G+G+G+G+G+I G+G+G+G+G+G+G+G+G+G+G+G+G+G+G+G+G+G+G+G+I I G+G+G+H H I G+G+G+I G+G+I I G+I H I I H I G+G+G+G+G+G+G+G+G+G+G+G+G+G+G+G+G+G+G+G+G+G+G+G+G+G+I G+G+I I G+G+G+G+G+G+G+I H H H H H I G+G+G+G+G+G+G+G+I I I I I I G+I G+G+G+G+G+G+G+I I I I G+G+G+G+G+I = I G+G+G+. [ [ [ [ [ [ [ [ [ [ [ [ [ [ [ [ [ [ [ [ | ^ G+G+G+G+G+G+G+G+G+G+G+I I G+G+G+G+G+",
"H I G+G+G+G+G+G+G+G+G+G+I G+I H I G+G+G+G+G+I % 5 - - - 9 - 9 - 9 9 - - - 9 - 9 - 9 - - 5 d I G+G+G+G+G+G+G+I H H H H H I G+G+G+G+G+G+G+G+G+I H I I I G+G+G+G+G+G+G+G+G+I I I I I G+G+G+G+I H H I G+G+G+G+G+G+G+G+G+G+G+G+G+G+G+G+G+G+I H G+G+G+G+G+G+G+G+G+G+G+G+G+G+G+G+G+I I G+G+G+G+G+G+G+G+I I H h h h h h I G+G+G+G+G+G+G+G+G+G+G+G+G+G+G+G+G+G+G+G+G+G+G+G+G+G+G+G+G+G+G+G+G+G+G+G+G+G+G+G+G+G+G+G+G+G+G+G+G+G+G+G+G+I H I G+G+G+G+G+G+G+G+G+G+G+G+G+G+G+G+G+G+I H I G+G+I H = I G+G+G+G+G+G+G+G+G+G+G+G+G+I H I G+G+G+G+G+G+G+I I G+G+G+G+G+G+G+G+G+G+G+G+G+G+G+G+I G+G+I I G+G+G+G+G+G+G+I H H H H H G+G+G+G+G+G+G+G+I I I I I G+G+G+G+G+G+G+G+G+G+I I I I G+G+G+G+G+I I I I G+G+G+= : [ e [ [ [ [ [ [ [ [ [ [ [ [ [ [ [ [ [ [ 9 h G+G+G+G+G+G+G+G+G+G+I I G+G+I G+G+",
"H I G+G+G+G+G+G+G+G+G+G+G+G+G+I I G+G+G+G+G++ : - - 9 9 - 9 - - 9 - - - - 9 - - 9 - 9 9 5 8 G+G+G+G+G+G+G+G+I H H H H H I G+G+G+G+G+G+G+G+I G+I I I G+G+G+G+G+G+G+G+G+I I I I I I G+G+G+G+I H I I G+G+G+G+G+G+G+G+G+G+G+G+G+G+G+G+G+G+H = I G+G+G+G+G+G+G+G+G+G+G+G+G+G+G+G+I H G+G+I G+G+G+G+G+I I H h h h h h H I G+G+G+G+G+G+G+G+G+G+G+G+G+G+G+G+G+G+G+G+G+G+G+G+G+G+G+G+G+G+G+G+G+G+G+G+G+I I G+G+I H H H H I I I I I I I H H I I I G+G+G+G+G+G+G+G+G+G+G+G+G+G+G+I H H G+G+G+H H I G+G+G+G+G+G+G+G+G+G+G+G+G+I I I G+G+G+G+G+G+G+I G+G+G+G+G+G+G+G+G+G+G+G+G+G+G+G+G+I G+G+I I G+G+G+G+G+G+G+I H H H H I G+G+G+G+G+G+G+G+I I I I I G+G+G+G+G+G+G+G+G+G+I I I I G+G+G+G+I I I I G+G+I G+I d [ e e [ [ [ [ [ [ [ [ [ [ [ [ [ [ [ [ [ [ x G+G+G+G+G+G+G+G+G+G+G+H I G+I G+G+",
"H G+G+G+G+G+G+G+G+G+G+G+G+G+G+I H I G+G+G+G+( 5 - 9 - - - - - 9 9 - - 9 - 9 9 9 9 - 9 9 9 m G+G+G+G+G+G+G+G+I H H H H H I G+G+G+G+G+G+G+G+I I I I I G+G+G+G+G+G+G+G+G+I I I I I I G+G+G+G+I I I G+I I I I G+G+I I I G+G+I I I I G+G+I h h I I G+G+G+G+G+G+G+G+G+G+G+G+G+G+G+I H G+G+I G+G+G+G+G+I I = + h h h + H I G+G+G+G+G+G+G+G+G+G+G+G+G+G+G+G+G+G+G+G+G+G+G+G+G+G+G+G+G+G+G+G+G+G+G+G+I H H I G+I H H H H H H H H H H H H H H H H H I G+G+G+G+G+G+G+G+G+G+G+G+G+I H H I G+G+I I I G+G+G+G+G+G+G+G+G+G+G+G+G+I H I I G+G+G+G+G+G+G+G+G+G+G+G+G+G+G+G+G+G+G+G+G+G+G+G+I G+G+I I G+G+G+G+G+G+G+I H H H H H I G+G+G+G+G+G+G+I I I I I I G+G+G+G+G+G+G+G+I I I I I G+G+G+G+I I I I G+I I I I 4 [ [ e [ e [ e [ e [ [ [ [ e [ [ [ [ [ [ | a G+G+G+G+G+G+G+G+G+G+I H I G+I I G+",
"I I G+G+G+G+G+G+G+G+G+G+G+G+G+I H I I G+G+G+k 5 9 9 9 9 9 9 9 9 9 9 9 - 9 9 - - - 9 - 5 : = G+G+G+G+G+G+G+G+I H H H H H I G+G+G+G+G+G+G+G+G+I I I G+G+G+G+G+G+G+G+G+G+G+I I I I I G+G+G+G+G+I I G+I H H H I G+I H H H H = = = H H H = + + = H I I G+G+G+G+G+G+G+G+G+G+G+G+G+I H G+G+G+G+G+G+G+G+I H = h h h h h H G+G+G+G+G+G+G+G+G+G+G+G+G+G+G+G+G+G+G+G+G+G+G+G+G+G+G+G+G+G+G+G+G+G+G+G+I H H I I G+I H H H H H H H H H H H H H H H H H I G+G+G+G+G+G+G+G+G+G+G+G+G+I H H I G+G+G+I I I G+G+G+G+G+G+G+G+G+G+G+G+G+I I I G+G+G+G+G+G+G+G+G+G+G+G+G+G+G+G+G+G+G+G+I I I I I G+G+G+G+G+G+G+G+G+G+G+I H H H H H G+G+G+G+G+G+G+G+I I I I G+G+G+G+G+G+G+G+G+G+I I I I I I G+G+G+G+G+I I I I H = H ( 5 [ [ e e [ [ e [ [ e e [ [ [ [ e [ [ e [ ^ G+G+G+G+G+G+G+G+G+G+G+H I G+G+G+G+",
"G+I G+G+G+G+G+G+G+G+G+G+G+G+G+G+I I G+G+G+I d 5 - 9 9 9 - - 9 9 9 9 9 9 9 9 9 - - - - 5 d G+I G+G+G+G+G+G+G+I H H H H H I G+G+G+G+G+G+G+G+G+I I I G+G+G+G+G+G+G+G+G+G+I I I I I I G+G+G+G+G+I I G+I H H H H G+G+H H h h h h h h h h h + h h = H I I G+G+G+G+G+G+G+G+G+G+G+G+I H G+G+G+G+G+G+G+G+I I H h = = = H I G+G+G+I G+G+G+G+G+G+G+G+G+G+G+G+G+G+G+G+G+G+G+G+G+G+G+G+G+G+G+G+G+G+G+G+G+I G+G+G+G+G+I I I I I I I I I I I I I I I I G+G+G+G+G+G+G+G+G+G+G+G+G+G+G+G+I H I G+G+G+I I G+G+G+G+G+G+G+G+G+G+G+G+G+G+G+I G+G+G+G+G+G+G+G+G+G+I I G+G+G+G+G+G+G+G+I I I I I H I G+G+G+G+G+G+G+G+G+I I H H H H I G+G+G+G+G+G+G+G+G+I I I I G+G+G+G+G+G+G+G+G+I I I I I I G+G+G+G+G+I I G+I H H H h : [ 5 e e [ e [ [ e [ [ e [ [ [ [ e e [ [ 9 I G+G+G+G+G+G+G+G+G+G+I G+G+G+G+G+",
"I I G+G+G+G+G+G+G+G+G+G+G+G+G+G+G+I G+G+G+h : - 9 9 9 9 9 9 9 9 9 9 9 9 9 - 9 - 9 9 9 n j G+I G+G+G+G+G+G+G+I H H H H H I G+G+G+G+G+G+G+G+G+I I I G+G+G+G+G+G+G+G+G+G+G+I I I I I G+G+G+G+G+I I G+I = = = H G+G+I H h h h h h h + h h h h h = H I I G+G+G+G+G+G+G+G+G+G+G+G+G+I G+G+G+G+G+G+G+G+G+I I H H H H I I G+G+I I I I G+G+G+G+G+G+G+G+G+G+G+G+G+G+G+G+G+G+G+G+G+G+G+G+G+G+G+G+G+G+G+G+G+G+G+G+G+G+G+G+G+G+G+G+G+G+G+G+G+G+G+G+G+G+G+G+G+G+G+G+G+G+G+G+G+G+G+G+G+I H G+G+G+H H H G+G+G+G+G+G+G+G+G+G+G+G+G+G+G+G+G+G+G+G+G+G+G+G+G+I I H I I I I I G+I I I H H I I H H G+G+G+G+G+G+G+G+G+G+I H H H H I G+G+G+G+G+G+G+G+G+I I I G+G+G+G+G+G+G+G+G+G+G+I I I I G+G+G+G+G+G+G+G+G+G+I I I I d [ [ e > [ 5 [ e [ [ e e [ 5 [ 5 [ 5 [ [ [ m G+G+G+G+G+G+G+G+I G+G+G+G+G+G+G+",
"= I G+G+G+G+G+G+G+G+G+G+G+G+G+G+G+G+G+G+G+. 9 9 9 9 9 9 9 9 9 9 9 9 9 9 9 9 9 9 9 9 9 9 . G+G+G+G+G+G+G+G+G+I H H H H I G+G+G+G+G+G+G+I G+G+I I I G+G+G+G+G+G+G+G+G+G+I I I I I I G+G+G+G+I I I G+G+I I I G+G+G+G+I I I I I I I I I I I I I I G+G+G+G+G+G+G+G+G+G+G+G+G+G+G+G+G+G+G+G+G+G+G+G+G+I I I I I G+G+G+G+G+G+G+G+G+G+G+G+G+G+G+G+G+G+G+G+G+G+G+G+G+G+G+G+G+G+G+G+G+G+G+G+G+G+G+G+G+G+G+G+G+G+G+G+G+G+G+G+G+G+G+G+G+G+G+G+G+G+G+G+G+G+G+G+G+G+G+G+G+G+G+G+G+G+G+I H I G+I H h H G+G+G+I H H I G+G+G+G+G+G+G+G+G+G+G+G+G+G+G+G+I I I I h = = H I G+G+I I I H I I I H I G+G+G+G+G+G+G+G+G+G+I I I I I G+G+G+G+G+I I I G+G+I I I G+G+G+G+G+G+G+G+G+G+G+G+I I I G+G+G+G+G+G+I G+G+G+G+I G+G+4 [ [ [ 5 [ 5 e 5 [ e [ e e 5 e e [ > e [ [ 4 G+G+G+G+G+G+G+G+G+I G+G+G+G+G+G+",
"h I G+G+G+I H H I G+G+G+G+G+G+I G+G+G+G+G+4 9 9 9 9 9 9 9 9 9 9 9 9 9 9 9 9 9 9 9 9 - : = G+G+G+G+G+G+G+G+G+G+I I I G+G+G+G+G+G+I I I I G+G+I I I I G+G+G+G+G+G+G+G+G+G+I I I I G+G+G+G+G+G+I G+G+G+G+G+G+G+G+G+G+G+G+G+G+G+G+G+G+G+G+G+G+G+G+G+G+G+G+G+G+G+G+G+G+G+G+G+G+G+I G+G+G+G+G+G+G+G+G+G+G+I G+G+G+G+G+G+G+G+G+G+G+G+G+G+G+G+G+G+G+G+G+G+G+G+G+G+G+G+G+G+G+G+G+G+G+G+G+G+G+G+G+G+G+G+G+G+I I I I H H H H H I G+G+G+G+G+I I I I I I I I I I G+G+G+I G+G+G+G+G+G+I H I G+I h h H G+G+G+H H H H I G+G+G+G+G+G+G+G+G+G+G+I I G+I H H I I = = I I G+G+G+G+G+I I I I I I G+G+G+G+G+G+G+G+G+G+G+G+G+G+G+G+G+G+G+G+G+I I G+G+G+I I I I G+G+G+G+G+G+G+G+G+G+I I I I I G+G+G+G+I I G+G+G+G+G+G+G+m > e [ e 5 [ e 5 [ 5 5 [ 5 [ 5 5 [ e [ e [ , G+G+G+G+G+I G+G+G+G+G+G+G+G+G+G+",
"h I G+G+I H H H H I I I I I H I I I G+I I 7 9 9 9 9 9 9 9 9 9 9 9 9 9 9 9 9 9 9 9 9 - d G+G+G+G+G+G+G+G+G+G+G+G+G+G+G+G+G+G+G+G+G+G+G+G+G+I I I I I G+G+G+G+G+G+G+G+G+I I I I I I G+G+G+I I I G+G+G+G+G+G+G+G+G+I I I I = H I G+G+G+G+G+I I G+G+G+G+G+G+G+G+G+G+G+I I G+G+G+G+I G+G+G+G+G+G+G+G+G+G+G+G+G+G+G+G+G+G+G+G+G+G+G+G+G+G+G+I I G+G+G+H I G+G+G+G+G+G+G+G+G+G+G+G+G+G+G+G+G+G+G+G+G+I H H H H H H H H H H H I G+G+G+G+I H H H I I I I I I I G+G+G+G+G+G+G+G+G+H = I G+I h h H G+G+G+H H H H H I I I I I H I I I I I H H I I H H I I H I G+G+G+G+G+I I G+G+I I I G+G+G+G+G+G+G+G+G+G+G+G+G+G+G+G+G+G+G+G+G+G+G+G+G+G+I I I I I I G+G+I I G+G+G+G+I I I I I I I G+G+I I G+G+G+G+G+G+G+G+= 9 [ 5 5 5 5 [ 5 e 5 5 5 5 [ 5 e 5 [ [ [ [ ^ I I G+G+G+I G+G+G+G+G+G+G+G+G+G+",
"h I G+G+I H = h + = H H I I H = H = = H h ^ 9 9 9 9 9 9 9 9 9 9 9 9 9 9 9 9 9 9 9 9 9 8 G+G+G+G+G+G+G+G+G+G+G+G+G+G+G+G+G+G+G+G+G+G+G+G+I I I I I I I I I H I I I G+G+G+I I I H I G+G+G+I I I G+G+G+G+G+G+I H H = h h h + * + I G+G+G+G+H H H I I I H H H I I G+G+I I G+G+G+G+G+I G+G+G+G+G+G+G+G+G+G+G+G+G+G+G+G+G+G+I I I I G+G+G+G+G+G+G+G+I H I G+G+G+G+G+G+G+G+G+G+G+G+G+G+G+G+G+G+G+G+G+I I I H I I I I H H H H G+G+G+G+G+G+G+G+G+G+G+G+G+G+G+G+G+G+G+G+G+G+G+G+I H h I G+I H h H G+G+G+I H = = = H H H I I = = h + h = H H h h = H I G+G+G+G+G+G+G+H H H I G+I I I G+G+G+G+G+G+G+G+G+G+G+G+G+G+G+G+G+G+G+G+G+G+G+G+I I I H H I I I I = = I G+G+G+G+G+I I H H I I I I I I G+G+G+G+G+G+I H = % [ e 5 5 5 5 5 5 e 5 5 5 5 5 [ 5 [ [ 5 [ - h I G+G+G+I G+G+G+G+G+G+G+G+G+G+",
"H I G+G+G+I = h h = = I I I I H = + * + . f 9 9 9 9 9 9 9 9 9 9 9 9 9 9 9 9 9 9 9 9 5 ( G+G+G+G+G+G+G+G+G+G+G+G+G+G+G+G+G+G+G+G+G+I I H I I H H I I I H h h I G+I I G+G+G+I = H I I G+I I I G+G+G+G+G+G+I H = H H H = * * * * h G+G+G+G+H = H I I I I I I I I G+G+G+G+G+G+G+G+G+G+G+G+G+G+G+G+I I I G+G+G+G+G+G+G+G+G+I I G+G+G+G+G+G+G+G+G+G+G+G+G+G+G+G+G+G+G+G+G+G+G+G+G+G+G+G+G+G+G+G+G+G+G+G+G+G+G+G+G+G+G+G+G+G+G+G+G+G+G+G+G+G+G+G+G+G+G+G+G+G+G+G+I G+G+G+G+G+I = h I G+I H h I G+G+G+G+I H H = = H I I I I = * m * * H H h h = I I G+G+G+G+G+G+G+H H H I G+I H I G+G+G+G+G+G+G+G+G+G+G+G+G+G+G+G+G+G+G+G+G+G+I I H H H H H I I I = + + H I I G+G+G+G+I H I I G+G+x I I G+G+G+G+G+G+I I H 8 [ 5 5 5 5 5 5 5 5 5 5 5 5 e [ 5 5 5 e [ 5 m G+G+G+G+G+G+G+G+G+G+G+G+G+G+G+",
"H G+G+G+G+I H H H H I I G+G+G+I H h * h ( 9 9 9 9 9 9 9 9 9 9 9 9 9 9 9 9 9 9 9 9 9 9 h G+G+G+G+G+G+G+G+G+G+G+G+G+G+G+G+G+G+G+G+G+I H = = H H I I I I H = H I I I I I G+I I I I I G+G+G+G+G+G+G+G+G+G+G+G+I I I G+G+I = h + = H G+G+G+G+I I I G+G+G+G+G+G+G+G+G+G+G+I G+G+G+G+G+G+G+G+G+G+I H H I I G+G+G+G+G+G+G+G+G+G+G+G+G+G+G+G+G+G+G+G+G+G+G+G+G+G+G+G+G+G+G+G+G+G+G+G+G+G+G+G+G+G+G+G+G+G+G+G+G+G+G+G+G+G+G+G+G+G+G+G+G+G+G+G+G+G+G+G+G+G+G+G+G+G+G+G+G+G+G+G+G+I H H I G+I H H I G+G+G+G+I H H I I I G+G+G+G+I h h * h H H H H I G+G+G+G+G+G+G+G+G+H H H I I I H I G+G+G+G+G+G+G+G+G+G+G+G+G+G+G+G+G+G+G+G+G+G+I H H = H I I I I I I I I I I H I I G+I I I I G+G+G+F+G+G+G+G+G+G+G+G+G+G+G+. [ e 5 5 5 5 5 5 5 5 5 5 5 5 5 5 e 5 5 e e ' G+G+G+G+I G+G+G+G+G+G+G+G+I I ",
"I G+G+G+I I H I I G+G+G+G+G+G+G+G+I H H j 9 9 9 9 9 9 9 9 9 9 9 9 9 9 9 9 9 9 9 9 9 ^ H G+G+G+G+G+G+G+G+G+G+G+G+G+G+G+G+G+G+G+G+G+I H H H I I I G+G+G+G+G+G+G+I I I I I I I I I I G+G+G+G+G+G+G+G+G+G+G+G+G+G+G+G+G+G+G+I I I G+G+G+G+G+G+G+G+G+G+G+G+G+G+G+G+G+G+I I G+G+G+G+G+G+G+G+I I I h h = I G+G+G+G+G+G+G+G+G+G+G+G+G+G+G+G+G+G+G+I G+G+G+G+G+G+G+G+G+G+G+G+G+G+G+G+G+G+G+G+G+G+G+G+G+G+G+G+G+G+G+G+G+G+G+G+G+G+G+G+G+G+G+G+G+G+G+G+G+G+G+G+G+G+G+G+G+G+G+G+G+I I H G+G+I H H G+G+G+G+H = I I I G+G+G+G+G+G+G+G+H H H H H H G+G+G+G+G+G+G+G+G+G+G+I H H I I I H I G+G+G+G+G+G+I G+G+G+G+G+G+G+G+G+G+G+G+G+G+G+G+I H H I I G+G+G+G+G+G+G+G+G+I H I I I I I I G+G+G+G+G+G+G+G+G+G+G+G+G+G+G+h - [ 5 5 5 5 5 5 5 5 5 5 5 e 5 e 5 5 5 5 [ k G+G+G+G+I G+G+G+G+G+G+G+G+I H ",
"I G+G+G+= + h I G+G+G+G+G+G+G+G+G+G+I I k 5 9 9 9 9 9 9 9 9 9 9 9 9 9 9 9 9 9 9 9 n d I G+G+G+I I I I I G+G+G+G+G+G+G+G+G+G+G+G+G+I I I I I G+G+G+G+G+G+G+G+G+G+I I I I I G+G+G+G+G+G+G+G+G+G+G+G+G+G+G+G+G+G+G+G+G+G+G+G+G+G+G+G+G+G+G+G+G+G+G+G+G+G+G+G+G+G+G+G+G+G+G+G+G+G+G+G+G+G+I H I H = H I G+G+G+G+G+G+G+G+G+G+I I I G+G+G+G+G+I G+G+G+I I G+G+G+G+G+G+G+G+G+G+I I G+G+G+I I G+G+G+G+G+G+G+G+G+G+G+G+G+G+G+G+G+G+G+G+G+G+G+G+G+G+G+G+G+G+G+G+G+G+G+G+G+G+G+G+I G+G+G+G+I H H G+G+G+I + * H I G+G+G+G+G+G+G+G+G+G+I H H H H G+G+G+G+G+G+G+G+G+G+G+I H H I I H H I G+G+G+G+I H H H I H I G+G+G+G+G+G+G+G+G+G+G+G+I I I G+G+G+G+G+G+G+G+G+G+G+I I H I I I G+G+G+G+G+I G+G+G+G+G+G+G+G+G+G+G+H ^ e 5 5 5 5 5 5 5 5 5 5 5 5 5 5 5 5 5 5 [ ^ G+G+G+G+G+G+G+G+G+G+G+G+G+G+G+",
"H G+G+I + . h I G+G+G+G+G+G+G+G+G+G+G+I d 9 9 9 9 9 9 9 9 9 9 9 9 9 9 9 9 9 9 9 9 5 8 G+G+G+G+I = H H H H G+G+G+G+G+G+G+G+G+G+G+G+I I I I G+G+G+G+G+G+G+G+G+G+G+G+I I I I I G+I G+G+G+G+G+G+G+G+G+G+G+G+G+G+G+G+G+G+G+I I I I G+G+G+G+G+G+G+G+G+G+G+G+G+G+G+G+G+G+G+G+G+G+G+G+G+G+G+G+G+G+G+G+G+I G+G+G+G+G+G+G+G+G+I H h h H G+G+G+G+I I G+G+H H H G+G+G+G+G+G+G+G+I I I I I G+I I I G+G+G+G+G+G+G+G+G+G+G+G+G+G+G+G+G+G+G+G+G+G+G+G+G+G+G+G+G+G+G+G+G+G+G+G+G+G+G+G+G+G+G+G+G+I H H I G+G+H * * I G+G+G+G+G+G+G+G+G+G+G+G+I H H H I G+G+G+G+G+G+G+G+G+G+I H H I I H H I G+G+G+G+I H H I I I I G+G+G+G+G+G+G+G+G+G+I I H H I G+G+G+G+G+G+G+G+G+G+G+G+G+I H I G+I I G+G+G+Y G+G+G+G+G+G+G+G+G+G+G+G+d [ 5 5 5 5 5 5 5 5 5 5 5 5 5 5 5 5 5 5 [ ^ = G+G+G+G+G+G+G+G+G+G+G+G+G+G+",
"H I G+I h + H G+G+G+G+G+G+G+G+G+G+G+G+H ^ 9 9 9 9 9 9 9 9 9 9 9 9 9 9 9 9 9 9 9 9 9 ( G+G+G+G+I H I I I I G+G+G+G+G+G+G+G+G+G+I I H = I G+G+G+G+G+G+G+G+G+G+G+G+G+G+I H I I I I G+G+G+G+G+G+G+G+G+G+G+G+G+G+G+G+G+G+G+G+G+G+G+G+G+G+G+G+G+G+G+G+G+G+G+G+G+G+G+G+G+G+G+G+G+G+G+G+G+G+G+G+G+G+G+G+G+G+G+G+G+G+G+G+G+I H h h H H I G+G+G+G+G+G+G+I H I G+G+G+G+G+G+G+G+I I I = I I I I I G+G+G+G+G+G+G+G+G+G+G+G+G+G+G+G+G+G+G+G+G+G+G+G+G+G+G+G+G+G+G+G+G+G+G+G+G+G+G+G+G+G+G+G+G+I H H H G+I I = H I G+G+G+G+G+G+G+G+G+G+G+G+G+I H H I G+G+G+G+G+G+G+G+G+G+I H H I I H I I G+G+G+G+G+I G+G+G+G+G+G+G+G+G+G+G+G+G+I H h + * h I G+G+G+G+G+G+G+I I G+G+G+G+I H H I I H I I I I G+G+G+G+G+G+G+G+G+G+G+G+j [ 5 5 5 5 5 5 5 5 5 5 5 5 5 5 5 5 5 5 e 9 h G+G+G+G+G+G+G+G+G+G+G+G+G+I ",
"H I I I H I G+G+G+G+G+G+G+G+G+G+G+G+G+= f 9 9 9 : 9 9 9 9 9 9 9 9 9 9 9 9 9 9 9 9 : m G+G+G+G+G+G+G+G+G+G+G+G+G+G+G+G+G+G+G+I H h * * h G+G+G+G+G+G+G+I I I G+G+G+G+G+I H I I I I I G+G+G+G+G+G+G+G+G+G+G+G+G+G+G+G+G+G+G+G+G+G+G+G+G+G+G+G+G+G+G+G+G+G+G+G+G+G+G+G+G+G+G+G+G+I G+G+G+I I I I I G+G+G+G+G+G+G+G+G+H h h H H H H I G+G+G+G+G+G+G+I I G+G+G+G+G+G+G+G+G+G+I = I I I I I G+G+G+G+G+G+G+G+G+G+G+G+G+G+G+G+G+G+G+G+G+G+G+G+G+G+G+G+G+G+G+G+G+G+G+G+G+G+G+G+G+G+G+G+G+G+H H H I I I H I G+G+G+G+G+G+G+G+G+G+G+G+G+G+G+I H I G+G+G+G+G+G+G+G+G+G+I H I G+G+I I I G+G+G+G+G+I G+G+G+G+G+G+G+G+G+G+G+G+G+I H h * m * I G+G+G+G+G+G+G+I I G+G+G+G+I I H I I H I I H I G+G+G+G+G+G+G+G+G+G+G+G+( 5 5 5 5 5 5 5 5 5 5 5 5 5 5 5 5 5 5 5 5 5 m G+G+G+G+G+G+G+I I G+G+G+G+I ",
"H H I I H I G+G+G+G+G+G+G+G+G+G+G+G+G+m 9 9 9 9 9 9 9 9 9 9 9 9 9 9 9 9 9 9 9 9 9 ^ h G+G+G+G+I I G+G+G+G+G+G+G+G+G+G+G+G+I H = + * m * I G+G+G+G+G+G+G+I I G+G+G+G+G+G+I I I I G+I I G+G+G+G+G+G+G+G+G+G+G+G+G+G+I I I I I I G+G+G+G+G+G+I I I G+G+G+G+G+G+G+G+G+G+G+G+G+G+I I I G+G+I I I I I G+G+G+I I G+G+G+I + h H H h h H I G+G+G+G+G+G+G+I I G+G+G+G+G+G+G+G+G+I I I I G+I I I I G+G+G+G+G+G+G+G+G+G+G+G+G+G+G+G+G+G+G+G+G+G+G+G+G+G+G+G+G+G+G+G+G+G+G+G+G+G+G+G+G+G+G+G+G+I H H H I H H I G+G+G+G+G+G+G+G+G+G+G+G+G+G+G+G+G+G+G+G+G+G+G+G+G+G+G+G+G+I G+G+G+I I I I G+G+G+I H H I G+G+G+G+G+G+G+G+G+G+G+H H h * * * I G+G+G+G+G+G+G+G+I G+G+G+G+G+G+G+G+I I G+I H I G+G+G+G+G+G+G+G+G+G+G+G+m - 5 5 5 5 5 5 5 5 5 5 5 5 5 5 5 5 5 5 5 [ 4 G+G+G+G+G+G+G+I I I G+G+G+G+",
"H H H H H H I G+G+G+I G+G+G+G+G+G+G+G+( 9 9 9 : 9 9 : 9 9 : : 9 9 9 9 : : : 9 9 9 % H G+G+G+G+I H H I G+G+G+G+G+G+G+G+G+G+I H H h * * + I G+G+G+G+G+G+G+G+I G+G+G+G+G+G+G+G+G+G+G+I I G+G+G+G+G+G+G+G+G+G+G+G+G+I I H H H H I G+G+G+G+I I I H I G+G+G+G+G+G+G+G+G+I I G+G+G+I I I I G+G+I I I G+G+I I I I G+G+I H h h H h + * = I G+G+G+G+G+G+G+H I G+G+G+G+G+G+G+I H I I I G+G+G+I I I G+G+G+G+G+G+G+G+G+G+G+G+G+G+G+G+G+G+G+G+G+G+G+G+G+G+G+G+G+G+G+G+G+G+G+G+G+G+G+G+G+G+G+G+I H H H H H = = H G+G+G+I I G+G+G+G+G+G+G+G+G+G+G+G+G+G+G+G+G+G+G+G+G+G+G+G+G+G+G+G+G+I I I G+G+G+I H H I G+G+G+G+G+G+G+G+G+G+G+H H h * * * I G+G+G+G+G+G+G+G+I G+G+G+G+G+G+G+G+G+I G+I I G+G+G+G+G+G+G+G+G+G+G+G+G+h 9 5 5 5 5 5 5 5 5 5 5 5 5 5 5 5 5 5 5 5 [ k G+G+I I G+G+G+I I I G+G+G+G+",
"H H H H = = I G+G+G+I G+G+G+G+G+G+G+G+4 9 : : : : : : 9 : : 9 : : : : : : 9 9 9 9 d I I G+G+G+I I I G+G+G+G+G+G+G+G+G+G+G+I H H h + * + I G+G+G+G+G+G+G+G+G+G+G+G+G+G+G+G+G+I I G+I G+G+G+G+G+G+G+G+G+G+G+G+G+G+I I H H H H I I G+G+I I H I I I I G+G+G+G+G+G+G+G+I I I G+G+I I I I G+G+G+I G+G+I I I I G+G+I H I I I H h + = I G+G+G+I G+G+G+I H I G+G+G+G+G+G+G+G+I I I G+G+G+G+G+G+G+G+G+G+G+G+G+G+G+G+G+G+G+G+G+G+G+G+G+G+G+G+G+G+G+G+G+G+G+G+G+G+G+G+G+G+G+G+G+G+G+G+G+G+G+I H H I H H H h h I G+I I I G+G+G+G+G+G+G+G+G+G+G+G+G+G+G+G+G+G+G+G+G+G+G+G+G+G+G+G+G+G+I I G+G+G+G+G+G+G+G+G+G+G+G+G+G+G+G+G+G+I H h + * + I G+G+G+G+G+G+G+G+I G+G+G+G+G+G+G+G+I I I G+G+G+G+G+G+G+G+G+G+G+G+G+G+G+I f e 5 5 5 5 5 5 5 5 5 5 5 5 5 5 5 5 5 5 e d G+G+I I G+G+G+I I I G+G+G+I ",
"H I I I = m + = Y I = = G+F+F+G+7.F+F+d 5 9 : : : : : : : : : : : : : : : : : 9 9 j G+G+G+G+G+G+G+G+G+G+G+G+G+G+G+G+G+G+G+G+I H h + * h G+G+G+G+G+G+G+G+I G+G+G+G+G+G+I I I I I I G+G+G+G+G+G+G+G+G+G+G+G+G+G+I I I H H H H I G+G+G+I H H I G+G+G+G+G+G+G+G+G+G+G+I I I G+G+I I I I G+G+I I G+G+I I I I G+I I I I G+I H H H G+G+G+I I I G+G+G+H H I G+G+G+G+G+G+G+I I I I G+G+G+G+G+G+G+G+G+G+G+G+G+G+G+G+G+G+G+G+G+G+G+G+G+G+G+G+G+G+G+G+G+G+G+G+G+G+G+G+G+G+G+G+G+G+G+I I G+G+I H H I G+I H = = I G+I I I G+G+G+G+G+G+G+G+G+G+G+G+G+I I I G+G+G+G+G+G+G+G+G+G+G+G+G+G+I G+G+G+G+G+G+G+G+G+G+G+G+G+G+G+G+G+G+G+G+I H h + H G+G+G+G+G+G+G+G+I I G+G+G+G+G+I I I I I G+G+G+G+G+G+G+G+G+G+G+G+G+G+G+I I d e 5 5 5 5 5 5 5 5 5 5 5 5 5 5 5 [ [ [ [ 0 = F+h = = F+I = = = I I G+I ",
"].X $.m.F.o.>.>.*.F.W.@+F.*.R %.%.n.%.%.#.O 3 : : : : : : : : : : : : : : : 9 : 9 ( G+G+G+G+G+G+G+G+G+G+G+G+G+G+G+G+G+G+G+G+I I I = h H G+G+G+G+G+G+G+I I I G+G+G+G+G+H H I I I I G+G+G+G+G+G+G+G+I I G+G+G+I I I I H H H H I G+G+G+I I I G+G+G+G+G+G+G+G+G+G+G+G+G+I I G+G+I I I I G+G+I I G+I I I G+G+I I I I G+G+I H I G+G+G+I I I I G+G+G+G+G+G+G+G+G+G+G+G+G+I I G+I G+G+G+G+G+G+G+G+G+G+G+G+G+G+G+G+G+G+G+G+G+G+G+G+G+G+G+G+G+G+G+G+G+G+G+G+G+G+G+G+G+G+G+G+G+G+G+I I G+G+I H H H G+G+I I I G+I I I I G+G+G+G+G+G+G+G+G+G+I I I H H H I G+G+G+G+G+G+G+G+G+G+G+G+G+I G+G+G+G+G+G+G+G+G+G+G+G+G+G+G+G+G+G+G+G+G+G+I H I G+G+G+G+G+G+G+G+I I G+G+G+G+I I I I I I G+G+G+G+G+G+G+G+G+I I G+G+I I I I 8 5 5 5 5 5 5 5 5 5 5 5 5 5 5 1 O #.Q Q n.Q %.R *.F.@+W.F.*.>.>.o.F.m.$.",
"U U U @.@.,+++*.D.U.C.,+w.+. .Y. .$.-.].*.C.Q : : : : : : : : : : : : : : : : 9 : m G+G+G+G+G+I G+G+G+G+G+G+G+G+G+G+G+G+G+G+G+G+G+G+I I I G+G+G+G+G+G+G+I G+G+G+G+G+I I I I I I G+G+G+G+G+G+G+G+G+G+I G+G+G+G+I I I I I I I I G+G+G+I I G+G+G+G+G+G+G+G+G+G+G+G+G+G+I I G+G+I I I I I G+I I I I H I G+G+I = I G+G+I I I I G+G+I I I I I G+G+G+G+G+G+G+G+G+G+G+G+G+G+I I G+G+G+G+I G+G+G+G+G+G+G+G+G+G+G+G+G+G+G+G+G+G+G+G+G+G+G+G+G+G+G+G+G+G+G+G+G+G+G+G+G+G+G+G+G+G+G+I I G+G+G+H H I G+G+G+G+G+G+I H H I G+G+G+G+G+G+G+G+G+I I I I H = = I I I H I G+G+G+G+G+G+G+G+G+G+G+G+G+G+I I G+G+G+G+G+G+G+G+G+G+G+G+G+G+G+G+G+I I G+G+G+G+G+G+G+G+G+G+G+G+G+G+I I I G+G+I G+G+G+I G+G+G+G+G+G+I G+G+G+G+I I 4 5 5 5 5 5 5 5 5 5 5 5 5 5 5 Q C.*.].-.$. .Y. .+.w.,+C.U.D.*.++,+@.@.U ",
"@.U @.@.w.++++u.,+D.D.U.V.W.C.M.*.>.>.#.M.;.R : : : : : : : : : : : : : : : : 9 : h G+G+G+G+I I I G+G+G+G+G+G+G+G+G+G+G+G+G+G+G+G+G+G+I I I G+G+G+G+G+G+G+G+G+G+G+I I I I G+I I G+G+G+G+G+G+G+G+G+G+G+G+G+G+G+I I I I I I H I G+G+G+I G+G+G+G+G+G+G+G+G+G+G+G+G+G+G+I I G+G+G+I G+G+I I I I G+G+I I G+G+G+I I G+G+H I I G+G+G+I I I I I G+G+G+G+G+G+G+G+G+G+G+G+G+G+G+G+G+G+G+G+G+G+G+G+G+G+G+G+G+G+G+G+G+G+G+G+G+G+G+G+G+G+G+G+G+G+G+G+G+G+G+G+G+G+G+G+G+G+G+G+G+G+G+G+I H G+G+G+H H I G+G+G+G+G+I H h = H I G+G+G+G+G+G+G+I I I I I H h + H H H H H G+G+I H I G+G+G+G+G+G+G+G+I I I I G+G+G+G+G+G+G+G+G+G+G+G+G+G+G+G+G+I I I G+G+G+G+G+G+G+G+G+G+G+G+I G+G+G+G+G+G+G+G+G+G+G+G+G+G+G+G+G+G+G+G+I I . 5 5 5 5 5 5 5 5 5 5 5 5 5 5 R ;.M.#.>.>.*.M.C.W.V.U.D.D.,+u.++++w.@.@.",
"@.U U @.u.O.>+V.N.v.V.,+N.D.,+++W.].w.M.W.w.D.y y P O P Q O P P N N z l l z P P P  .n.n.m.P.G.P.G.I G+G+G+G+G+G+G+G+G+G+G+G+G+G+G+G+G+I I I I G+G+G+G+G+G+G+G+G+G+G+G+G+G+G+G+G+G+G+G+G+G+G+G+G+G+G+G+G+G+G+G+G+I I H H H H I G+G+G+I G+G+G+G+G+G+G+G+G+G+G+G+G+G+G+I I G+G+G+I G+G+G+I I I G+G+I I G+G+G+G+G+G+I I H I G+G+I H H I I I G+G+G+G+G+G+G+G+G+G+G+G+G+G+G+G+G+G+G+G+G+G+G+G+G+G+G+G+G+G+G+G+G+G+G+G+G+G+G+G+G+G+G+G+G+G+G+G+G+G+G+G+G+G+G+G+G+G+G+G+G+G+G+G+I H G+G+G+I H G+G+G+G+G+G+I = + + h I G+G+G+G+G+G+I I I H H H = h + = H H H I G+G+G+H H G+G+G+G+G+G+G+G+G+I G+I G+G+G+G+G+G+G+G+G+G+G+G+G+G+G+G+G+I I I G+G+G+G+G+G+G+G+G+G+G+G+G+G+G+G+G+G+G+G+G+7.=.X.9.P.G.P.m.n.n.m.Y.n.n.+.l l z L N P P O Q V O P N y #.w.W.M.w.].W.++,+D.N.,+V.v.N.V.>+O.u.@.U ",
"@.U U @.O.N.>+u.V.u.++O.N.D.M.N.w.,+D.D.>.@.N.Y.B.M.w.++].*.*.D.V.w.N.U U U >.V.>+N.++V.W.U.C.E.F.G+G+G+G+G+G+G+G+G+G+G+G+G+G+G+G+G+G+I I I I I I G+G+G+G+G+G+G+G+G+G+G+G+G+G+G+G+G+G+G+G+G+G+G+I G+I G+G+G+G+G+G+I H H I I I G+G+G+G+G+G+G+G+G+G+G+G+G+G+G+G+G+G+I I I G+G+G+I G+G+G+G+G+G+G+G+I I G+G+G+I G+G+I I I G+G+G+I H H I I G+G+G+G+G+G+G+G+G+G+G+G+G+G+G+G+G+G+G+G+G+G+G+G+G+G+G+G+G+G+G+G+G+G+G+G+G+G+G+G+G+G+G+G+G+G+G+G+G+G+G+G+G+G+G+G+G+G+G+G+G+G+G+G+G+I H G+G+G+I I G+G+G+G+G+G+G+I h * + H I I I I I I I I I = h H H = + H I I H H G+G+I I I G+G+G+G+G+G+G+G+G+G+I G+G+G+G+G+G+G+G+G+G+G+G+G+G+G+G+G+G+G+I I I I I G+G+G+G+G+G+G+G+G+G+G+G+G+G+G+G+G+G+..X.n.F.E.C.U.W.V.++N.>+V.>.U U U N.w.V.D.*.*.].++w.M.B.Y.N.@.>.D.D.,+w.N.M.D.N.O.++u.V.u.>+N.O.@.U ",
"D.O.].,+u.O.N.++,+v.N.].O.,.,.u.++W.W.E.>.>.W.P.Y.F.w.D.*.#.D.N.++V.U.].U U >.U.++,+M.M.D.D.M.E.m.G+G+G+G+G+G+G+G+G+G+G+G+G+G+G+G+G+G+G+G+I I I I G+G+G+G+G+G+G+G+G+G+G+G+G+G+G+G+G+G+G+G+G+G+G+G+I G+G+G+G+G+G+G+G+I H H I I G+G+G+I G+G+G+G+G+G+G+G+G+G+G+I G+G+I H I G+G+G+I G+G+G+G+G+G+G+G+G+I G+G+G+I G+G+I I I G+G+G+I I I I I G+G+G+G+G+G+G+G+G+G+G+G+G+G+G+G+G+G+G+G+G+G+G+G+G+G+G+G+G+G+G+G+G+G+G+G+G+G+G+G+G+G+G+G+G+G+G+G+G+G+G+G+G+G+G+G+G+G+G+G+G+G+G+G+G+I H G+G+G+G+G+G+G+G+G+G+G+G+G+I = = H I I I I I I I I I = = H = = = I I I H I G+G+G+G+G+G+G+G+G+G+G+G+G+G+G+G+G+G+G+G+G+G+G+G+G+G+G+G+G+G+G+G+G+G+G+G+I I I I G+G+G+G+G+G+G+G+G+G+G+G+I I I G+G+G+..X.P.m.E.M.D.D.M.M.,+++U.>.U U ].U.V.++N.D.#.*.D.w.F.Y.P.W.>.>.E.W.W.++u.,.,.O.].N.v.,+++N.O.u.,+].",
"W.u.O.].#.++++V.u.++N.N.D.].*.O.++u.C.$.,+@+o.P.Y.F.D.++C.o.].++W.M.u.u.].].w.N.++++V.W.,+w.U.F..+G+G+G+G+G+G+G+G+G+G+G+G+G+G+G+G+G+G+G+G+G+I I I I G+G+G+G+G+G+G+G+G+G+G+I I I G+G+G+G+G+G+G+G+G+G+I G+G+G+G+G+G+G+G+I I I G+G+G+G+I I G+G+G+G+G+G+G+G+G+G+G+I G+I = I G+G+I G+G+G+G+G+G+G+G+G+G+I G+G+G+I G+G+G+I I G+G+G+G+I I I I G+G+G+G+G+G+G+G+G+G+G+G+G+G+G+G+G+G+G+G+G+G+G+G+G+G+G+G+G+G+G+G+G+G+G+G+G+G+G+G+G+G+G+G+G+G+G+G+G+G+G+G+G+G+G+G+G+G+G+G+G+G+G+G+G+I H G+G+G+G+G+G+G+G+G+G+G+G+G+G+I I I I I I I I I I G+G+I I I = H H I G+G+I I G+G+G+G+G+G+G+G+G+G+G+G+G+G+G+G+G+G+G+G+G+G+G+G+G+G+G+G+G+G+G+G+G+G+G+G+G+I I G+G+G+G+G+G+G+G+G+G+G+G+G+G+I I G+G+G+E+&.G..+F.U.w.,+W.V.++++N.w.].].u.u.M.W.++].o.C.++D.F.Y.P.o.@+,+$.C.u.++O.*.].D.N.N.++u.V.++++#.].O.",
"++V.*.U @.N.N.V.u.O.O.w.V.U.D.V.N.,+B.-.*.o.+.G.G.E.M.O.>.].N.N.V.++>+:+W.D.++O.++>+N.++u.C.M.M.m.G+G+G+G+G+G+G+G+G+G+G+G+G+G+G+G+G+G+G+G+G+G+G+G+G+G+G+G+G+G+G+G+G+G+G+G+G+I I G+G+G+G+G+G+G+G+G+G+G+I G+G+G+G+G+G+G+G+G+G+G+G+G+G+I I G+G+G+G+G+G+G+G+G+G+I G+G+I = I G+G+I I G+G+G+G+I I I I I I I G+G+I G+G+I I G+G+G+G+I I I I I G+G+G+G+G+G+G+G+G+G+G+G+G+G+G+G+G+G+I I I I G+G+G+G+G+G+G+G+G+G+G+G+G+G+G+G+G+G+G+G+G+G+G+G+G+G+G+G+G+G+G+G+G+G+G+G+G+G+G+G+G+G+G+I H G+G+G+G+G+G+G+G+G+G+G+G+G+G+G+G+G+G+G+G+I G+G+I G+G+G+I I H H H I G+G+G+G+G+G+G+G+G+G+G+G+G+G+G+G+G+G+G+G+G+G+G+G+G+G+G+G+G+G+G+G+G+G+G+G+G+G+G+G+G+I G+G+G+G+G+G+G+G+G+G+G+G+G+G+G+I G+G+G+G+..&.P.m.M.M.C.u.++N.>+++O.++D.W.:+>+++V.N.N.].>.O.M.E.G.G.+.o.*.-.B.,+N.V.D.U.V.w.O.O.u.V.N.N.@.U *.",
"M.U.D.;.$.W.N.N.++N.O.w.++W.W.u.v.w.#.].,.C.D.G.G.B.U.++@.>.@.>.O.O.N.++V.N.++N.++O.u.W.C.F.M.,+C.G+G+G+G+G+G+G+G+G+G+G+G+G+G+G+G+G+G+G+G+G+G+G+G+G+G+G+G+G+G+G+G+G+G+G+I I I G+G+G+G+G+G+G+G+G+G+G+G+G+G+G+G+G+G+G+G+G+G+G+G+G+G+G+G+I G+G+G+G+G+G+G+I G+I I G+G+I = I G+G+I I I I I = = = h h + + h I I I G+G+I = I I G+G+I + H I I I G+G+G+G+I H H H H H H H I I I H h h h = H I G+G+G+G+G+G+G+G+G+G+G+G+G+G+G+G+G+G+G+G+G+G+G+G+G+G+G+G+I I I I H I G+G+G+G+G+G+G+G+I I G+G+G+G+G+G+G+G+G+G+G+G+G+G+G+G+G+G+G+G+G+G+G+G+G+G+G+G+I H H I G+G+G+G+G+G+G+G+G+G+G+G+G+I I G+G+G+G+G+G+G+G+G+G+G+G+G+G+G+G+G+G+G+G+G+G+G+G+G+G+G+G+G+G+G+G+G+G+G+G+G+G+G+I I I H I I I I I ..9.G.C.,+M.F.C.W.u.O.++N.++N.V.++N.O.O.>.@.>.@.++U.B.G.G.D.C.,.].#.w.v.u.W.W.++w.O.N.++N.N.W.$.;.D.",
"W.D.@+-.m.W.N.++++>+v.++#.D.++v.N.N.M.V.N.w.N.P.9..+U.N.>.@.@.>.>.N.O.N.w.w.++>+++D.V.V.M.C.F.,+U.G+G+G+G+G+G+G+G+G+G+G+G+G+G+G+G+G+G+G+G+G+G+G+G+G+G+G+G+G+G+G+I I I H = H H = H I I I G+G+G+G+G+G+G+G+G+G+G+G+G+G+G+G+G+G+G+G+G+G+I G+G+G+G+G+G+G+I I G+I I I G+I = I G+G+I I H H = = = h h h + * h H I I G+G+I = I I I G+I h H I I I I I I G+I H H H H H H I I I H H h h H H H I G+G+G+G+G+G+G+G+G+G+G+G+G+G+G+G+G+G+G+G+G+G+G+G+G+G+G+G+H H h H H H H I G+G+G+G+G+G+G+I I G+G+G+G+G+G+G+G+G+G+G+G+G+G+G+G+G+G+G+G+G+G+G+G+G+G+I I H H I G+G+G+G+G+G+G+G+G+G+G+G+G+G+I I I I I H H I I I I I H I G+G+G+G+G+G+G+I I G+G+I I G+G+G+G+G+G+G+G+I H H H H h * * * h + h h H ..X.Y.U.,+F.C.M.V.V.D.++>+++w.w.N.O.N.>.>.@.@.>.N.U..+9.P.N.w.N.V.M.N.N.v.++D.#.++v.>+++++N.W.m.-.@+",
"D.W.U.,+B.M.W.U.N.w.D.V.w.M.,.].O.N.++u.D.D.D.G.9.n.C.O.>.@.@.@.@.>.].N.w.W.++O.N.E.V.V.;+B.B.F.M.H I H H H H I G+G+G+G+G+G+G+I I G+I H I G+G+G+I G+G+G+G+I H H = h h * * * * * + h H H H I G+G+G+G+G+G+G+G+G+G+G+G+G+G+G+G+G+G+G+G+I I G+G+G+G+G+G+I I I I H I I I H I I G+I I I I I I I I H H h h h H I I I G+I H I G+G+G+I I I I I G+I I I I G+G+G+G+G+G+G+G+G+G+I I I I G+G+G+G+G+G+G+G+G+G+G+G+G+G+G+G+G+G+G+G+G+G+G+G+G+I I I I I I I H h h h = H = H G+G+G+G+G+G+G+G+G+G+G+G+G+G+G+G+G+G+G+G+G+G+G+G+G+G+G+G+G+G+G+G+G+G+G+I I H H I I G+G+G+G+G+G+G+G+G+G+G+G+G+G+I I H h h = H H H H H H H G+G+G+G+G+G+G+I I G+G+H I G+G+I G+I G+G+G+I H = h h h * * * * * + h H ..9..+M.F.B.B.;+V.V.E.N.O.++W.w.N.].>.@.@.@.@.>.O.C.n.9.G.D.D.D.u.++N.O.].,.M.w.V.D.w.N.U.W.M.B.,+U.",
"D.w.w.++u.C.F.C.#.W.M.M.-.-.%.%.o.D.U.C.D.U.E.9.X.G.E.D.].@.@.@.@.>.].++w.D.O.N.N.++N.++U.F.M.F.m.I H H H H H I G+G+G+G+G+G+G+I I G+I H I G+I G+G+I I G+G+I I H H = h * + + + + h h H H I I G+G+G+I I I G+G+G+G+G+G+G+I I G+G+G+G+G+I I G+G+G+G+G+G+H H H H h = = h = I I G+I I I I I I I I I H = H H H = H I G+I H I I G+G+H = I H h = H H I G+G+G+G+G+G+G+G+G+G+G+G+G+G+G+G+G+G+G+G+G+G+I G+G+G+G+G+G+G+G+G+G+G+G+G+G+G+G+G+H = = h = H I = h + * + h h H G+G+G+G+G+G+G+G+G+G+G+G+G+G+G+G+G+G+G+G+G+G+G+G+I G+G+G+I I G+G+G+I I I = = = h H I I H H I G+G+G+G+G+G+I G+I I G+I H H I I I I H H H H G+G+G+G+G+G+G+G+G+G+G+I I G+G+G+G+G+G+G+G+G+G+I I I I = h = h = = I I = 9.m.m.F.M.F.U.++N.++N.N.O.D.w.++].>.@.@.@.@.].D.E.G.X.9.E.U.D.C.U.D.o.%.%.-.-.M.M.W.#.C.F.C.u.++w.",
"D.*.N.w.O.++M.U.,+W.V.D. .P.&.` P.G.M.C.u.M.E.9.a+X.n.F.w.,.].,.@.@.O.++,+N.++N.N.N.N.N.N.V.M..+P.G+I I I H H I G+G+G+G+G+G+G+G+G+G+G+I I I G+G+G+G+G+G+G+G+G+G+G+I I = = H H = I I I G+G+G+G+G+I I I I G+G+G+G+G+G+G+I H I G+G+G+G+I H I G+G+G+G+I H h h h * + h h H I G+I I I I I G+I I I H = H I I H h h I G+I H I H I G+= + H = h h H H I G+G+G+G+G+G+G+G+G+G+G+G+G+G+G+G+G+G+G+G+G+G+H I G+G+G+G+G+G+G+G+G+G+G+G+G+G+G+I H I h + h I I h + * * + + h H G+G+G+G+G+G+G+G+G+G+G+G+G+G+G+G+G+G+G+G+G+G+G+G+G+I G+G+G+G+I I I I H = + + + + h H H H H H I I G+G+I I I G+I G+G+G+I I I G+G+G+I I I I I G+G+G+G+G+G+G+G+G+G+I I I I I H I G+G+G+G+G+G+G+G+G+I I I I I I G+G+=.&.X.P..+M.V.N.N.N.N.N.N.++N.,+++O.@.@.,.].,.w.F.n.X.a+9.E.M.u.C.M.G.P.` &.P. .D.V.W.,+U.M.++O.w.N.",
"V.++u.N.++u.N.v.u.N.V.D.%...P.n.%. .n.V.v.W.E.X.h+h+X.%.F.C.@+,.;.>.N.N.N.N.++++v.:+u.++D.M.,+C.n.G+G+I I G+G+I G+G+G+G+G+G+G+I I G+G+H I G+H H H G+G+G+G+G+G+G+G+G+G+G+I I I I I G+G+G+G+G+G+G+G+I H I G+G+G+G+G+I H = H H I G+G+G+I = H I I I I I H h h + * * h h = I G+G+I I I I G+G+I I H = H I I I = * I G+I I I G+G+G+I H H H I G+I I G+G+G+G+G+G+G+G+G+G+G+G+G+G+G+G+G+G+G+G+G+G+G+G+G+G+G+G+G+G+G+G+G+G+G+G+G+G+G+H H I I = + h I I h h + + + h h H G+G+G+G+G+G+G+G+G+G+G+G+G+G+G+G+G+G+G+G+G+G+G+G+G+I G+G+G+G+G+I I I I = + = = = H I I I I I G+G+G+G+G+I G+G+G+G+G+G+G+I G+G+G+I I G+G+G+I I G+G+G+G+G+I I G+G+H H G+I H H H G+G+G+G+G+G+G+G+G+I I I I I G+G+G+=.P.X.n.C.,+M.D.++u.:+v.++++N.N.N.N.>.;.,.@+C.F.%.X.h+h+X.E.W.v.V.n. .%.n.P...%.D.V.N.u.v.N.u.++N.u.",
"W.V.U.D.w.D.u.N.++++>+U.%.n.9.9.P.G.P.-.u.U.Y.X...E+` n.%. .B.C.;.;.N.++V.N.N.N.N.v.N.O.++O.M.%.%.G+I I G+G+G+G+I I G+G+G+G+G+I I G+G+H I G+H H H I G+G+G+G+G+G+G+G+G+G+I I I I I G+G+G+G+G+G+G+G+I H I I G+G+G+G+I = = = H I G+G+I = = I I I I I G+H h h h * * + h H I I G+I I I I G+G+G+I h = H I G+G+= * h I I I G+G+G+G+G+I I I I G+G+G+G+G+G+G+G+G+G+I I I H H = H I I I I I G+G+G+G+G+G+G+G+G+G+G+G+G+G+G+G+G+G+G+I H = I I I H H I I h * + h h h h H G+G+G+G+G+G+G+G+G+G+G+G+G+G+G+G+G+G+G+G+G+G+G+G+G+G+G+G+G+G+G+G+G+G+I I H H H I I G+G+G+G+G+G+G+G+G+G+G+G+G+G+G+G+G+G+G+I G+G+H I G+G+G+G+I I G+G+G+G+G+G+G+G+I I G+G+I I G+G+G+G+G+G+G+G+G+G+G+I I I I I G+G+x n.n.%.%.M.O.++O.N.v.N.N.N.N.V.++N.;.;.C.B. .%.n.` E+..X.Y.U.u.-.P.G.P.9.9.n.%.U.>+++++N.u.D.w.D.U.",
"F..+F.D.V.U.V.u.u.M.C.W.U.n.X.P.G.G.P.P.-.E.n.X.E+E+` 9.Y.Q  . .%.+.W.,+++++++u.,.@.@.>.*.,++.>.X I I H I G+G+G+G+H I G+G+G+G+G+G+G+G+I G+G+I I G+G+G+G+G+G+G+G+G+G+G+G+I I I I I I I G+G+G+G+G+G+I H H I I I I H H = = = H I G+G+H + H G+G+I I G+G+H h h h + * h h H I G+G+I G+I I I I I I h h H I G+G+h @ * H I I I G+I I H h h h h = I I I I G+G+G+I H H h * . .   * h H H H H G+G+G+G+G+G+G+G+G+G+G+G+G+G+G+G+G+G+I H h h H I I I I H H h * h H H H H H G+G+G+G+G+G+G+G+G+G+G+G+G+G+G+G+G+G+G+G+G+G+G+I I I I G+I I G+G+G+G+G+I I I I I G+G+G+G+G+G+G+G+G+G+G+G+G+G+G+I G+G+G+G+I H I H H G+G+G+G+H H I G+G+G+G+G+G+G+G+G+G+G+G+G+G+G+G+G+G+G+G+I I I I I = = = = = H x Y.Y.X >.+.,+*.>.@.@.,.u.++++++,+W.+.%. . .Q Y.9.` E+E+X.n.E.-.P.P.G.G.P.X.n.U.W.C.M.u.u.V.U.V.D.F.",
"M.B.F.M.M.U.u.V.U.U.M.U.M.C.n.G.&.9.P.P.-.Y.9.9.=.=.&.G.P. .Y.P. .+.+.B.B.F.M.M.].@.;.,.X +.-.$. .H H H I G+G+G+I H H I G+G+G+G+G+G+G+G+G+G+G+G+G+G+G+G+G+G+G+I I I H H = h h + + + + = I G+G+G+I I H = H I H H = = H = = H I G+I h + I G+G+G+G+G+G+H h H h * * h h H I G+G+I I G+I G+I I I h h I I I H * * * h I I I H H h * . . . . * * h H I G+G+I H h + * . . x . * h H H h H G+G+G+I H I G+G+G+G+G+G+G+G+G+G+G+G+I h h + h H I I I H H h h h H H H H H G+G+G+G+G+G+G+G+G+G+G+G+G+G+G+G+G+G+G+G+G+I I I I I I I I I I G+G+G+G+G+G+I I I G+G+G+G+G+G+G+G+G+G+G+G+G+G+G+I G+I I I I I H H H G+G+G+G+H H H I G+G+G+I I I I I I I I I G+G+G+G+G+G+I H = h h + * . . . . . . X.P. .$.-.+.X ,.;.@.].M.M.F.B.B.+.+. .P.Y. .P.G.&.=.=.9.9.Y.-.P.P.9.&.G.n.C.M.U.M.U.U.V.u.U.M.M.F.",
"F.F.E.F.F.F.C.W.M.F.Y.B.E.M.M.$.G.9.9.n.P.X.X.X.J &.&.&.X.9.9.&.&.P. .Y.n.n.n.P.Y. . . . .n.9.X.&.I H H I G+G+G+I H H H G+G+G+I I I I H H H H H I I G+G+G+G+G+I H h h + * * . . . . . . h I G+I = h h = = = H = = = = I I H I I I h * H G+G+G+G+G+I H = H h + h H = I I G+G+G+I G+G+I G+I I h = I G+H h * * h h I G+I H h + * . . . . * * + = I I G+I h * @ . . . . . * H H h h H G+G+G+I H I G+G+G+G+G+G+G+G+G+G+G+G+H h + * * + H I I I I H H H H H H H I G+G+G+G+G+G+G+G+G+G+G+G+G+G+G+G+G+G+G+G+I I I I I I I I I I I I G+G+G+G+G+G+I I G+G+G+G+G+G+G+G+G+G+G+G+G+G+G+I G+I I I I G+I H I G+G+G+I H H H I G+G+I H H h h h h h H H H I G+G+G+G+G+H h h * * * . x x x x ....=.&.X.9.n. . . . .Y.P.n.n.n.Y. .P.&.&.9.9.X.&.&.&.J X.X.X.P.n.9.9.G.$.M.M.E.B.Y.F.M.W.C.F.F.F.E.",
" .B.Y.Y..+B.B.E.F.B..+-.+.E.F.C.E.F.Y.n.G.=.9.6 d d d d ^ d d k a k d d k d r a 7.E+..x x ..= ..E+G+H H I G+G+I H H H H G+G+G+H H H h h h h h H H H I G+G+G+G+I H h h + * * . x x x x . * I G+G+= m * H = = = = = = = H I I I I H H h H I G+G+G+G+G+I H H H h h H H I G+G+G+G+G+G+G+G+G+G+G+H H I G+H h h h H H G+G+G+I H h + + m m + h = = H I I I I + * @ . x . * * h H H h h I G+G+G+G+I G+G+G+G+G+G+G+G+G+G+G+G+G+H h + + * * = H I I I I I I I I I I I G+G+G+G+G+G+G+G+G+G+G+G+G+G+G+G+G+G+I I I I I G+G+G+I G+I I I I I G+G+G+G+I I G+G+G+G+G+G+G+G+G+G+G+G+G+G+G+G+I I I I I I I I H H G+G+I H H H H I G+G+I H H h + h h h H H H H G+G+G+G+I H h h * * * . x x x x w = F+7.E++ ] J ] x ..... m + + , ^ d , d ^ ^ 6 r ^ r ^ s 9.=.G.n.Y.F.E.C.F.E.+.-..+B.F.E.B.B..+Y.Y.",
"X.9.G.G.P.n.Y..+.+m..++.,.+.Y.P.G.n.P.9.a+E+X.: f f f f f f f f f f f f f f 9 8 G+G+G+G+I I I I I I H H I G+I H H H H H G+G+G+H H H h h + h H H H H I G+G+G+G+I H H h h * * * . x x x x * G+G+G+H + h H I H H H H H H H I G+G+I H H H H H G+G+G+G+G+I H H H H H H I G+G+G+G+G+G+G+G+G+G+G+G+I H I G+I I I H I I G+G+G+G+G+I I I I H I G+G+G+I I I I I H = = h * + h H H I I I I G+G+G+G+G+G+G+G+G+G+G+G+G+G+G+G+G+G+I H = h h * + = H I G+G+I I I I I I I I G+G+G+G+G+G+G+G+G+G+G+G+G+G+G+G+G+I H I I I I G+G+G+G+G+G+G+I I H I G+I I I I I G+G+G+G+G+G+G+G+G+G+G+G+G+G+G+G+G+I I G+I I I H I G+G+H H H H H I G+G+I H H = h h h H H H I I G+G+G+G+I H H h + * + * . x x x ' * I G+G+I = + = H H = = H H H % 5 9 - - - 9 9 - - - - - X.E+a+9.P.n.G.P.Y.+.,.+..+m..+.+Y.n.P.G.G.",
"..=.a+&.&.X.X.9.G.G.G.G.G.G.&.&.&.a+a+=.7.E+M f f f f f f f f f f f f f f f 9 j G+G+G+G+G+G+I G+G+I H H I G+I H H H H H G+G+G+I H H H h = H H H I I I G+G+G+G+H H H H h h h h . . . x . + G+G+G+G+I I I G+I I I I I I I I G+G+G+I H H H H G+G+G+G+G+I I I I I I I I G+G+G+G+G+G+G+G+G+G+G+G+I I G+G+G+G+G+G+G+G+G+G+G+G+G+G+G+G+G+G+G+G+G+G+G+G+G+G+G+I G+G+G+I H H I G+G+G+G+G+G+G+G+G+G+G+G+G+G+G+G+G+G+G+G+G+G+I I I I I H H = = = I G+G+G+G+G+G+G+G+G+I G+G+G+G+G+G+G+I G+G+G+G+G+I I G+I H = = I G+G+G+G+G+G+G+G+G+G+I = = I I I I I I I G+G+G+G+G+G+G+G+G+G+G+G+G+G+G+G+G+I G+G+G+H H I G+I H H H H H I G+G+G+G+I I I I I I I G+G+G+G+G+G+G+I H H H h h H H h m m . m = G+G+G+G+G+I I G+I I I I I I d 5 9 9 9 9 - 9 9 9 9 9 9 M E+7.=.a+a+&.&.&.G.G.G.G.G.G.9.X.X.&.&.a+",
"7.7.E+7.......=.` ` ` =.E+..h+..E+x ] w w K 6 f f f f f f f f f f f f f f f 9 4 G+G+G+G+G+G+G+G+G+I H H G+G+I H I I H I G+G+G+G+G+G+G+G+G+G+G+G+G+G+G+G+G+G+G+I H I I H I I I = + + + h H G+G+G+G+G+G+G+G+G+G+G+G+G+G+G+G+G+G+G+G+I I I I G+G+G+G+G+G+I I I I I I G+G+G+G+G+G+G+G+G+G+G+G+G+I I G+G+G+G+G+G+G+G+G+G+G+G+G+G+G+G+G+G+G+G+G+G+G+G+G+G+G+G+G+G+G+I I I G+G+G+G+G+G+G+G+G+G+G+G+G+G+G+G+G+G+G+G+G+G+G+I H H I I I H = = = G+G+G+G+G+G+G+G+G+G+I G+G+G+G+G+G+G+I I G+G+G+G+I I G+I H = H I G+G+G+G+G+G+G+G+G+G+I + m h I G+I I H I G+G+G+G+G+G+G+G+G+G+G+G+G+G+G+G+G+I G+G+G+I H I G+G+I G+G+G+G+G+G+G+G+G+G+G+G+G+G+G+G+G+G+G+G+G+G+G+G+G+G+G+G+G+I I I I H H I I G+G+G+G+G+G+G+G+G+G+G+G+G+G+d 5 9 9 9 9 9 9 9 9 9 9 9 0 K J J w w ] J ] ..E+=.` ` ` =.......7.E+",
"I I I G+I = H I G+G+G+G+G+G+G+G+G+. : f f f f f f f f f f f f f f f f f f f 9 4 G+G+G+G+G+G+G+G+G+G+H H G+G+I G+G+G+G+G+G+G+G+G+G+G+G+G+G+G+G+G+G+G+G+G+G+G+G+G+G+G+G+G+G+G+G+I I I I I I I G+G+G+G+G+G+G+G+G+G+G+G+G+G+G+G+G+G+G+G+G+G+G+G+G+G+G+G+G+G+G+G+G+G+G+G+G+G+G+G+G+G+G+G+G+G+G+G+G+I G+G+G+G+G+G+G+G+G+G+G+G+G+G+G+G+G+G+G+G+G+G+G+G+G+G+G+G+G+G+G+I I I G+G+G+G+G+G+G+G+G+G+G+G+G+G+G+G+G+G+G+G+G+G+G+G+I H I I I H h h H G+G+G+I I I I I I I I G+G+G+G+G+G+G+G+I G+G+G+G+I I G+I H = I G+G+G+G+G+G+G+G+G+G+G+G+= . . = G+G+I H H I G+G+G+G+G+G+G+G+G+G+G+G+G+G+G+G+G+G+G+G+I H I G+G+G+G+G+G+G+G+G+G+G+G+G+G+G+G+G+G+G+G+G+G+G+G+G+G+G+G+G+G+G+G+G+G+I I I I I I G+G+G+G+G+G+G+G+G+G+G+G+G+G+d 5 9 9 9 9 9 9 9 9 9 9 9 - 9 9 9 9 9 9 5 4 G+G+G+G+G+G+G+G+G+G+G+G+",
"G+G+G+G+I H I G+G+G+G+G+G+I G+G+G+. 9 f f f f f f f f f f f f f f f f f f f 9 4 G+G+G+G+G+G+G+G+G+G+I H G+G+G+G+G+G+G+G+G+G+G+G+G+G+G+G+G+G+G+G+G+G+G+G+G+G+G+G+G+G+G+G+G+G+G+G+I I I I I I I G+G+G+G+I I I I G+G+G+G+G+G+G+G+G+G+G+G+G+G+G+G+G+G+G+G+G+G+G+G+G+G+G+G+G+G+G+G+G+G+G+G+G+G+G+G+G+G+G+G+G+G+G+G+G+G+G+G+G+G+G+G+G+G+G+I G+G+I I I I G+G+G+G+G+I I I I I I I I I I I I I G+G+G+G+I I G+G+G+I I G+I I I G+= h H H = + + I G+G+I I H H H H I I I G+G+G+G+G+G+G+G+G+G+G+G+G+G+G+G+G+I H I G+G+G+G+G+G+G+G+G+G+G+G+H * m = I G+G+= h H G+G+G+G+I G+G+G+G+G+G+G+G+G+G+G+G+G+G+G+G+I G+G+G+G+G+G+G+G+G+G+G+G+G+G+G+G+G+G+G+G+G+G+G+G+G+G+G+G+G+G+G+G+G+G+G+I I I H H I I G+G+G+G+G+G+G+G+G+G+G+G+G+d 5 9 9 9 9 9 9 9 9 9 9 9 9 9 9 9 9 9 9 5 j G+G+G+G+G+G+G+G+G+G+G+G+",
"G+G+G+G+I I I G+G+G+G+G+G+G+G+G+G+. 9 f f f ^ f f f f f f f f f f f f f f f 9 4 G+G+G+G+G+G+G+G+G+G+G+G+G+G+G+G+G+G+G+G+G+G+G+G+G+G+G+G+G+G+G+G+G+G+G+G+G+G+G+G+G+G+G+G+G+G+G+I I I I I I I I I I I I I I I I G+I I G+G+G+G+G+G+G+G+G+G+G+G+G+G+G+G+I I I I I I I G+G+G+G+G+G+G+G+G+G+G+G+G+G+G+G+G+G+G+G+G+G+G+G+G+G+G+G+G+G+G+G+I I I I = = = I I I I H H H h = = H H H I I H H H I I I I I H H H I I H H I H = + = = h + h + * * = I I I H H H H H H I I G+G+G+G+G+G+G+G+G+G+G+G+G+G+G+G+G+I I I G+G+G+G+G+G+G+G+G+G+G+G+I h * H G+I G+I h h I I I I I I I I G+G+G+G+G+G+G+G+G+G+G+G+G+G+G+G+G+G+G+G+G+G+G+G+G+G+G+G+G+G+G+G+G+G+G+G+G+G+G+G+G+G+G+G+G+G+G+G+G+G+I I I I I I I I I I I I I I I I I I G+7 5 9 9 9 9 9 9 9 9 9 9 9 9 9 9 9 9 9 9 5 j G+G+G+G+G+G+G+G+G+G+G+G+",
"G+G+G+G+G+I I G+G+G+G+G+G+G+G+G+G+. : ^ ^ ^ f f ^ ^ ^ ^ f ^ f ^ f f f f f f 9 4 G+G+G+G+G+G+G+G+G+G+G+G+G+G+G+G+G+G+G+G+G+G+G+G+G+G+G+G+G+G+G+G+G+G+G+G+G+G+G+G+G+G+G+G+G+G+G+I I I H I I I I I I I I I I I I I I I I I G+G+G+I I I I G+I I G+G+G+I I H H I H H I G+G+G+G+G+G+G+G+G+G+G+G+G+G+G+G+G+G+G+G+G+G+G+G+G+G+G+G+G+G+G+I I H H H = = H H H H H = h h h + h h H H H H H H H H H H H H I H H H H H H H = h h + h = h * * m * + H H H H H H H H H I I G+G+G+G+G+G+G+G+G+G+G+G+G+G+G+G+G+G+I G+G+G+G+G+G+G+G+G+G+G+G+G+I h + I G+G+I I h h H H H H H H H I G+G+G+G+G+G+G+G+G+G+G+G+G+G+G+G+G+G+G+G+G+G+G+G+G+G+G+G+G+G+G+G+G+I I I I I I G+I I I I I I I I I I H h h h h H H H H H H H H H H H H H I d 5 9 9 9 9 9 9 9 9 9 9 9 9 9 9 9 9 9 9 5 8 G+G+G+G+G+G+G+G+G+G+G+G+",
"G+G+G+G+G+I G+G+G+G+G+G+G+G+G+G+G+. : ^ ^ ^ ^ ^ f ^ f ^ ^ f ^ f f f ^ ^ ^ f : 4 G+G+G+G+G+G+G+G+G+G+G+G+G+G+G+G+G+G+G+G+G+G+G+G+G+G+G+G+G+G+I I I I I I G+I I I I I H I I I I H h h h h h = = = = = = = = h = = H H H H H I I I I I I I I I I I I I H H H H H H H I G+G+G+G+G+G+G+G+G+G+G+G+G+G+G+G+G+G+G+G+G+G+G+G+G+G+G+G+G+G+G+I I I H = = H H I I I I H = H H = H H H H H H I H H I I I I I I I I I I I H H = = h h H I = + + + h H I I I I H I I I I G+G+G+G+G+G+I G+G+G+G+G+G+G+G+G+G+G+I I G+G+G+G+G+G+G+G+G+G+G+G+G+I h + I G+I I = h H H H H H H H H H I G+G+G+G+G+G+G+G+G+G+G+G+G+G+G+G+G+G+G+G+G+G+G+G+G+G+G+G+G+I I I H H H I I I I I H H H H H H H H H H h h h h h h = = = = = h h = = H H I d 5 9 9 9 9 9 9 9 9 9 9 9 9 9 9 9 9 9 9 5 j G+G+G+G+G+G+G+G+G+G+G+G+",
"G+G+G+G+G+I I G+G+G+G+G+G+G+G+G+G+. : ^ ^ ^ ^ ^ f ^ ^ f ^ ^ ^ ^ ^ f ^ f f ^ : 4 G+G+G+G+G+G+G+G+G+G+G+G+G+G+G+G+G+G+G+G+G+G+G+G+G+G+G+G+I I I H H H I I I I I H H H H H H H H H H h + + + + h h h h h h h + h h = = h h H H I I I I I I I I I I H H H H H H H H I I G+G+G+G+G+G+G+G+G+G+G+G+G+G+G+G+G+G+G+G+G+G+G+G+G+G+G+G+G+G+G+G+G+G+I I I I I I G+G+G+G+I G+G+G+G+G+G+I I G+G+G+G+G+G+G+G+G+G+G+G+G+G+G+I I H H H H I I G+I H H H I G+G+G+G+G+G+G+G+G+G+G+G+G+G+G+I I G+G+G+G+G+G+G+G+G+G+I I G+G+G+G+G+G+G+G+G+G+G+G+G+G+= h I I I I H h h I H H H H H H I G+G+G+G+G+G+G+G+G+G+G+G+G+G+G+G+G+G+G+G+G+G+G+G+G+G+G+G+G+G+G+I I I I I I I I I I I I I I H I H H = H H h h h h h h h h = = = h = H H = H d 5 9 9 9 9 9 9 9 9 9 9 9 9 9 9 9 9 9 9 5 j G+G+G+G+G+G+G+G+G+G+G+G+",
"G+G+G+G+G+I I G+G+G+G+G+G+G+G+G+G+. f ^ ^ ^ ^ ^ ^ ^ ^ ^ ^ ^ ^ ^ ^ ^ ^ ^ f ^ : 4 G+G+G+G+G+I I G+G+I G+G+G+G+G+G+G+G+G+G+G+G+G+G+G+G+G+G+G+G+I I I I I G+G+G+G+I I I I I I I H H I I h h h h h = = = = = = = = H = = = = H I I G+G+G+G+G+I I I I I I I I I I I I G+G+G+G+G+G+G+G+G+G+G+G+G+G+G+G+G+G+G+G+G+G+G+G+G+G+G+G+G+G+G+G+G+G+G+G+G+G+I G+G+G+G+G+G+G+G+G+I G+G+G+G+G+G+G+G+G+G+G+G+G+G+G+G+G+G+G+G+G+I I I H = I I I I I I I I G+G+G+G+G+G+G+G+G+G+G+G+G+G+G+G+I I G+G+G+G+G+G+G+G+G+G+I I G+G+G+G+G+G+G+G+G+G+G+G+G+G+I H I I I I I H I G+G+I I I G+G+G+G+G+G+G+G+G+G+I I G+G+I I G+G+G+G+G+G+G+G+G+G+G+G+G+G+G+G+G+G+G+G+G+G+G+G+G+G+G+G+G+G+G+G+G+G+G+G+I I G+I I H H I I I I I I H H I I I H I d 5 9 9 9 9 9 9 9 9 9 9 9 9 9 9 9 9 9 9 5 4 G+G+G+G+G+G+G+G+G+G+G+G+",
"G+G+G+G+G+I I G+G+G+G+G+G+G+G+G+G+m f ^ ^ ^ ^ ^ ^ ^ ^ ^ ^ ^ ^ ^ ^ ^ ^ ^ ^ ^ f 4 G+G+G+G+G+I I I I I G+G+G+G+I G+G+G+I G+G+G+I G+G+G+G+G+G+G+G+G+G+G+G+G+G+G+G+G+G+G+G+G+G+G+I I I G+I I I I I I I I I I H I I I H H I I I G+G+G+G+G+G+G+G+G+G+G+G+G+G+G+G+G+G+G+G+G+G+G+G+G+G+G+G+G+G+G+G+G+G+G+G+G+G+G+G+G+G+G+G+G+G+G+G+G+G+G+G+G+G+G+G+G+G+G+G+G+G+G+G+G+G+G+G+G+G+G+G+G+G+G+G+G+G+G+G+G+G+G+G+G+G+G+G+G+I I I = + H I G+I I I I I I G+G+G+G+G+G+G+G+G+G+G+G+G+G+G+I I G+G+G+G+G+G+G+G+G+G+I H I G+G+G+G+G+G+G+G+G+G+G+G+G+I H I I I I I I G+G+G+G+G+G+G+G+G+G+G+G+G+G+G+G+G+I I I I I G+G+G+I G+G+G+I I G+G+G+I G+G+G+G+G+G+G+G+G+G+G+G+G+G+G+G+G+G+G+G+G+G+G+G+G+I I G+I I I I I I I I I I I I I I G+d 5 9 9 9 9 9 9 9 9 9 9 9 9 9 9 9 9 9 9 5 4 G+G+G+G+G+G+G+G+G+G+G+G+",
"G+G+G+G+I I H I G+G+G+G+G+G+G+G+G+m f ^ ^ ^ ^ ^ ^ ^ ^ ^ ^ ^ ^ ^ ^ ^ ^ ^ ^ ^ f 4 G+G+G+G+G+I I I I I G+G+G+G+I G+G+G+I G+G+G+G+I G+G+G+G+G+G+G+G+G+G+G+G+G+G+G+G+G+G+G+G+G+G+G+G+G+I I G+I I I I I I I I I I I I I I I I G+G+G+G+G+G+G+G+G+G+G+G+G+G+G+G+G+G+G+G+G+G+G+G+G+G+G+G+G+G+G+G+G+G+G+G+G+G+G+G+G+G+G+G+G+G+G+G+G+G+G+G+G+G+G+G+G+G+G+G+G+G+G+G+G+G+G+G+G+G+G+G+G+G+G+G+G+G+G+G+G+G+G+G+G+G+G+G+G+G+G+G+I H h H I G+G+I I I I I G+G+G+G+G+G+G+G+G+G+G+G+G+G+G+H I G+G+G+G+G+G+G+G+G+G+I H I G+G+G+G+G+G+G+G+G+G+G+G+G+I I I G+I I I I G+G+G+G+G+G+G+G+G+G+G+G+G+G+I G+I I I I I I G+G+G+I G+G+G+I I G+G+G+G+G+G+G+G+G+G+G+G+G+G+G+G+G+G+G+G+G+G+G+G+G+G+G+G+G+I I I G+I I I I I I I I I I I I I G+d 5 9 9 9 9 9 9 9 9 9 9 9 9 9 9 9 9 9 9 5 4 G+G+G+G+G+G+G+G+G+G+G+G+",
"G+G+G+G+G+I I I G+G+G+G+G+G+G+G+G+m ^ ^ ^ ^ ^ ^ ^ ^ ^ ^ ^ ^ ^ ^ ^ ^ ^ ^ ^ ^ f j G+G+G+I G+I I I G+G+G+G+G+G+G+G+G+G+G+G+G+G+G+G+G+G+G+G+G+G+G+G+G+G+G+G+G+G+G+G+G+G+G+G+G+G+G+G+G+G+I G+G+G+G+G+G+G+G+G+I I I I I G+G+G+G+G+I G+G+G+G+G+G+G+G+G+G+G+G+G+G+G+G+G+G+G+G+G+G+G+G+G+G+G+G+G+G+G+G+G+G+G+G+G+G+G+G+G+G+G+G+G+G+G+G+G+G+I G+G+G+G+G+G+G+G+G+G+G+G+G+G+G+G+G+G+G+G+G+G+G+G+G+G+G+G+G+G+G+G+G+G+G+G+G+G+I H = H I G+G+I I I G+I I I G+G+G+G+G+G+G+G+G+G+G+G+G+I G+G+G+G+G+G+G+G+G+G+G+G+H H I G+G+G+G+G+G+G+G+G+G+G+I I G+G+G+I = h = I G+G+G+G+G+I I G+G+I I I I I G+G+I I G+G+G+G+G+G+G+G+G+G+G+G+G+G+G+G+G+G+G+G+G+G+G+G+G+G+G+G+G+G+G+G+G+G+G+G+G+G+G+G+G+G+G+..G+G+G+G+G+G+G+I I G+G+G+G+G+G+d 9 9 9 9 9 9 9 9 9 9 9 9 9 9 9 9 9 9 9 9 ( G+G+G+G+G+G+G+G+G+G+G+G+",
"G+G+G+G+G+G+I I I G+G+G+G+G+G+G+G+m ^ ^ ^ ^ ^ ^ ^ ^ ^ ^ ^ ^ ^ ^ ^ ^ ^ ^ ^ ^ f j I I I G+G+G+I I G+G+G+G+G+G+G+G+G+G+G+G+G+G+G+G+G+G+G+G+G+G+G+G+G+G+G+G+G+G+G+G+G+G+G+G+G+G+G+G+G+G+G+G+G+G+G+G+G+G+G+G+G+G+G+G+G+G+G+G+G+G+G+G+G+G+G+G+G+G+G+G+G+G+G+G+G+G+G+G+G+G+G+G+G+G+G+G+G+G+G+G+G+G+G+G+G+G+G+G+G+G+G+G+G+G+G+G+G+G+G+G+G+G+G+G+G+G+G+G+G+G+G+G+G+G+G+G+G+G+G+G+G+G+G+G+G+G+G+G+G+G+G+G+G+G+G+G+G+G+I I I H = H I I I I I I I G+I I I I G+G+G+G+G+G+G+G+G+G+G+G+G+G+G+G+G+G+G+G+G+G+G+G+I H I G+G+G+G+G+G+G+G+G+G+G+G+G+G+G+G+H + . * = I I H H I I H H H H H H I G+G+G+I I G+G+G+G+G+G+G+G+G+G+G+G+G+G+G+G+G+G+G+G+G+G+G+G+G+G+G+G+G+G+G+G+G+G+G+G+G+G+G+G+G+G+G+&.G+G+G+G+G+G+G+G+G+G+G+G+G+G+G+d - 9 9 9 9 9 9 9 9 9 9 9 9 9 9 9 9 9 9 9 ( G+G+G+G+G+G+G+G+G+G+G+G+",
"I I I I G+G+I I I I I I I G+G+G+G++ ^ ^ ^ ^ ^ ^ ^ ^ ^ ^ ^ ^ ^ ^ ^ ^ ^ ^ ^ ^ f 8 H I I G+G+G+I G+G+G+G+G+G+G+G+G+G+G+G+G+G+G+G+G+G+G+G+G+G+G+G+G+G+G+G+G+G+G+G+G+G+G+G+G+G+G+G+G+G+G+G+G+G+G+G+G+G+G+G+G+G+G+G+G+G+G+I G+G+G+G+G+G+G+G+G+G+G+G+G+G+G+G+G+G+G+G+G+G+G+G+G+G+G+G+G+G+G+G+G+G+G+G+G+G+G+G+G+G+G+G+G+G+G+G+G+G+G+G+G+G+G+G+G+G+G+G+G+G+G+G+G+G+G+G+G+G+G+G+G+G+G+G+G+G+G+G+G+G+I I I I I I I I H = h h h h = H H H = = = = I I = h = = H I I I I I G+G+G+G+G+G+G+G+G+G+G+I I I H H I H H I I G+I I I G+G+G+G+G+G+G+G+G+G+G+h * m * = I I H H I I I H H H H H I G+G+G+I I G+G+G+G+G+G+G+G+G+G+G+G+G+G+G+G+G+G+G+G+G+G+G+G+G+G+G+G+G+G+G+G+G+G+G+G+G+G+G+G+G+G+G+P.=.G+G+G+G+G+G+G+I G+G+G+G+G+I d 9 9 9 9 9 9 9 9 9 9 9 9 9 9 9 9 9 9 9 9 . G+G+G+G+G+G+G+G+G+G+G+G+",
"G.&.K &.w 9.J K &.&.9.&.=.&.&.` &.N Q L q F L y q F F r s y 6 r s s s s s s 6 y &.&.a+=.=.E+F+= E+I G+G+G+G+G+G+G+G+G+G+G+G+G+G+G+G+G+G+G+G+G+G+G+G+G+G+G+G+G+G+G+G+G+G+G+G+G+I I I I I I I I G+I I I I I I I I I I I I I G+G+G+G+G+G+G+G+G+G+G+G+G+G+G+G+G+G+G+G+G+G+G+G+G+G+G+G+G+G+G+G+G+G+G+G+G+G+G+G+G+G+G+G+G+G+G+G+G+G+G+G+I I G+G+G+G+G+G+G+G+G+G+G+I I I I G+G+G+G+G+G+G+G+G+G+I H H H H H H H = = h h h h h h = = h + * * * * h h + + + h h h h h H G+G+G+G+G+G+G+G+G+G+G+I H H H H H H H I G+G+I I I G+G+G+I I G+G+G+G+G+I h + * + H I I I I I I I I I H I I G+G+G+G+I I I I G+G+G+G+G+G+G+G+G+G+G+G+G+G+G+G+G+G+G+G+G+G+G+G+G+G+G+G+G+G+G+G+G+G+G+G+G+I I I I G.&.7...= Y ..w W &.K &.M x ] J s q s q 0 s N q 6 F F F y L y F L O g N F K &.h+&.9.&.&.&.` X.=.a+&.",
"u.U.M.E.Y.P.Y.].$.E.o.B..+B.B.Y.$.>.@.]..+@+;.W.U.E.F.E.M.@+o..+Y.B.E.B.m.P.Y.,.F.C.C.;+.+P.n.G.&.I I G+G+G+G+G+G+G+G+G+G+G+G+G+G+G+G+G+G+G+G+G+G+G+G+G+G+G+G+G+G+G+G+G+G+G+G+G+I I I I I I I I I H = = = = = = = h h = H I I I I I G+G+G+G+G+G+G+G+G+I I I I I G+G+G+G+G+G+G+G+G+G+G+G+G+G+G+G+G+G+G+G+G+G+G+G+G+G+G+G+G+G+G+G+G+I I G+G+I G+G+G+G+G+G+G+G+G+I I G+G+G+G+G+G+G+G+G+G+G+I H H H H H H = h h h h h h h h H = h + * * * + + h = h h h h h h h I G+G+G+G+G+G+G+G+G+G+G+H H H H H H H H G+G+G+G+G+G+G+G+I H I G+G+G+G+G+H = h h h I G+G+G+G+G+I I G+G+I I G+G+I G+G+I I I I I G+G+G+G+G+G+G+G+G+G+G+G+G+G+G+G+G+G+G+G+G+G+G+G+G+G+G+G+G+G+G+G+G+G+G+G+G+I I I &.Y.P.&.G.n.P..+;+C.C.F.,.Y.P.m.B.E.B.Y..+o.@+M.E.F.E.U.W.;.@+.+].@.>.$.Y.B.B..+B.o.E.$.].Y.P.Y.E.M.",
"B.m.E.m.n.&.F.X $.G.P.G.P.&.....=.n.%. .P.P.n.n.n.Y.Y.m.Y.n.B.m..+.+B.n.m.G.9.n.n.n.n.j.P.9.9.` h+I I G+G+G+G+G+G+G+G+G+G+G+G+G+G+G+G+G+G+G+G+G+G+G+G+G+G+G+G+G+G+G+G+G+G+G+G+G+G+G+G+G+G+G+G+I I H h h h h h h h h h H H H I I I I I I I I I I I I I I I I G+G+G+G+G+G+G+G+G+G+G+G+G+G+G+G+G+G+G+G+G+G+G+G+G+G+G+G+G+G+G+G+G+I = G+G+G+G+G+G+G+G+G+G+G+G+G+G+G+G+G+G+G+G+G+G+G+G+G+G+G+I I I I I H H = = = h h h h h = H H = h + + + h h h h H = = H H H H I G+G+G+G+G+G+G+G+G+G+G+I H H H H H H H G+G+G+G+G+G+G+G+G+H H G+G+G+G+I I I H = H I G+G+G+G+G+G+G+G+G+G+I G+G+I G+G+I I I I I G+G+G+G+G+G+G+G+G+G+G+G+G+G+G+G+G+G+G+G+G+G+G+G+G+G+G+G+G+G+G+G+G+G+G+G+G+G+I G+7.G.9.h+` 9.9.P.j.n.n.n.n.9.G.m.n.B..+.+m.B.n.Y.m.Y.Y.n.n.n.P.P. .%.n.` x ..&.P.G.P.G.$.X F.&.n.m.E.",
"9.G.X.` &.K G.&.K ` 7.Y G+G+G+G+G+= J x w w w w w &.J K M J K K &.&.J K w x J &.W =.=.` =.......E+I I I G+G+G+G+G+G+G+G+G+G+G+G+G+G+G+G+G+G+G+G+G+G+G+G+G+G+G+G+G+G+G+G+G+G+G+G+I I I G+G+G+I I h = = h + + + + + + h h H H I I I I G+I I H H G ( 8 d ^ : 9 9 - 9 : ^ d a ' + I I G+G+G+G+G+G+G+G+G+G+G+G+G+G+G+G+G+G+G+G+G+G+( 8 + G+G+G+G+G+G+G+G+G+G+G+G+G+I I G+G+G+G+G+G+G+G+G+G+G+G+G+G+G+G+I I I I I H H H = = H H H H = = = = I I I H I G+I H H H H I G+G+G+G+G+G+G+G+G+G+G+I H H H H H H H I G+G+G+G+G+G+G+G+I I G+G+G+G+G+G+I H h = H I I I G+G+G+I I I G+G+G+I I G+I I I I I I I I G+G+G+G+G+G+G+G+G+G+G+G+G+G+G+G+G+G+G+G+G+G+G+G+G+G+G+G+G+G+G+G+G+G+G+I I I G+7.` 7.....x ] ` ` ] ` ` =.E+=.K K K K 9.K J M K K K J ~ J v ~ x ~ x m I G+G+G+Y 7.J K &.G.&.&.` X.",
"H H H I H H = I G+G+G+G+G+G+G+G+G+= 7 ^ ^ c c c c ^ ^ ^ c c ^ c ^ ^ ^ ^ c ^ ^ d I G+I I G+I I I I I I I I I G+G+G+G+G+G+G+G+G+G+G+G+G+G+G+G+G+G+G+G+G+G+G+G+G+G+G+G+G+G+G+G+G+I h = I I I I I H h + h = + + + + h h h h H I G+G+I = ( d : > 1 < 2 / / / / / / / / / / / / 2 < 1 [ - ^ 4 + I G+G+G+G+G+G+G+G+G+G+G+G+G+G+G+G+= j 4 h I I I I I G+I I I I I I I I H I I G+G+G+G+G+G+G+G+G+G+G+G+G+G+G+G+I I I I I I I H H I I I H H I I I I I I I G+G+I H H H I I G+G+G+G+G+G+G+G+G+G+I H H I I H = H G+G+G+G+G+G+G+G+G+G+G+G+G+G+G+G+G+I = h = I I I G+G+G+G+G+G+I I G+G+I I G+G+I I I I I I I I G+G+G+G+G+G+G+G+G+G+G+G+G+G+G+G+G+G+G+G+G+G+G+G+G+G+G+G+G+G+G+G+G+I H I I I I I I I H = h = = h h = = H m ^ 9 : : : : : : : : : : : : : : : : : 9 ( I G+G+G+G+G+G+G+G+G+G+G+G+",
"I H H I H H H I G+G+G+G+G+G+G+G+G+I k ^ ^ ^ ^ ^ ^ ^ c c c c ^ ^ c c c ^ c c ^ d = G+I I G+G+I I I I I I I I G+G+G+G+G+G+G+G+G+G+G+G+G+G+G+G+G+G+G+G+G+G+G+G+G+G+G+G+G+G+G+G+I h # ( I G+G+G+I I I H H I I = = H H H I I I = . d $ [ < / / / / / / / / / / / / / / / / / / / / / / / / / 1 - ^ 4 + G+G+G+G+I I I I I I I I I ( 8 . H = H H h = = = H H = h = H I I I G+G+G+G+G+G+G+G+G+G+G+G+G+G+G+G+G+G+G+G+G+G+G+G+I I I G+I I I I G+G+G+G+G+I I I G+I = H H I G+G+G+G+G+G+G+G+G+G+G+H H I I H H I G+G+G+G+G+G+G+G+G+G+G+G+G+G+G+G+I H = = H I G+G+G+G+G+G+G+G+G+I I G+G+I G+G+I I I I I I I I I G+G+G+G+G+G+G+G+G+G+G+G+G+G+G+G+G+G+G+G+G+G+G+G+G+G+G+G+G+G+G+G+I I I I G+G+G+G+I I I H H I I I I I I m f 9 : : : : : : : : : : : : : : : : : 9 % = G+G+G+G+G+G+G+G+G+G+G+G+",
"I I I I H H H G+G+G+G+G+G+G+G+G+G+I 8 ^ c c ^ ^ c c c ^ ^ ^ c ^ c c ^ ^ ^ c ^ d h G+G+I G+G+G+I I I I I I I G+G+G+G+G+G+G+G+G+G+G+G+G+G+G+G+G+G+G+G+G+G+G+G+G+G+G+G+G+G+I m # ( # 8 + G+G+G+G+G+I I I I G+G+I G+G+I H ( ^ 1 < / / / / 2 2 2 / 2 2 2 / / 2 / / / / / / / / / / / / / / / / / / 2 1 > a = G+I I I H H H H I G 8 # h H H H H + * * h h H h h h H G+G+G+G+G+G+G+G+G+G+G+G+G+G+G+G+G+G+G+G+G+G+G+G+G+G+G+G+G+G+G+G+G+I I G+G+I G+I I H H I G+I h = I I G+G+G+G+G+G+G+G+G+G+I I I I I I I G+G+G+G+G+G+G+G+G+G+G+G+G+G+G+G+G+I = h = I G+I I I I G+G+G+G+G+I G+G+G+G+G+I I I I I I I I I I I I I I I I I I I I I I I I H I I I H I I I I I I I I G+G+G+G+G+G+I G+G+G+G+G+G+G+I I I I G+G+G+I G+m : 9 : : : : : : : : : : : : : : : : : 9 c I G+I G+G+G+G+G+G+G+G+G+G+",
"G+G+G+I I I I G+G+G+G+G+G+G+G+G+G+G+k f ^ ^ c ^ c ^ ^ ^ c ^ ^ c c ^ c c ^ ^ c ^ h G+G+G+G+G+I I I I I I I I I I I H H H I I I I H H I I I I H I I I H H I I I H H H H + # 8 8 . m 8 4 = G+G+I I G+I I I I G+G+I . % [ 2 / / / 2 2 2 2 2 2 2 2 2 2 2 2 2 2 / / / / / / / / / / / / / / / / / / / / / / 1 : j G I I I I I H # 8 m H H h h h + * * h h h h + + = I I G+G+G+G+G+G+G+G+G+G+G+G+G+G+G+G+G+G+G+G+G+G+G+G+G+G+G+G+G+G+G+G+G+G+G+G+I I H H H H I G+I h I H I G+G+G+G+G+G+G+G+G+G+G+G+G+G+G+G+G+G+G+G+G+G+G+G+G+G+G+G+G+G+G+G+G+I H + h H I I H H I G+G+G+G+G+G+G+I G+G+G+I I I I I I I I I G+I H h h H H H H H H H H H H H H H I H H H H H H H H H I G+G+G+G+I I I I I I I I G+G+G+G+G+I I G+I G+. 9 : : : : : : : : : : : : : : : : : : 9 d I G+I I G+G+G+G+G+G+G+G+G+",
"G+G+G+G+G+G+G+G+G+G+G+G+G+G+G+G+G+G+4 ^ ^ c c c c ^ c c ^ ^ c c ^ c c c ^ c ^ ^ m G+I G+G+I I I H I I I I I I G+I = h h H H H H H H H H H H H H H I H H H H H H = * # 8 8 # h G+I # 8 ( I I I I I I I G+G+= ( $ < / / / 2 2 2 2 2 2 2 2 2 2 2 2 2 2 2 2 2 2 2 2 2 2 2 2 2 2 2 2 2 2 2 / / / / / / / / / / / [ k h G+G+G+m 8 4 H H = H H H = = = = H = h h + h I I I G+G+G+G+G+G+G+G+G+G+G+G+G+G+G+G+G+G+G+G+G+G+G+G+G+G+G+G+G+G+G+G+G+G+I G+I H H H H H I G+I I H H G+G+G+G+G+G+G+G+G+G+G+G+G+G+G+G+G+G+G+G+G+G+G+G+G+G+G+G+G+G+G+G+G+G+I = h H I I H H I G+G+G+G+G+G+G+G+I G+G+I I I I I I I I I I I H h h H H I H H H H H H H H H H H H H H H H H H H H I G+G+G+G+I I I I I I I I I I I I I I I I I I 4 9 : : : : : : : : : : : : : : : : : : 9 d G+I I I G+G+G+G+G+G+G+G+G+",
"G+G+G+G+G+G+G+G+G+G+G+G+G+I G+G+G+G+( c ^ c ^ c c c c ^ c c c c ^ ^ c ^ c c c ^ . G+G+I G+G+I I I I I I I I I I I H h = H H H H H H H H H H H H H H H H H H H H * 8 8 # m G+G+G+G++ j 8 * G+I I I G+G+= 8 > 2 / / 2 2 2 2 2 2 2 2 2 2 2 2 2 2 2 / / / / / / / / / / / / / / / 2 2 2 2 2 2 2 / / / / / / 2 / / / 1 % + I ' 8 + G+I I G+G+G+I I I I I I I H H I G+G+G+G+G+G+G+G+G+G+G+G+G+G+G+G+G+G+G+G+G+G+G+G+G+G+G+G+G+G+G+G+G+G+G+G+G+G+G+G+G+G+G+G+I I G+G+G+H H G+G+G+G+G+G+G+G+G+G+G+G+G+G+G+G+G+G+G+G+G+G+I G+G+G+G+G+G+G+G+G+G+G+I H I I G+G+I I G+G+G+G+G+G+G+G+G+I G+G+G+I H I I I I I I I I I H H H I I I I I I I I I I I I I I G+I H I I H H H I G+G+G+G+G+G+G+G+I I I I I G+G+G+G+G+G+I G+G+j 9 : : : : : : : : : : : : : : : : : : 9 k G+G+I I G+G+G+G+G+G+G+G+G+",
"G+G+G+G+G+G+G+G+G+G+G+G+G+I I G+G+G+( c c c c c c c c c c c ^ c ^ c c c c ^ ^ ^ ( G+G+I G+G+G+I I I I I I I I I I I I I I I I I I I G+G+I I I I I I G+G+I I I I H ( . I G+G+G+G+G+G+( 8 4 I G+G+G+I 4 > / / 2 2 2 2 2 2 2 2 2 2 2 2 2 2 / / / / < 1 [ > 5 - - - - 5 > > [ 1 2 / / / / / 2 2 2 2 2 2 2 2 2 2 2 / / / < 8 # . G+G+G+G+G+G+G+G+G+G+G+G+G+G+G+I G+G+G+G+G+G+G+G+G+G+G+G+G+G+G+G+G+G+G+G+G+G+G+G+G+G+G+G+G+G+G+G+G+G+G+G+G+G+G+G+G+G+G+G+G+G+G+G+G+G+H H I G+G+G+G+G+G+G+G+G+G+G+G+G+G+G+G+G+G+G+G+G+G+I G+G+G+G+G+G+G+G+G+G+G+I I G+G+G+G+G+G+G+G+G+G+G+G+G+G+I I G+G+G+I I I I I I I G+I I G+G+I I I G+G+G+G+G+G+G+G+G+G+G+G+G+G+G+G+G+I I H G+G+G+G+G+I I G+G+G+G+G+G+G+G+G+G+G+G+G+G+G+I 8 9 f : : : : : : : : : : : : : : : : : 9 j G+G+G+G+G+G+G+G+G+G+G+G+G+",
"G+G+G+G+G+G+G+G+G+I I I I I I I I G+m c ^ c c c c c c c c c c c ^ c c c c c ^ ^ 4 G+G+I I I G+G+I I I I I I I G+I I I I I I I G+G+G+G+G+G+G+G+G+G+G+G+G+G+G+G+G+I H I G+G+G+G+I I I h 8 8 . G+G+' - 2 / 2 2 2 2 2 2 2 2 2 2 2 / / / / < > ^ , a x + = = I I I I I I I = = m ' a % : ) / / / / / 2 2 2 2 2 2 2 2 2 / 1 8 4 8 I G+G+G+G+G+G+G+G+G+m + G+G+G+I I G+G+G+G+G+G+G+G+G+G+G+G+G+G+G+G+G+G+G+G+G+G+G+G+G+G+G+G+G+G+G+G+G+G+G+G+G+G+G+G+G+G+G+G+G+G+G+G+G+H H I G+G+G+G+G+G+G+G+G+G+G+G+G+G+G+G+G+I I I I I I I I G+I G+G+G+G+G+G+G+I I G+G+G+G+G+G+G+G+G+G+G+G+G+G+I G+G+I G+G+I I I I I I G+G+G+I I I I I G+G+G+G+G+G+G+G+G+G+G+G+G+G+G+G+G+G+G+I G+G+G+G+I H H I I I I I I I I I I I I I I I I 7 9 f : : f f : : : f : : f : : : : f : : ' G+G+G+G+G+G+G+G+G+G+G+G+G+",
"G+G+G+G+G+G+G+G+I I I I I I I I I I m d c c c c c c c c c c c c c c c c ^ ^ c c 8 G+G+I G+I I G+G+I I I I I I G+G+I I I I I I G+I G+G+G+G+G+G+G+G+G+G+G+G+G+G+G+G+G+G+G+G+G+G+I H I I . 8 # . ^ < / 2 2 2 2 2 2 2 2 2 2 2 / / < [ ^ a m G+G+G+G+G+G+G+G+G+G+G+G+G+G+G+G+G+G+G+G+G+G+I x d : 1 2 / / 2 2 2 2 2 2 2 / ^ ( d 2 > x G+G+G+G+G+G+G+h 8 4 = G+G+I I G+I I G+G+G+G+G+G+G+G+G+G+G+G+G+G+G+G+G+G+G+G+G+G+G+G+G+G+G+G+G+G+G+G+G+G+G+G+G+G+G+G+G+G+G+G+G+G+H H I G+G+G+G+G+G+G+G+G+G+G+G+G+G+G+I I I I I I I I I I I I I G+G+G+G+G+G+I I G+G+G+G+G+G+G+G+G+G+G+G+G+G+G+G+G+G+I G+G+I G+I I I G+G+I I I I I G+G+G+G+G+G+G+G+G+G+G+G+G+G+G+G+G+G+G+G+G+G+G+G+G+I I I I I I I I I I I I I I I I I I = d : f f f : : f : : f : : f f : : : : : : . G+G+G+G+G+G+G+G+G+G+G+G+G+",
"G+G+G+G+G+G+G+I I I G+G+G+G+G+G+G+G+h d c c % c c c c c c c c c c c c c c c ^ c 7 G+G+G+G+G+G+G+G+G+G+G+G+I G+G+I I I G+G+G+G+G+G+G+G+G+G+G+G+G+G+G+G+G+G+G+G+G+G+G+G+G+G+G+G+G+G+G+G+I # # d < / 2 2 2 2 2 2 2 2 2 2 / / > , x I G+G+G+G+G+G+G+G+G+G+G+G+G+G+G+G+G+G+G+G+G+G+G+G+G+G+G+G+G+= 4 ^ 1 / / 2 2 2 2 / ; j # [ / / < ^ h G+G+G+G+I # 8 . G+G+G+G+G+G+G+G+I I I G+I G+G+G+G+G+I G+G+G+G+G+G+G+G+G+G+G+G+G+G+G+I I G+G+G+G+G+G+G+G+G+G+G+G+G+G+G+G+G+G+I I I G+G+G+G+G+G+G+G+G+G+G+G+G+G+I I I I G+G+G+G+G+G+G+I I I I I G+G+G+G+I I G+G+G+G+G+G+G+G+G+G+G+G+G+G+G+G+G+G+G+G+G+G+I G+G+I I I I G+G+G+G+G+G+G+G+G+G+G+G+G+G+G+G+G+G+G+G+G+G+G+G+G+G+G+G+G+G+G+G+I I G+G+G+G+I I G+G+G+G+I I G+= c f f f f : : : f : f f : : : f f f : f : m G+G+G+G+G+G+G+G+G+G+G+G+G+",
"G+G+G+G+G+I I I I G+G+G+G+G+G+G+G+G+H d c d c d c c d c c c c c c c c c c c c c d I G+G+G+G+G+G+G+G+G+G+G+I I I I G+G+G+G+G+G+G+G+G+G+G+G+G+G+G+G+G+G+G+G+G+G+G+G+G+G+G+G+G+G+G+I G+G+h , 8 # : 2 2 2 2 2 2 2 2 2 2 < : 4 = G+G+G+G+G+G+G+G+G+G+G+G+G+G+G+G+G+G+G+G+G+G+G+G+G+G+G+G+G+G+G+G+G+G+G++ k 5 2 / / 2 / % # % 2 / 2 / / [ x G+G+G+m 8 # = I G+G+G+G+G+G+I H H H I I I G+G+G+G+G+G+G+G+G+G+G+G+G+G+G+G+G+G+G+G+I H I G+G+G+G+G+G+G+G+G+G+G+G+G+G+G+G+G+I G+G+G+G+G+G+G+G+G+G+G+G+G+G+G+I I I G+G+G+G+G+G+G+G+G+G+I I I H I G+G+G+G+I I G+G+G+G+G+G+G+G+G+G+G+G+I G+G+G+G+G+G+I G+G+G+I I I I I G+G+G+G+G+G+G+G+G+G+G+G+G+G+G+G+G+G+G+G+G+G+G+G+G+G+G+G+G+G+I H H I G+G+G+G+I H G+G+G+G+G+G+G+h f f f f f f f f f f : f f f f : f : f : f = G+G+G+G+G+G+G+G+G+G+G+G+G+",
"G+G+G+G+G+I I I G+G+G+G+G+G+G+G+G+G+G+k c d c d c c d d c c c d d c d c c c c c d h G+G+G+G+G+G+I I G+G+I I I I I I G+G+G+G+G+G+G+G+G+G+G+G+G+G+G+G+G+G+G+G+G+G+G+G+G+G+G+G+I H = = 4 | 1 8 # 8 [ 2 < < 2 2 2 2 1 d m G+G+G+G+G+G+I I G+G+G+G+G+G+G+G+G+G+G+G+G+G+G+G+G+G+G+G+G+G+G+G+G+G+G+G+G+G+G+G+I . : < / [ 4 4 [ / 2 2 2 2 / < ^ I = 4 8 * G+H I G+G+G+G+I h H H H H H H I G+G+G+G+G+G+G+G+G+G+G+G+G+G+G+G+G+G+G+I H I G+G+G+G+G+G+G+G+G+G+G+G+G+G+G+G+G+I G+G+G+G+G+G+G+G+G+G+G+G+G+G+I I I G+G+G+G+G+G+G+G+G+G+G+G+I I I I G+G+G+G+I I G+G+G+G+G+G+G+G+G+G+G+G+I I G+G+G+G+I I I G+G+I I I I I G+G+G+G+G+G+G+G+G+G+G+G+G+G+G+G+G+G+G+G+G+G+G+G+G+G+G+G+I = + + h h I I I I H = I I I I I I G+m : f f f f f f f f f : f f f f f f f : f ^ I G+G+G+G+G+G+G+G+G+G+G+G+G+",
"G+G+G+G+I I I I G+G+G+G+G+G+G+G+G+G+G+j c c d d d d d d d d d c c c d d d c d c c m G+G+G+G+G+I I I I G+G+I I I I G+G+I G+G+G+G+G+G+G+G+G+G+G+G+G+G+G+G+G+G+G+G+G+G+G+G+G+I H = + % 1 2 2 - # # d < 2 < < 2 1 % m I G+G+G+G+G+G+I H I G+G+G+G+G+G+G+G+G+G+G+G+G+G+G+G+G+G+G+G+G+G+G+G+G+G+G+G+G+G+G+G+G+G+G+( : d # c 2 2 2 2 2 2 2 2 / : ( 8 ( h H G+I G+G+G+G+I h = H H H H H H H G+G+G+G+I I I I I I I I I G+I I I I I H I G+G+G+G+G+G+G+G+G+G+G+G+G+G+G+G+G+G+G+G+G+G+G+G+G+G+G+G+G+G+G+G+I I I G+G+G+G+G+G+G+G+G+G+G+G+G+I I G+G+G+G+G+G+I I I G+G+G+G+G+G+G+G+G+G+I I G+G+G+I I I I I G+G+I I I I I I G+G+G+G+G+G+G+G+G+G+G+G+G+G+G+G+G+I I G+G+G+G+G+G+I H h + * + h h = H I I I I I I I I I I ( f f f f f f f : f f f f f f f f f f : : d G+G+G+G+G+G+G+G+G+G+G+G+G+G+",
"G+G+G+G+I I I G+G+G+G+G+G+G+G+G+G+G+G+B c d d d d d d d d d d d d c d d d d d d c . G+I G+G+G+I I I G+G+G+G+I I I I I G+G+G+G+G+G+G+G+G+G+G+G+G+G+G+G+G+I I I G+G+G+G+G+G+H I h : 2 2 < < 1 d # # - 2 2 < ^ + I G+I I I G+G+G+G+G+H I G+G+G+G+G+G+G+G+G+G+G+G+G+G+G+G+G+G+G+G+G+G+G+G+G+G+G+G+G+G+G+G+G+G+G+G+= 4 8 | / 2 2 2 2 2 2 2 / - # 4 h H h I G+G+G+G+G+I = H H H H H I H H I G+G+I H H H H H H H H H H I H H H H H I G+G+G+G+G+G+I I G+G+G+G+G+G+G+I H G+G+G+G+G+G+G+G+G+G+G+G+G+G+I I I G+G+G+G+G+G+G+G+G+G+G+G+G+G+G+I I I G+G+G+G+G+G+G+G+G+G+G+G+G+G+G+G+I I I G+G+G+I I I G+G+I G+G+I I I I I G+G+G+G+G+G+G+G+G+G+G+G+G+G+G+G+I I I I G+G+G+G+G+H H H = h h h h h = I G+G+I I I H H H H j f f f f f f f f f f f f f f f f f f f : k G+G+G+G+G+G+G+G+G+G+G+G+G+G+",
"G+G+G+I I I G+G+G+G+G+G+G+G+G+G+G+G+G+. c d d d d d d d d d d d d d d d d d d d c 4 G+I G+G+I I I I G+G+G+G+G+I I I I G+G+G+G+G+G+G+G+G+G+G+G+G+G+G+G+I I I I G+G+G+G+G+G+I m - 2 < < < < 2 5 j # 8 [ - ( I I H = = = H I I I I I I I G+G+G+G+G+G+G+G+G+G+G+G+G+G+G+G+G+G+G+G+G+G+G+G+G+G+G+G+G+G+G+G+G+G+G+G+. 8 . a [ / 2 2 2 2 2 / | 8 # : d I I I G+G+G+G+G+I H H H I I I I I I I G+G+H H H H H H H H H H H H H H H H H I G+G+G+I I I H H I I I I G+G+G+I I G+G+G+G+G+G+G+G+G+G+G+G+G+G+I I I G+G+G+G+G+G+G+G+G+G+G+G+G+G+G+I H I G+G+G+G+G+G+G+G+G+G+G+G+G+G+G+G+I I I G+G+I I I I G+G+G+I G+G+G+I I I G+G+G+G+G+G+G+G+G+G+G+G+G+G+G+I I I I G+G+G+G+G+G+I H H h h h h h h = I G+I H h = = h h + d f f f f f f f f f f f f f f f f f f f : 4 G+G+G+G+I I G+G+G+G+G+G+G+G+",
"G+G+G+I I I G+G+G+G+G+G+G+G+G+G+G+G+G+m c d d d d d d d d d d d d d d d d d d d c j G+G+G+G+I I I I G+G+G+I G+G+I I I I I I I I G+G+G+G+G+G+G+G+G+G+G+I H H I G+G+G+G+G+G+m 5 < < < < < < < < % # 4 8 * H h + + + + + h h H I I H I G+G+G+G+G+G+G+I I G+G+G+G+G+G+G+G+I G+G+G+G+G+G+G+G+G+G+G+G+G+G+G+G+G+G+h 8 4 I G+= : 2 / 2 2 2 < d # d 2 2 a G+G+G+G+G+I G+G+I I I G+G+G+G+G+G+G+G+G+I I I I I I I I I I I I I I H H H H I I I H H H H H H H H H H I G+G+G+G+G+G+G+G+G+G+G+G+G+G+G+G+I I I G+G+G+G+G+G+G+G+G+G+G+G+G+G+G+G+I H I G+G+G+G+G+G+G+G+G+G+G+G+G+G+G+G+I I G+G+G+I I I I I G+G+I I G+G+I I I I I I I I I I G+G+G+G+G+G+G+G+I H I I G+G+G+G+G+G+G+I h h + h h = = H I I H = h h + + + + d f f f f f f f f f f f f f f f f f f f 9 ( G+G+G+G+I I G+G+G+G+G+G+G+G+",
"G+G+G+I I I G+G+G+G+G+G+G+G+G+G+G+G+G+= d d d d d d d d d d d d d d d d d d d d c 7 H G+G+G+I I I I G+G+I I I G+G+I I G+G+G+G+G+I I G+G+G+G+G+G+G+G+G+I I I G+G+G+G+G+G+m [ < < < 1 < < < < 2 [ j 4 # h h h + + h h h h H H H H H H G+G+G+G+G+G+I I I I G+I G+G+G+G+G+I G+G+G+G+G+G+G+G+G+G+G+G+G+G+G+G+G+G+# 8 m G+G+G+G+4 | / 2 / : # 8 [ / 2 2 d G+G+G+G+G+I G+G+G+G+G+G+G+G+G+G+G+G+G+G+G+G+G+G+G+G+G+G+G+G+G+G+I I G+G+G+I I I I I H H H H H H H H I G+G+G+G+G+G+G+G+G+G+G+G+G+G+G+G+I I I I G+G+G+G+G+G+G+G+G+G+G+G+G+G+G+I I I G+G+G+G+G+G+G+G+G+G+G+G+G+G+G+I I I I G+G+G+I I I G+G+G+I I I G+G+I I I I I I I I G+G+G+G+G+G+G+G+G+G+G+G+G+G+G+G+G+G+G+G+G+I H H H I I I I I I I H H H = = H * ^ : f f f f f f f f f f f f f f f f f f f m G+I G+G+G+G+G+G+G+G+G+G+G+G+",
"G+G+G+I I I G+G+G+G+G+G+G+G+G+G+G+G+G+I 7 c d d d d d d d d d d d d d d d d d d c 7 h G+G+G+G+I I I G+G+G+I I G+G+G+G+G+G+G+G+G+G+G+G+G+G+G+G+G+G+G+G+G+G+G+G+G+G+G+G++ [ < 1 1 1 1 1 1 1 < 1 d . 8 # H I I I I I I I I I G+I I I I I G+G+I I I I I I I I I I I G+G+G+G+G+G+G+G+G+G+G+G+G+G+G+G+G+G+G+G+G+I # 4 I G+G+G+G+G++ - / 1 8 # : 2 2 2 2 2 , G+G+G+G+G+I G+G+G+G+G+G+G+G+G+G+G+G+G+G+G+G+G+G+G+G+G+G+G+G+G+G+I G+G+G+G+G+G+G+G+G+G+G+G+I I I G+G+G+G+G+G+G+G+G+G+G+G+G+G+G+G+G+G+G+I I I G+G+G+G+G+G+G+G+G+G+G+G+G+G+G+I H I G+G+G+G+G+G+G+G+G+I I I G+G+G+G+I I G+G+G+G+G+G+G+G+G+G+G+G+G+G+G+G+G+G+G+G+G+G+G+G+G+G+G+G+G+G+G+G+G+G+G+G+G+G+G+G+G+G+G+G+G+G+G+G+G+G+I I G+G+G+G+G+G+G+G+G+m ^ : f f f f f f f f f f f f f f f f f f ^ G I G+G+G+G+G+G+G+G+G+G+G+G+G+",
"G+G+G+I H H I G+G+G+G+G+G+G+G+G+G+G+G+I 8 c d d d d d d d d d d d d d d d d d d d d m G+G+G+G+G+G+G+G+G+G+G+G+G+G+G+G+G+G+G+G+G+G+G+G+G+G+G+G+G+G+G+G+G+G+G+G+G+G+G++ 5 < 1 1 1 1 1 1 1 < 1 8 G+I 4 8 + G+G+G+G+I I G+G+G+G+G+G+I G+G+G+G+G+G+I I I I I I I I I G+G+G+G+G+G+G+G+G+G+G+G+G+G+G+G+G+G+G+G+G+G+I I G+G+G+G+G+G+G+= ^ % # d < 2 2 2 2 2 2 a G+G+G+G+G+G+G+G+G+G+G+G+G+G+G+G+G+G+G+G+G+G+G+I G+G+G+G+G+G+G+G+G+G+G+G+G+G+G+G+G+G+G+G+G+G+G+G+G+G+G+G+G+G+G+G+G+G+G+G+G+G+G+G+G+G+I H I G+G+G+G+G+G+G+G+G+G+G+G+G+G+I I H I G+G+G+G+G+G+I I I H H H I G+G+G+I I G+G+G+G+G+G+G+G+G+G+G+G+G+G+G+G+G+G+G+G+G+G+G+G+G+G+G+G+G+G+G+G+G+G+G+G+G+G+G+G+G+G+G+G+G+G+G+G+G+G+G+I G+G+G+G+G+G+G+G+G+. f f f f f f f f f f f f f f f f f f f : d = G+G+G+G+G+G+G+G+I I I I I G+",
"G+G+G+G+I H I G+G+G+G+G+G+G+G+G+G+G+G+G+4 c d d d d d d d d d d d d d d d d d d d c m G+G+G+G+G+G+G+G+G+G+G+G+G+G+G+G+G+G+G+G+G+G+G+G+G+G+G+G+G+G+G+G+G+G+G+G+G+G++ 5 < 1 1 1 1 1 1 1 < 5 x G+G+G+m 8 # I G+G+G+I I G+G+G+G+G+G+G+G+G+G+G+G+G+G+G+G+G+G+G+G+G+G+G+G+G+G+G+G+I H H H I I G+G+G+G+G+G+G+G+G+G+G+G+G+G+I I I I G+G+* # 8 [ 2 2 2 2 < 2 2 2 a G+I H I G+G+G+G+I I I H H H H H H H I G+G+H H I G+G+G+G+G+G+G+G+G+G+G+G+G+G+G+G+G+G+G+G+G+G+G+G+G+G+G+G+I G+G+G+G+I G+G+G+G+G+G+G+I H H I G+G+G+G+G+G+G+G+G+G+G+G+G+G+I H I G+G+G+G+G+G+I H H H H H I G+G+G+G+I I G+G+I I I G+G+G+G+G+G+G+G+G+G+G+G+G+G+G+G+G+G+G+G+G+G+G+G+G+G+G+G+G+G+G+G+G+G+G+G+G+G+I G+I I I I I I I I I I I I G+I I j : f f f f f f f f f f f f f f f f f f 9 d G+G+G+G+G+G+G+G+G+H H H H I G+",
"G+G+G+G+I I H I G+G+G+G+G+G+G+G+G+G+G+G+( d d d d d d d d d d d d d d d d d d d d c j H I I I I I G+G+G+G+G+G+G+G+G+G+G+G+G+I I I G+G+G+G+G+G+G+G+G+G+G+I G+G+G+I $ < 1 1 1 1 1 1 1 < > m I H = H = # 8 * G+I = H I G+G+G+G+G+G+G+G+G+G+G+G+G+G+G+G+G+G+G+G+G+G+G+G+G+G+G+G+I I I I I G+G+G+G+G+G+G+G+G+G+G+G+G+G+G+G+G+G+G+G+I # # 8 1 2 < < < < < < 2 1 4 I H H G+G+I I I I H H H H H H H H H G+G+H H H G+G+G+G+G+G+G+G+G+G+G+G+G+G+G+G+G+G+G+G+G+G+G+G+G+G+G+I H I G+G+I I G+G+G+G+G+G+G+G+I H I I G+G+G+G+G+G+G+G+G+G+G+I I I H I G+G+G+G+G+G+I H H H H H I G+G+G+G+I h H H h h H I G+G+G+G+G+G+G+G+G+G+G+G+I H H H I I I G+G+G+G+G+I I H H G+G+G+G+G+I I G+G+I I H H h h + + + h + h h = I = * d : f f f f f f f f f f f f f f f f f f : j G+G+G+G+G+G+G+G+G+I I I I G+G+",
"G+G+G+G+G+I H = I G+G+G+G+G+G+G+G+G+G+I m d d d d d d d d d d d d d d d d d d d d d 8 * H H = = I G+G+G+G+G+G+G+G+G+G+G+G+G+H H H I I I G+G+G+G+G+G+I I H I G+G+^ 1 1 1 1 1 1 1 1 < - * + * * * * + . j 4 = h * + = I G+G+G+G+G+G+G+G+G+G+G+G+G+G+G+G+G+G+G+G+G+G+G+G+G+G+G+G+I I I G+G+G+G+G+G+G+G+G+G+G+G+G+G+G+G+G+G+G+G+G+m 8 # I ( 1 2 < < < < < < 2 1 ( G+I I G+G+G+G+I I I H H H H H H I G+G+I I I G+G+G+G+G+G+G+G+G+G+G+G+G+G+G+G+G+G+G+G+G+G+G+G+G+G+G+I I I G+G+G+I G+G+G+G+G+G+G+G+I H = H I G+G+G+G+G+G+G+G+G+I H I I H H G+G+G+G+G+G+I I H H H H I G+G+G+G+I h H H h = I G+G+G+G+G+G+G+G+G+G+G+G+G+G+I I I G+G+G+G+G+G+G+G+I I H H I G+G+G+G+I I G+G+G+I = h h + * * * + + + + = I = * d : f f f f f f f f f f f f f f f f f f f ( G+G+G+G+G+G+G+G+G+G+G+G+G+G+G+",
"G+G+G+G+G+I H H H H I I G+G+G+G+G+G+I I m d d d d d d d d d d d d d d d d d d d d d d * H H = H I G+G+G+G+G+G+G+G+G+G+G+G+G+G+G+G+G+G+G+G+G+G+G+G+I I I H I G+, 1 1 1 1 1 1 1 1 1 - . h * * * + h + + # 4 + = h h I I G+G+G+G+G+G+G+G+G+G+G+G+G+G+G+G+G+G+G+G+G+G+G+G+G+G+G+G+G+G+G+G+G+G+G+G+G+G+G+G+G+G+G+G+G+G+G+G+G+G+G+G+I . = G+G+. 1 2 < < < < < < 2 [ h G+G+G+G+G+G+G+G+G+G+G+G+G+G+G+G+G+G+G+G+G+G+G+G+G+G+G+G+G+G+G+G+G+G+G+G+G+G+G+G+G+G+G+G+G+G+G+G+I I G+G+G+G+G+G+G+G+G+G+G+G+G+I I H H H I I G+G+G+G+G+G+I H = I I H H G+G+G+G+G+G+I I I H H H I G+G+G+G+I H H I I I I G+G+G+G+G+G+G+G+G+G+G+G+G+G+G+G+G+G+G+G+G+G+G+G+G+G+I I I G+G+G+G+G+G+G+G+G+G+G+H h h h h + h h h h h H I I m c f f f f f f f f f f f f f f f f f f f ^ m G+G+G+G+G+G+G+G+G+G+G+G+G+G+G+",
"G+G+G+G+G+G+I I H = H I I G+G+G+G+I I H h 7 d d d d d d d d d d d d d d d d d d d d d * I I I I G+G+G+G+G+G+G+G+G+G+G+G+G+G+G+G+G+G+G+G+G+G+G+G+G+G+G+G+I G+4 1 1 1 1 1 1 1 1 < - * = h = h h H H = = h h G+I I I G+G+G+G+G+G+G+G+G+G+G+G+G+G+G+G+G+G+G+G+G+G+G+G+G+G+G+G+G+G+G+G+G+G+G+G+G+G+G+G+G+G+G+G+G+G+G+G+G+G+I I I G+G+G+G+G+G+G+x 1 < < < < < < < 2 : G+G+G+G+G+G+G+G+G+G+G+G+G+G+G+G+G+G+G+G+G+G+G+G+G+G+G+G+G+G+G+G+G+I G+G+G+G+G+G+G+G+G+G+G+G+G+G+G+G+G+G+G+G+G+G+G+G+G+G+G+G+G+G+I I I H = I I G+G+G+G+G+I H H I I H = G+G+G+G+G+G+I H I H H H I G+G+G+G+I I G+G+G+G+G+G+G+G+G+G+G+G+G+G+G+G+G+G+G+G+G+G+G+G+G+G+G+G+G+G+G+G+G+G+G+G+G+G+G+G+G+G+G+G+G+I H H H I I I I I I I I G+G+. f f f f f f f f f f f f f f f f f f f : ^ = G+G+G+G+G+G+G+G+G+G+G+G+G+G+G+",
"G+G+G+G+G+G+G+I I I I I G+G+G+G+G+G+I H H j d d d d d d d d d d d d d d d d d d d d d m G+G+G+G+G+G+G+G+G+G+G+G+G+G+G+G+G+G+G+G+G+G+G+G+G+G+G+G+G+G+G+G+G++ > 1 1 1 1 1 1 1 1 - h G+I I I G+G+G+G+G+G+G+G+G+G+G+G+G+G+G+G+G+G+G+G+G+G+G+G+G+G+G+G+G+G+G+G+G+G+G+G+G+G+G+G+G+G+G+G+G+G+G+G+G+G+G+G+G+G+G+G+G+G+G+G+G+I I I G+G+G+G+G+G+G+G+G+' 1 < < < < < < < < d G+G+G+G+G+G+G+G+I = G+G+G+G+G+G+G+G+G+G+G+G+G+G+G+G+G+G+G+G+I H H H G+G+G+G+G+G+G+G+G+G+G+G+G+G+G+G+G+G+G+G+G+G+G+G+G+G+G+G+G+G+G+I I I I I G+G+G+G+G+I I H H I H H G+G+G+G+G+G+I H H H H H I G+G+G+G+I G+G+G+G+G+G+G+G+G+G+G+G+G+G+G+G+G+G+G+G+I G+G+I I G+G+G+G+G+G+G+G+G+G+G+G+G+G+G+G+G+G+G+G+G+G+G+G+G+G+G+G+G+G+G+G+G+G+G+4 f ^ ^ f ^ f f f f f f f f f f f f f f f d G+G+G+G+G+G+G+G+G+G+G+G+G+G+G+G+",
"G+G+G+G+G+G+G+G+G+I I I G+G+G+G+G+G+G+I I ( d d d d d d d d d d d d d d d d d d d d d B G+G+G+G+G+G+G+G+G+G+G+G+G+G+G+G+G+G+I I G+G+G+G+G+G+G+G+G+G+G+G+I : 1 1 1 1 1 1 1 1 - + G+G+G+G+G+G+G+G+G+G+G+G+G+G+G+G+G+G+G+G+G+G+G+G+G+G+G+G+G+G+G+G+G+G+G+G+G+G+G+G+G+G+G+G+G+G+G+G+G+G+G+G+G+G+G+G+G+G+G+G+G+G+G+G+G+G+I H I G+G+G+G+G+G+G+G+G+G+' < < < < < < < < < ' G+G+G+G+G+G+H ( j h G+G+G+G+G+G+G+G+G+G+G+G+G+G+G+G+G+G+G+I I I H I G+G+G+G+G+G+G+G+G+G+G+G+G+G+G+G+G+G+G+G+G+G+G+G+G+G+G+G+G+G+G+G+I I G+G+G+G+G+G+G+I I I I H H I G+I I G+G+I H H H H H I G+G+G+G+I G+G+G+G+G+G+G+G+G+G+G+G+G+G+G+G+G+G+G+G+H H G+G+G+G+G+G+G+G+G+G+G+G+G+G+G+G+G+G+G+G+G+G+G+G+G+G+G+G+G+G+G+G+G+G+G+G+G+G+k f f f f f f ^ ^ f f f ^ f f f f f f f f j G+G+G+G+G+G+G+G+G+G+G+G+G+G+G+G+",
"G+G+G+G+G+G+G+G+G+I G+G+G+G+G+G+G+G+G+I I m d d d d d d d d d d d d d d d d d d d d d 8 G+G+G+G+G+G+G+G+G+G+G+G+G+G+G+G+G+G+I H I G+G+G+G+G+G+G+G+G+G+G+, 1 1 1 1 1 1 1 1 [ . G+G+G+G+G+G+I G+G+I G+G+G+G+G+G+G+G+G+G+G+G+G+G+G+G+G+G+I I I I I I G+G+G+G+G+G+G+G+G+G+G+G+G+G+G+G+G+G+G+G+G+G+G+G+G+G+G+G+G+G+G+G+G+I I H I G+G+G+G+G+G+I I I G+d < < 1 1 < 1 1 < [ h I I G+G+h # 8 4 * H I G+G+G+G+G+G+G+G+G+G+G+G+G+G+G+G+G+G+G+G+G+G+G+G+G+G+G+G+G+G+G+G+G+G+G+G+G+G+G+G+G+G+G+G+G+G+G+G+G+G+G+G+G+I I G+G+G+G+G+G+G+G+G+I I I H H I I I I I I I H H h h = H I I I I I G+G+G+G+G+G+G+G+G+G+G+G+G+G+G+G+G+G+G+I H H I G+G+G+G+G+G+G+G+G+G+G+G+G+G+G+G+G+G+G+G+G+G+G+G+G+G+G+G+I G+G+I G+G+G+G+H d f ^ ^ ^ ^ ^ ^ ^ ^ f ^ f ^ ^ ^ f f ^ ^ f ( G+G+G+G+G+G+G+G+G+G+G+G+G+G+G+G+",
"G+G+G+G+G+G+G+G+G+G+G+G+G+G+G+G+G+G+G+I I h d d d d d d d d d d d d d d d d d d d d d d = G+G+G+G+G+G+G+G+G+G+G+G+G+G+G+G+G+I H H G+G+G+G+G+G+G+G+G+G+x 1 1 1 1 1 1 1 1 1 4 G+G+G+G+G+G+I I H I I H I I I I I I I I I I I G+G+G+G+G+G+G+G+G+I I G+G+G+G+G+G+G+G+G+G+G+G+G+G+G+G+G+G+G+G+G+G+G+G+G+G+G+G+G+G+G+G+G+I H I H H I G+G+G+G+G+H H H I G+^ < 1 1 1 1 1 1 < ^ H I G+m 8 8 ( = I I I G+G+G+G+G+G+G+G+G+G+G+G+G+G+G+G+G+G+G+G+G+G+G+G+G+G+G+G+G+G+G+G+G+G+G+G+G+G+G+G+G+G+G+G+G+G+G+G+G+G+G+G+G+G+I G+G+G+G+G+G+G+G+I I I I H H I I I H I I I H H h h h I I I I I I G+G+G+G+G+G+G+G+G+G+G+G+G+G+G+G+G+G+G+I H H I G+G+G+G+G+G+G+I I I G+G+G+G+G+G+G+I G+G+G+G+I G+G+G+I I H h = I I I I I m ^ ^ ^ ^ ^ ^ ^ ^ ^ ^ ^ f ^ ^ ^ ^ ^ f f ^ f m G+G+G+G+G+G+G+G+G+G+G+G+G+G+G+G+",
"G+G+G+G+G+G+G+G+G+G+G+G+G+G+G+G+G+G+G+I G+I 8 d d d d d d d d d d d d d d d d d d d d d m G+G+G+G+G+G+G+G+G+G+G+G+G+G+G+G+G+I H H I G+G+G+G+G+G+G+G+= - 1 1 1 1 1 1 1 1 d G+G+G+I G+G+G+I I h + = I I I I I I G+G+I I I I I G+G+G+G+G+G+G+G+G+G+G+G+G+G+G+G+G+G+G+G+G+G+G+G+G+I G+G+G+G+G+G+G+G+G+G+G+G+G+G+G+G+G+H H H h h h H I G+G+G+I I I I G+= > < 1 1 1 1 1 < 1 j = ( 8 8 m G+G+G+G+G+G+G+G+G+G+G+G+G+G+G+G+G+G+G+G+G+G+G+G+G+G+G+G+G+G+G+G+G+G+G+G+G+G+G+G+G+G+G+G+G+G+G+G+G+G+G+G+G+G+G+G+G+G+G+G+G+G+G+G+G+G+G+G+G+G+G+G+I I I I I I I G+G+I I I H I I G+G+G+G+G+G+G+G+G+G+G+G+G+G+G+G+G+G+G+G+G+G+G+G+I I H H I G+G+G+G+G+G+I I I G+G+G+G+G+G+G+I G+G+G+G+H I G+G+I I H = = I I I I I ( ^ ^ ^ ^ ^ ^ ^ ^ ^ ^ ^ ^ ^ ^ ^ ^ ^ f ^ f ^ I G+G+G+G+G+G+G+G+G+G+G+I I I G+G+",
"G+G+G+G+G+G+G+G+G+G+G+G+G+G+G+G+G+G+G+G+G+G+4 d d d d d d d d d d d d d d d d d d d d d ( G+G+G+G+G+G+G+G+G+G+G+G+G+G+G+G+G+I H H H I I G+G+G+G+I I d 1 1 | 1 | | 1 1 - = G+G+I H G+G+G+G+I I I I G+G+G+G+G+G+G+G+G+I I H I I G+G+G+G+G+G+G+G+G+G+G+G+G+G+G+G+G+G+G+G+G+G+G+G+I I I I I G+G+G+G+G+G+G+G+G+I G+G+G+H = h h + + h H G+G+G+G+G+G+G+G+G+x 1 < 1 1 1 1 < < ^ # 8 # h G+G+G+G+G+G+G+G+G+G+G+G+G+G+G+G+G+G+G+G+G+G+G+G+G+G+G+G+G+G+G+G+G+G+G+G+G+G+G+G+G+G+G+G+G+G+G+G+G+G+G+G+G+G+G+G+G+G+G+I G+G+G+G+G+G+G+G+G+G+G+G+G+G+G+G+G+I G+G+G+G+G+G+G+G+G+G+G+G+G+G+G+G+G+G+G+I G+G+G+G+G+G+G+G+G+G+G+G+G+G+I I H H H H I G+G+G+G+I I I G+G+G+G+G+G+G+G+G+G+G+G+H I G+G+G+I I G+G+I G+G+G+G+8 f ^ ^ ^ ^ ^ ^ ^ ^ ^ ^ ^ ^ ^ ^ ^ ^ ^ ^ f k G+G+G+G+G+G+G+G+G+G+G+I H H I I G+",
"G+G+G+G+G+G+G+G+I I G+G+G+G+G+G+G+G+G+G+G+G+m d d d d d d d d d d d d d d d d d d d d d j I G+G+G+G+G+G+G+G+G+G+G+G+G+G+G+G+I H H H H H I G+G+G+G+m [ | | | | | | 1 [ m G+G+G+I I G+G+G+G+G+G+G+G+G+G+G+G+G+G+G+G+G+I I = H I G+G+G+G+G+G+G+G+G+G+G+G+G+G+G+G+G+G+G+G+G+G+G+G+H H I I I G+G+G+G+G+G+G+G+G+G+G+G+I H H H H = I I I G+G+G+G+G+G+G+G+G+G+a < 1 1 1 < 1 % 4 # . I G+G+G+I I G+I G+G+G+G+G+G+G+G+G+G+G+G+G+G+G+G+G+G+G+G+G+G+G+G+G+G+G+G+G+G+G+G+G+G+G+G+G+G+G+G+G+G+G+G+G+G+G+G+G+G+G+G+G+I I G+G+G+G+G+G+G+G+G+G+G+G+G+G+G+G+G+G+G+G+G+G+G+G+G+G+G+G+G+G+G+G+I I I I I G+G+G+G+G+G+G+G+G+G+G+G+G+G+I H H H I I I I G+G+G+G+G+G+G+G+G+G+G+G+G+G+G+G+G+G+H I G+G+G+G+G+G+G+G+G+G+G+H d f ^ ^ ^ ^ ^ ^ ^ ^ ^ ^ ^ ^ ^ ^ ^ ^ ^ ^ f 4 G+G+G+G+G+G+G+G+G+G+G+I I I I I I ",
"G+G+G+G+G+G+G+G+G+I G+G+G+G+G+G+G+G+G+G+G+G+h d d d d d d d d d d d d d d d d d d d d d 7 h G+G+G+G+G+G+G+G+G+G+G+G+G+G+G+G+I H H I I I I G+G+G+G+^ 1 [ [ [ | | | | k G+G+G+G+I I G+G+G+G+G+G+G+G+G+G+G+G+G+G+G+G+G+G+I H H I G+G+G+G+G+G+G+G+G+G+G+G+G+G+G+G+G+G+G+G+G+G+G+G+I G+G+G+I I I I I I H H I I H I I H h H H H H I G+I I I I G+G+I I G+G+G+G+: 1 1 < 5 , # 8 ^ . G+G+G+G+G+I I G+G+G+G+G+G+G+G+G+G+G+G+G+G+G+G+G+G+G+G+G+G+G+G+G+G+G+G+G+G+G+G+G+G+G+G+G+G+G+G+G+G+G+G+G+G+G+G+G+G+G+G+G+G+G+G+G+G+G+G+G+G+G+G+G+G+G+G+G+G+G+G+G+G+G+G+G+G+G+G+G+G+G+G+G+G+G+G+G+H I I G+G+G+G+G+G+G+G+G+G+G+G+G+G+G+I H I I G+G+G+G+G+G+G+G+G+G+G+G+G+G+G+G+G+G+G+G+G+G+I G+G+G+G+G+G+G+H H G+G+G+h ^ ^ ^ ^ ^ ^ ^ ^ ^ ^ ^ ^ ^ ^ ^ ^ ^ ^ ^ ^ ^ . G+G+G+G+G+G+G+G+G+G+G+G+G+G+G+I = ",
"G+G+G+G+G+G+G+G+G+G+G+G+G+G+G+G+G+G+G+G+G+G+I 8 d d d d d d d d d d d d d d d d d d d d d m G+G+G+G+G+G+G+G+G+G+G+G+G+G+G+G+I H I G+G+G+G+G+G+G+x [ | [ [ [ [ [ | ^ I G+G+G+G+G+I G+G+G+G+G+G+I H I G+G+G+G+G+G+G+G+G+I I I G+G+G+G+G+G+G+G+G+G+G+G+G+G+G+G+G+G+G+G+G+G+G+G+G+G+G+G+G+H h h H H = h h = = h H H h h H I I H I I I H H H I I H = I G+G+G+. 1 1 : 8 # 8 - < ^ G+G+G+G+G+G+G+G+G+G+G+G+I I G+G+G+G+G+G+G+G+G+G+G+G+G+G+G+G+G+G+G+G+G+G+G+G+G+G+G+G+G+G+G+G+G+G+G+G+G+G+G+G+G+G+G+G+G+G+G+I G+G+G+G+G+G+G+G+G+G+G+G+G+G+G+G+I G+G+G+G+G+G+G+G+G+G+G+G+G+G+I G+G+G+G+G+G+G+I G+G+G+G+I I G+G+G+G+I I I I I I G+G+G+I I G+G+G+G+G+G+G+G+G+G+G+G+G+G+G+G+G+G+G+G+G+G+G+G+I I I I G+G+( f ^ ^ ^ ^ ^ ^ ^ ^ ^ ^ ^ ^ ^ ^ ^ ^ ^ ^ ^ d = G+G+G+G+G+G+G+G+G+G+G+G+G+G+G+I H ",
"G+G+G+G+G+G+F+F+Y I F+= I F+F+G+7.F+F+F+= G+G+4 d d d d d d d d d d d d d d d d d d d d d ( G+G+I I I I G+I H I I G+G+G+I I I H I I G+G+G+I G+I ^ | [ [ [ [ [ [ [ . G+G+G+G+G+G+G+G+G+G+G+G+G+I I I G+G+G+G+G+G+G+G+G+G+G+G+G+G+G+G+G+G+G+G+G+G+G+G+G+G+G+G+G+G+G+G+G+G+G+G+G+G+G+G+G+I = = H H = h h H H H I I H = I I I I I H H H H H I I h h I G+G+G+G+d c 4 # d [ 1 1 | . G+G+G+G+G+G+G+G+G+G+I I I I G+G+G+G+G+G+G+G+G+G+G+G+G+G+G+G+G+G+G+G+G+G+G+G+G+G+G+G+G+G+G+G+G+G+G+G+G+G+G+G+G+G+G+G+G+G+I G+G+G+I G+G+G+G+G+G+G+G+G+G+G+I I I G+G+G+I H I G+G+G+G+G+G+G+I I G+G+G+G+G+H H H H I I H H H I I I I I I H H I I G+G+I H I I G+G+H I G+G+G+G+G+G+G+G+G+G+G+G+G+G+G+G+G+G+G+G+G+G+G+I 8 f ^ ^ ^ ^ ^ ^ ^ ^ ^ ^ ^ ^ ^ ^ ^ ^ ^ f 9 d = F+7.I F+F+I F+F+I Y = = I I G+I H ",
"].X $.m.F.o.>.>.*.F.W.@+F.*.R %.%.n.%.%.#.F.... d d d 7 d d d d d d d d d d d d d d d d d j I I H H H H H H H H H I I I I I I I I I I G+I H I B [ [ [ [ [ [ [ | d G+G+G+G+G+G+G+G+G+G+G+G+G+G+G+G+G+G+G+G+G+G+G+G+G+G+G+G+G+G+G+G+G+G+G+G+G+G+G+G+G+G+G+G+G+G+G+G+G+G+G+G+G+I I G+G+G+I H H I I I h h I G+I I G+I I I G+G+G+I I I I I I G+I h h I G+G+G+= ( 4 8 ^ 1 1 1 1 1 : I G+I I I I I G+G+G+I I I I I G+G+G+G+G+G+G+G+G+G+G+G+G+G+G+G+G+G+G+G+G+G+G+G+G+G+G+G+G+G+G+G+G+G+G+G+G+G+G+G+G+G+G+G+G+G+G+G+G+I I G+G+G+G+G+G+G+G+G+G+I I I G+G+G+I H H G+G+G+G+G+G+G+I G+G+G+G+G+I I H H I I I H H I I G+G+I I I I I I I G+G+I I I I G+G+H H G+G+G+G+G+G+G+G+G+G+G+G+G+G+G+G+G+G+G+G+G+G+G+= d ^ ^ ^ ^ ^ ^ ^ ^ ^ ^ ^ ^ ^ ^ ^ ^ ^ 0 O #.%.%.n.%.%.R *.F.@+W.F.*.>.>.o.F.m.$.X ",
"U U U @.@.,+++*.D.U.C.,+w.+. .Y. .$.-.].*.C.Y.h 7 d 7 d d d d d d d d d d d d d d d d d d 7 = G+I H H I I I H H I G+G+G+G+G+G+G+G+G+G+G+G+G+I f | [ [ [ [ [ [ 5 = G+G+G+G+G+G+G+G+G+G+G+G+G+G+G+G+G+G+G+G+G+G+G+G+G+G+G+G+G+G+G+G+G+G+G+G+G+G+G+G+G+G+G+G+G+G+G+G+G+G+G+G+G+G+I G+G+I H = H I I I h h I G+I I G+I I G+G+G+G+I I G+G+G+G+G+H h h I G+G++ 4 8 # - 1 1 1 1 1 1 1 ( I H H H H H I I I I I I I I I G+G+G+G+G+G+G+G+G+G+G+G+G+G+G+G+G+G+G+G+G+G+G+G+G+G+G+G+G+G+G+G+G+G+G+G+G+G+G+G+G+G+G+G+G+G+G+G+G+G+G+G+G+G+G+G+G+G+G+G+I I I G+G+G+G+I I G+G+G+G+G+G+G+G+G+G+G+G+G+G+I I I G+G+G+H H G+G+G+G+G+G+G+G+G+G+G+G+G+G+G+G+G+G+I H I G+G+G+G+G+G+G+G+G+G+G+G+G+I I I I I I I I I G+m ^ c ^ c c c ^ ^ ^ ^ ^ ^ ^ ^ ^ ^ ^ ^ Q C.*.].-.$. .Y. .+.w.,+C.U.D.*.++,+@.@.U U ",
"@.U @.@.w.++++u.,+D.D.U.V.W.C.M.*.>.>.#.M.;.o.I 8 d 7 d d d 7 d d 7 d 7 d d d d 7 d d d d d m G+I G+G+G+G+I H I G+G+G+G+G+G+G+G+G+G+G+G+G+G+( [ [ [ [ [ [ [ [ 8 G+G+G+G+G+G+G+G+G+I I H I I I I I I G+G+G+G+G+G+G+G+I I G+G+G+G+G+G+G+G+G+G+G+G+G+G+G+G+G+G+G+G+G+G+G+G+G+G+G+G+G+G+I H = H I H H h = G+G+H H I H H I G+G+G+G+I G+G+G+G+G+H * h I G+. 8 8 . = : 1 1 1 1 1 1 1 9 H H H H H I I I I I I I I I I G+G+G+G+G+G+G+G+G+G+G+G+G+G+G+G+G+G+G+G+G+G+G+G+G+G+I G+G+G+G+G+G+G+G+G+G+G+G+G+G+G+G+G+G+G+G+G+G+G+G+G+G+G+G+G+G+G+G+G+I I I G+G+G+G+G+G+G+G+G+G+G+G+G+G+G+G+G+G+G+G+G+I I G+G+I H I G+G+G+G+G+G+G+G+G+G+G+G+G+G+G+G+G+G+H H I G+G+G+G+G+G+G+G+G+G+G+G+I H H H H H H H H I G+4 ^ ^ ^ ^ c c ^ ^ c ^ ^ ^ ^ ^ ^ ^ ^ ^ R ;.M.#.>.>.*.M.C.W.V.U.D.D.,+u.++++w.@.@.U ",
"@.U U @.u.O.>+V.N.v.V.,+N.D.,+++W.].w.M.W.w.W.&.F L Q P P Q P m.N N R l z R P P P Q P T P N P.P.G.I I G+G+I H G+G+G+G+G+G+G+G+G+G+G+G+G+G+G+^ [ 5 [ [ [ [ [ 9 = G+G+G+G+G+G+G+G+G+H h h h H H H H H I G+G+G+G+G+G+G+G+I I G+G+G+G+G+I G+I G+G+G+G+G+G+G+G+G+G+G+G+G+G+G+G+G+G+G+G+G+I H H I I H = h = G+G+h h H H = H H I G+G+G+G+G+I I I H h * H I # 4 + I G+4 1 1 1 1 1 1 1 [ m G+I G+G+I I I I I G+G+G+G+I H G+G+G+G+G+G+G+G+G+G+G+G+G+G+G+G+G+G+G+G+G+G+G+G+G+G+G+G+G+G+G+G+G+G+G+G+G+G+G+G+G+G+G+G+G+G+G+G+G+G+G+G+G+G+G+G+G+G+G+I I I G+G+G+G+G+G+G+G+G+G+G+G+G+G+G+G+G+G+G+G+G+H H I G+I H I G+G+I I I I I G+G+G+G+G+G+G+G+G+G+G+H h H G+G+G+G+G+G+G+G+G+G+G+G+I = m X.G.P.G.n.m.n.Y.Q P V P R z l z N N P P Q P P Q T y y D.w.W.M.w.].W.++,+D.N.,+V.v.N.V.>+O.u.@.U U ",
"@.U U @.O.N.>+u.V.u.++O.N.D.M.N.w.,+D.D.>.@.N.Y.B.M.w.++].*.*.D.V.w.N.U U U >.V.>+N.++V.W.U.C.E.F.H H I I H H G+G+I I I I I I G+G+G+G+G+G+m 5 [ 5 [ 5 e [ [ a G+G+G+G+G+G+G+G+G+I H h h h H H H H H I G+G+G+G+G+G+G+G+G+I G+G+G+G+G+I G+G+G+G+G+G+G+G+G+G+G+G+G+G+G+G+G+G+G+G+I G+G+I H H I I H = + h G+I + h H = h h H I G+G+G+G+G+I H = h + * H G+I = G+G+I h - 1 1 1 1 1 1 1 , G+G+G+G+I I I I G+G+G+G+G+I I G+G+G+G+G+G+G+G+G+G+I G+G+G+G+G+G+G+G+G+G+G+G+G+G+G+G+G+G+G+G+G+G+G+G+G+G+G+G+G+G+G+G+G+G+G+G+G+G+G+G+G+G+G+G+G+G+G+G+I I I G+G+G+G+G+G+G+G+G+G+G+G+G+G+G+G+G+G+G+I I I H H I I H I G+G+H H I I I H I I G+G+G+G+G+G+I I H h H G+G+G+G+G+G+I I I G+G+G+I H m n.F.E.C.U.W.V.++N.>+V.>.U U U N.w.V.D.*.*.].++w.M.B.Y.N.@.>.D.D.,+w.N.M.D.N.O.++u.V.u.>+N.O.@.U U ",
"D.O.].,+u.O.N.++,+v.N.].O.,.,.u.++W.W.E.>.>.W.P.Y.F.w.D.*.#.D.N.++V.U.].U U >.U.++,+M.M.D.D.M.E.m.I H H I I H G+G+I H H I I H H H G+G+G+G+a [ 5 5 5 5 5 [ 5 + G+G+G+I I I I G+G+G+I I H I I I I I I G+G+G+G+G+G+G+G+I I G+I G+G+G+G+G+G+G+G+G+G+G+G+G+G+G+G+G+G+G+G+G+G+G+G+G+I G+G+G+I H I I I H h h G+G+h = I H h = H I G+G+G+G+G+G+I H h * + I G+G+G+G+G+I G+4 1 1 1 1 1 1 1 - = G+G+I I I G+G+G+G+G+G+G+G+G+G+G+G+G+G+G+G+G+G+I H H I H H I G+G+G+G+G+G+G+G+G+G+G+G+G+G+G+G+G+G+G+G+G+G+G+G+G+G+G+G+G+G+G+G+G+G+G+G+G+G+G+G+G+I I I I I I G+G+G+G+G+G+G+G+G+G+G+G+G+G+G+G+G+G+I H I I H H I H I G+G+H H I I I H H I G+G+G+G+G+I H H H h H G+G+G+G+G+I I H H I G+G+G+G+..P.m.E.M.D.D.M.M.,+++U.>.U U ].U.V.++N.D.#.*.D.w.F.Y.P.W.>.>.E.W.W.++u.,.,.O.].N.v.,+++N.O.u.,+].O.",
"W.u.O.].#.++++V.u.++N.N.D.].*.O.++u.C.$.,+@+o.P.Y.F.D.++C.o.].++W.M.u.u.].].w.N.++++V.W.,+w.U.F..+I H H I I H G+G+I H H I I H H H G+G+G+I f e 5 5 5 5 5 e , G+G+G+G+I I I I I G+G+G+G+G+G+G+G+G+G+G+G+G+G+G+G+G+G+G+I I G+G+G+G+G+G+G+G+G+G+I I G+G+I G+G+G+G+G+G+G+G+G+G+G+G+G+G+G+G+G+H I I I H H I G+G+I I G+I H H H H G+G+G+G+G+G+I H h * * I G+G+G+G+G+G+G+= - 1 1 1 1 1 1 1 4 I I I H I G+G+G+G+G+G+G+G+G+G+G+G+G+G+G+G+G+I H H H H H H H I G+G+G+G+G+G+G+G+G+G+G+G+G+G+G+G+G+G+G+G+G+G+G+G+G+G+G+G+G+G+G+G+G+G+G+I I I I I H H H I I I I G+G+I G+I I I I G+G+G+G+G+G+G+G+G+G+I H I I I I H I G+G+I I I I I H H I G+G+G+G+G+I I H H h H G+G+G+G+G+I I I H H I I I I 7.G..+F.U.w.,+W.V.++++N.w.].].u.u.M.W.++].o.C.++D.F.Y.P.o.@+,+$.C.u.++O.*.].D.N.N.++u.V.++++#.].O.u.",
"++V.*.U @.N.N.V.u.O.O.w.V.U.D.V.N.,+B.-.*.o.+.G.G.E.M.O.>.].N.N.V.++>+:+W.D.++O.++>+N.++u.C.M.M.m.I I I I H H G+G+G+I I G+I I H H G+G+G+( e 5 5 5 5 5 5 5 + G+G+G+G+I I I I I I I I I I I I I I I I I G+G+G+G+G+G+G+G+G+G+G+G+G+G+G+G+G+G+I H I I H H I G+G+I G+G+G+G+G+G+G+G+G+G+G+G+G+I H H I H I G+G+G+G+G+G+G+I I H H I G+G+G+G+I H H h * * = G+G+G+G+G+G+G+G+k 1 | 1 | 1 1 1 : I I I I I G+G+G+G+G+G+G+G+G+G+G+G+G+G+G+G+G+G+H H H H H H H I G+G+G+G+G+G+G+G+G+G+G+G+G+G+G+G+G+G+G+G+G+G+G+I I I H H H H H H H I I H H H H H H h h = = = = H H H I H H H H I I G+G+G+G+G+G+G+G+I I H I I I H I G+G+G+G+G+G+I I H I G+G+G+G+G+G+I H = h H G+G+G+G+G+G+I I I H H H I I = P.m.M.M.C.u.++N.>+++O.++D.W.:+>+++V.N.N.].>.O.M.E.G.G.+.o.*.-.B.,+N.V.D.U.V.w.O.O.u.V.N.N.@.U *.V.",
"M.U.D.;.$.W.N.N.++N.O.w.++W.W.u.v.w.#.].,.C.D.G.G.B.U.++@.>.@.>.O.O.N.++V.N.++N.++O.u.W.C.F.M.,+C.I I I I I I G+G+G+G+G+G+G+I H H G+G+G+d e 5 5 5 5 5 e ^ G+G+G+G+G+G+I I I I H H H I I I I I I I I I G+G+G+G+G+G+G+I G+G+G+G+G+G+G+G+G+G+I I I I H H H I G+I G+G+G+G+G+G+G+G+G+G+G+I H I I H H H H I G+G+I G+G+G+I H H H I G+G+G+I I H = h * * = G+G+G+G+G+I G+G+= 5 1 | | | | | [ h G+I I I I G+G+G+G+G+G+H I G+G+G+G+G+G+G+G+G+H H H H H H H I G+G+G+G+G+G+G+G+G+G+G+G+G+G+G+G+G+G+G+G+G+G+G+I I H H H H H H h H H I I I H H H I H = = h h + h H I I I H H H I I G+G+G+G+G+G+G+G+I I I I I I I G+G+G+G+G+G+G+G+I H I G+G+G+G+G+I I H h + h G+G+G+G+G+G+G+I I I I H H I ..G.C.,+M.F.C.W.u.O.++N.++N.V.++N.O.O.>.@.>.@.++U.B.G.G.D.C.,.].#.w.v.u.W.W.++w.O.N.++N.N.W.$.;.D.U.",
"W.D.@+-.m.W.N.++++>+v.++#.D.++v.N.N.M.V.N.w.N.P.9..+U.N.>.@.@.>.>.N.O.N.w.w.++>+++D.V.V.M.C.F.,+U.I I H I G+G+G+G+G+G+G+G+G+G+H H G+G+I : 5 5 5 5 5 5 5 4 G+G+G+G+G+G+G+I I I I H H H I I I I I I I G+G+G+G+G+G+G+G+H H G+G+G+G+G+G+G+G+G+I I I I I I I I I I G+G+G+G+G+G+G+G+G+G+G+I h h H I H h h H H H H H I I H H G+G+G+G+G+G+G+G+I = h * * = G+G+G+G+I I I G+I ^ | [ [ | | [ 1 k G+I H H H G+G+G+G+G+G+H I G+G+G+G+G+G+G+G+G+H H H H H = H I G+G+G+G+G+G+I G+G+G+G+G+G+G+G+G+G+G+G+G+G+G+G+G+I I H H H H H h H I I I I I H H H G+G+I I = = = I I I I I I I I G+G+G+G+G+G+G+G+G+I H H H I I I G+I G+G+G+G+G+G+I I G+G+G+G+G+G+I I H h * h G+G+G+G+G+I G+G+I H I I H H ..Y.U.,+F.C.M.V.V.D.++>+++w.w.N.O.N.>.>.@.@.>.N.U..+9.P.N.w.N.V.M.N.N.v.++D.#.++v.>+++++N.W.m.-.@+D.",
"D.W.U.,+B.M.W.U.N.w.D.V.w.M.,.].O.N.++u.D.D.D.G.9.n.C.O.>.@.@.@.@.>.].N.w.W.++O.N.E.V.V.;+B.B.F.M.h H H H I I I I G+G+G+G+G+G+I I G+G+' 5 5 5 5 5 5 5 9 * G+G+G+G+G+I G+G+H H I I H H H I I I I I I I G+I G+G+G+G+I H H I G+G+G+G+G+G+G+G+I I I I I H I I I I G+G+G+G+G+G+G+G+G+G+G+I H H H I I = h H H H = H H H H I G+G+G+G+G+G+I I H = +   @ H G+G+G+G+I H H I I 4 | [ [ [ [ [ 1 9 H H H H I G+G+G+G+G+G+I I G+G+G+G+G+G+G+G+G+I H H H H = H I I G+G+G+G+G+H G+G+G+G+G+G+G+G+G+G+G+G+G+G+G+G+G+G+I I I I I H H H I G+G+G+G+I I I G+G+G+G+I I I G+G+G+G+G+G+G+G+G+G+G+G+G+G+G+G+I H H H H H H H I H H H I I I G+G+G+G+G+G+G+G+G+G+I I h * h G+G+G+G+G+I I I G+I I I H H m .+M.F.B.B.;+V.V.E.N.O.++W.w.N.].>.@.@.@.@.>.O.C.n.9.G.D.D.D.u.++N.O.].,.M.w.V.D.w.N.U.W.M.B.,+U.W.",
"D.w.w.++u.C.F.C.#.W.M.M.-.-.%.%.o.D.U.C.D.U.E.9.X.G.E.D.].@.@.@.@.>.].++w.D.O.N.N.++N.++U.F.M.F.m.m H H H H I I H H H I I I I G+G+G+G+d 5 5 5 5 5 5 5 d h G+G+G+G+G+I I I I H H I H H H H I I H I I I H I G+G+G+G+G+H H I G+G+G+G+G+G+G+G+I H H H H H H I G+I G+G+G+G+I I G+G+G+G+G+I H H I I I I I I I H H I I I I I G+G+G+G+G+G+H h = h * . . = G+G+G+G+G+I H H I m 5 | [ [ [ [ 1 5 m H H = I G+G+G+G+G+G+G+G+G+G+G+G+G+G+G+G+G+I I H H H H H I G+G+G+G+G+G+I G+G+G+G+G+G+G+G+G+G+G+G+G+G+G+G+G+G+I G+G+G+G+I I I G+G+G+G+G+G+G+G+G+G+G+G+G+G+G+G+G+G+G+G+G+G+G+G+G+G+G+G+G+G+G+I H H H H H H H I I H H H H I I G+G+G+G+G+G+G+G+G+I H h * h G+G+G+G+G+I H H I I H H H H m m.m.F.M.F.U.++N.++N.N.O.D.w.++].>.@.@.@.@.].D.E.G.X.9.E.U.D.C.U.D.o.%.%.-.-.M.M.W.#.C.F.C.u.++w.w.",
"D.*.N.w.O.++M.U.,+W.V.D. .P.&.` P.G.M.C.u.M.E.9.a+X.n.F.w.,.].,.@.@.O.++,+N.++N.N.N.N.N.N.V.M..+P.B H H H H H H H H H H I I I G+G+G+I ^ 5 - 5 - 5 5 5 j I G+G+G+G+I H H H H H H H H = H H H H H H H H H G+G+G+G+G+G+I H G+G+G+G+G+G+G+G+G+I I I I I I I I G+I G+G+G+G+H I G+G+G+G+G+G+I I G+G+G+G+G+G+G+I G+G+G+G+G+G+G+G+G+G+G+G+I H H = + * * H G+G+G+G+I I I H I H ^ 1 [ [ [ [ [ | j I H H I G+G+G+G+G+G+G+G+G+G+G+G+G+G+G+G+G+G+I I I I H I I G+G+G+G+G+G+G+G+G+G+G+G+G+G+G+G+G+G+I I G+G+G+G+G+I G+G+G+G+G+I G+G+I G+G+G+G+G+G+G+G+G+G+G+I G+G+G+G+G+G+G+G+G+G+G+G+G+G+G+G+G+I H I I I I I H H H I I I I G+G+G+G+G+G+G+G+G+I H I H h * h G+G+G+G+I H H h h = H H h h h X.P..+M.V.N.N.N.N.N.N.++N.,+++O.@.@.,.].,.w.F.n.X.a+9.E.M.u.C.M.G.P.` &.P. .D.V.W.,+U.M.++O.w.N.*.",
"V.++u.N.++u.N.v.u.N.V.D.%...P.n.%. .n.V.v.W.E.X.h+h+X.%.F.C.@+,.;.>.N.N.N.N.++++v.:+u.++D.M.,+C.n.k h I I I I H I I I I G+G+G+G+G+G+m 9 5 - - - - 5 9 ( H G+G+G+G+I H H h h H H h h h H H H H H H H H I G+G+G+G+G+G+G+G+G+G+G+G+G+G+G+G+G+I I I I I I I G+G+G+G+G+G+G+I G+G+G+G+G+G+G+G+G+G+G+G+G+G+G+G+G+G+G+G+G+G+G+G+G+G+G+G+G+G+I I = h + + I G+G+G+G+G+G+G+G+G+G+( [ [ [ [ [ [ 1 d G+G+I I G+G+G+G+G+G+G+G+G+G+G+I G+G+G+G+G+G+G+G+G+G+I I G+G+G+G+G+G+G+G+G+G+G+G+G+G+G+G+G+G+G+I H I G+G+G+G+G+G+G+G+G+G+I G+G+I H I G+G+G+G+G+G+G+I G+G+G+G+G+G+G+G+G+G+G+G+G+G+G+G+G+G+G+G+G+G+G+G+G+G+G+G+G+G+G+G+G+G+G+G+G+G+G+G+G+G+I I I H H h = G+G+G+G+G+H H H h h H H h h m X.n.C.,+M.D.++u.:+v.++++N.N.N.N.>.;.,.@+C.F.%.X.h+h+X.E.W.v.V.n. .%.n.P...%.D.V.N.u.v.N.u.++N.u.++",
"W.V.U.D.w.D.u.N.++++>+U.%.n.9.9.P.G.P.-.u.U.Y.X...E+` n.%. .B.C.;.;.N.++V.N.N.N.N.v.N.O.++O.M.%.%.7 m G+G+G+G+G+G+G+G+G+G+G+G+G+G+G+4 5 - - - - - 5 c h I G+G+G+G+I H H H = = H = h h H I I I I I H I G+G+G+G+G+G+G+G+G+G+G+G+G+G+G+G+G+G+G+I I G+G+G+G+G+G+G+G+G+G+G+G+G+G+G+G+G+G+G+G+G+G+G+G+G+G+G+G+G+G+G+G+G+G+G+G+G+G+G+G+G+G+H h H I h h I G+I G+G+G+G+G+G+G+G+= - [ [ [ [ [ | ^ I G+G+G+I G+G+G+G+G+G+G+G+G+I I I G+G+G+G+G+G+G+G+G+G+G+G+G+G+G+G+G+G+G+G+G+G+G+G+G+I I G+G+G+I H I G+G+G+G+G+G+G+G+G+G+G+G+G+I H H G+G+G+G+G+G+I H I G+G+G+G+G+G+G+G+G+G+G+G+G+G+G+G+G+G+G+G+G+G+G+G+G+G+G+G+G+G+G+G+G+G+G+G+G+G+G+G+G+G+G+G+I H H H G+G+G+G+G+I I I I I I I I I ..n.%.%.M.O.++O.N.v.N.N.N.N.V.++N.;.;.C.B. .%.n.` E+..X.Y.U.u.-.P.G.P.9.9.n.%.U.>+++++N.u.D.w.D.U.V.",
"F..+F.D.V.U.V.u.u.M.C.W.U.n.X.P.G.G.P.P.-.E.n.X.E+E+` 9.Y.Q  . .%.+.W.,+++++++u.,.@.@.>.*.,++.>.X 7 j G+G+G+G+G+G+G+G+G+G+G+G+G+G+G+a 5 - - - - - 5 j H I G+G+G+G+G+G+G+G+G+I I I I I G+G+G+G+G+G+G+G+G+G+G+G+G+G+G+G+G+G+G+G+G+I G+G+G+G+G+G+G+G+G+G+G+G+G+G+G+G+G+G+G+G+G+G+G+G+G+G+G+G+G+G+G+G+G+G+G+G+G+G+G+G+G+G+G+G+G+G+G+G+H h h H I = h I G+G+G+G+G+G+G+G+G+G+I : [ [ [ [ [ [ - = G+G+G+G+G+G+G+G+G+G+G+G+G+I I G+G+G+G+G+G+G+G+G+G+G+G+G+G+G+G+G+G+G+G+G+G+G+G+G+G+I I G+G+G+G+H I G+G+G+G+G+G+G+G+G+G+G+G+G+G+H H I G+G+G+G+G+I I I G+G+G+G+G+G+G+G+G+G+G+G+G+G+G+G+G+G+G+G+G+G+G+G+G+G+G+G+G+G+G+G+G+G+G+G+G+G+G+G+G+G+G+I G+I H H G+G+G+G+G+G+G+G+G+G+G+I G+G+E+Y.X >.+.,+*.>.@.@.,.u.++++++,+W.+.%. . .Q Y.9.` E+E+X.n.E.-.P.P.G.G.P.X.n.U.W.C.M.u.u.V.U.V.D.F..+",
"M.B.F.M.M.U.u.V.U.U.M.U.M.C.n.G.&.9.P.P.-.Y.9.9.=.=.&.G.P. .Y.P. .+.+.B.B.F.M.M.].@.;.,.X +.-.$. .7 7 h G+G+G+G+G+G+G+G+G+G+G+G+G+G+^ 5 9 9 9 - - 9 m H I G+G+G+G+G+G+G+G+G+G+G+I G+G+G+G+G+G+G+G+G+G+G+G+G+G+G+G+G+G+G+G+G+I I I G+G+G+G+G+G+G+G+G+G+G+G+G+G+G+G+G+G+G+G+G+G+G+G+G+G+G+G+G+G+G+G+G+G+G+G+G+G+G+G+G+G+G+G+G+I I H H = I G+I H h I G+G+G+G+G+G+G+G+G+G+I d [ [ [ [ e [ [ ' G+G+G+G+G+I G+G+G+G+G+G+G+G+G+G+G+G+G+G+G+G+G+G+G+G+G+G+G+G+G+G+G+G+G+G+G+G+G+G+G+I I G+G+G+G+I I G+G+G+G+G+G+G+G+G+G+G+G+G+G+I H I G+G+G+I G+G+G+G+G+G+G+G+G+G+G+G+G+G+G+G+G+G+G+G+G+G+G+G+G+G+G+G+G+G+G+G+G+G+G+G+G+G+G+G+G+G+G+G+G+I I I G+I H H G+G+G+G+G+G+G+G+G+G+G+I I G+F+P. .$.-.+.X ,.;.@.].M.M.F.B.B.+.+. .P.Y. .P.G.&.=.=.9.9.Y.-.P.P.9.&.G.n.C.M.U.M.U.U.V.u.U.M.M.F.B.",
"F.F.E.F.F.F.C.W.M.F.Y.B.E.M.M.$.G.9.9.n.P.X.X.X.J &.&.&.X.9.9.&.&.P. .Y.n.n.n.P.Y. . . . .n.9.X.&.7 7 ( G+G+G+G+G+G+G+G+G+G+G+G+G+h : 9 9 9 9 9 - : h H I G+G+G+G+G+G+G+G+G+G+I H H I G+G+G+G+G+G+G+G+G+G+I I I I I I I G+G+I H I G+G+G+G+G+G+G+G+G+G+G+G+G+G+G+G+G+G+G+G+G+G+G+G+G+I G+G+G+G+G+G+G+G+G+G+G+G+G+I I I G+G+I I I H H H G+G+G+h h I G+G+G+G+G+G+G+G+G+H I ( [ 5 5 [ e [ [ d G+G+G+G+G+H I G+G+G+G+G+G+G+G+G+G+G+G+G+G+G+G+G+G+G+G+G+G+G+G+G+G+G+G+G+G+G+G+G+G+G+I G+G+G+I I I G+G+G+G+G+G+G+G+G+G+G+G+G+G+G+H I G+G+G+G+I G+G+G+G+G+G+G+G+G+G+G+G+G+G+G+G+G+G+G+G+G+G+G+G+G+G+G+G+G+G+G+G+G+G+G+G+G+G+G+G+G+G+I H H I G+G+I H H G+G+G+G+G+G+G+G+G+I h + + = I =.&.X.9.n. . . . .Y.P.n.n.n.Y. .P.&.&.9.9.X.&.&.&.J X.X.X.P.n.9.9.G.$.M.M.E.B.Y.F.M.W.C.F.F.F.E.F.",
" .B.Y.Y..+B.B.E.F.B..+-.+.E.F.C.E.F.Y.n.G.=.9.=.F+= F+F+..v a 4 B v v a v a a a a a a K K , v ~ v 7 7 8 I G+G+G+G+G+G+G+G+G+I G+G+( 9 9 9 9 9 9 - ^ H H I G+G+G+G+G+G+G+G+G+= + * * h H H H H H I G+I I I I = H I I I I G+G+G+I I G+G+G+G+G+G+G+G+G+G+G+G+G+G+G+G+G+G+G+G+G+G+G+G+G+I G+G+G+G+G+G+G+G+G+G+G+G+G+I H I G+G+G+G+G+I G+G+G+G+I H h I G+G+G+G+G+G+G+G+G+H H h - e 5 5 5 e [ % G+G+G+G+G+H H I G+G+G+G+G+G+G+G+G+G+G+G+G+G+G+G+G+G+G+G+G+G+G+G+G+G+G+G+G+G+G+G+G+G+G+G+G+G+I H I G+G+G+G+G+G+G+G+G+G+G+G+G+G+G+I G+G+G+G+I G+G+G+G+G+G+G+G+G+G+G+G+G+G+G+G+G+G+G+G+G+G+I G+G+G+G+G+G+G+G+G+G+G+G+G+I H I G+G+I I H H H G+G+G+I H H G+G+G+G+G+G+G+G+G+= * @ * h H = ... a K r r K , k , , k a k k a 4 j k k d k k k + h+9.=.G.n.Y.F.E.C.F.E.+.-..+B.F.E.B.B..+Y.Y.B.",
"X.9.G.G.P.n.Y..+.+m..++.,.+.Y.P.G.n.P.9.a+E+X.I G+G+G+G+G+. 7 7 7 7 7 7 7 7 7 7 7 7 7 7 7 7 7 7 7 7 7 7 m G+G+G+G+G+G+G+I H H G+G+j 9 9 9 9 9 9 9 a I H I G+G+G+G+G+G+G+G+G+h * * * h H H H H h H G+G+I I I h h I G+G+G+G+G+G+G+G+G+G+G+G+G+G+G+G+G+G+G+G+G+G+G+G+G+G+G+G+G+G+G+G+G+G+G+G+G+G+G+G+G+G+G+G+G+G+I I H I G+G+G+G+G+G+G+G+G+G+G+H H I G+G+G+G+G+G+G+G+G+G+I h : e 5 5 5 5 e f G+G+G+G+G+H H I G+G+G+G+G+G+G+G+G+G+G+G+G+G+G+G+G+G+G+G+G+G+G+G+G+G+G+G+G+G+G+G+G+G+G+G+G+G+I H I G+G+G+G+G+G+G+G+G+G+G+G+G+G+G+G+G+G+G+G+I G+G+G+G+G+G+G+I G+G+G+G+G+G+G+G+G+G+G+G+G+G+I G+G+G+G+G+G+G+G+G+G+G+G+I H H I G+G+G+G+I I G+G+G+G+I H H G+G+G+G+G+G+G+G+G+H * * * h H H H i c d d d d d d d d d d d d d d d d d d d c j G+G+X.E+a+9.P.n.G.P.Y.+.,.+..+m..+.+Y.n.P.G.G.9.",
"..=.a+&.&.X.X.9.G.G.G.G.G.G.&.&.&.a+a+=.7.E+a+G+G+G+G+G+G+= k 7 7 7 7 7 7 7 7 7 7 7 7 7 7 7 7 7 7 7 7 7 4 G+G+G+G+G+G+G+I H H G+G+k 9 9 9 9 9 9 9 x I H I G+G+G+G+G+G+G+G+G+H * * * h H H I I H I G+G+G+G+G+H h = I G+G+G+G+G+G+G+G+G+G+G+G+G+G+G+G+G+G+G+G+G+G+G+G+G+G+G+G+G+G+G+G+G+G+G+G+G+G+G+G+G+G+G+G+H H H H H G+G+G+G+G+G+G+G+I I I H H I G+G+G+G+G+G+G+G+G+G+G+I % e 5 5 5 5 e 9 = G+G+G+G+H I G+G+G+G+G+G+I G+G+G+G+G+G+G+G+G+G+I I G+G+G+G+G+G+G+G+G+G+G+G+G+G+G+G+G+I G+G+H H H G+G+G+I H H I I G+G+G+G+G+G+G+G+G+G+G+G+I G+G+G+G+G+G+I H I G+G+G+G+G+G+G+G+G+G+G+G+G+G+G+G+G+G+G+G+G+G+G+G+G+I I H H G+G+G+G+G+G+G+G+G+G+G+I H H G+G+G+G+G+G+G+G+G+I h h h H H I H 7 d d d d d d d d d d d d d d d d d d d d d m G+G+a+E+7.=.a+a+&.&.&.G.G.G.G.G.G.9.X.X.&.&.a+=.",
"7.7.7.7.......=.` ` ` =.E+..h+..E+..E+....h+F+I I G+G+G+G+G+4 7 7 7 7 7 7 7 7 7 7 7 7 7 7 7 7 7 7 7 7 7 8 h G+G+G+G+G+I H H I G+G+7 9 : : : : 9 : + I H I G+G+G+G+G+G+G+G+G+I = h h H H I I G+G+I G+G+G+G+G+I H I G+G+G+G+G+G+G+G+G+G+G+G+G+G+G+G+G+G+G+G+G+G+G+G+G+G+G+G+G+G+G+G+G+G+G+G+G+G+G+G+G+G+G+G+I H H H H I I G+G+G+G+G+G+G+G+I I H H G+G+G+G+G+G+G+G+G+G+G+G+G+k [ 5 5 5 5 5 5 m G+G+G+I H I G+G+G+G+G+G+I I G+G+G+G+G+G+G+G+G+G+G+G+G+G+G+G+G+G+G+G+G+G+G+G+G+G+G+I I G+G+H H I G+G+G+I H H H H G+G+G+G+G+G+G+G+G+G+G+I I I G+G+G+G+G+I I G+G+G+G+G+G+G+G+G+G+G+G+G+G+G+G+G+G+G+G+G+G+G+G+G+G+I H H H I G+G+G+G+G+G+G+G+G+I I H I G+G+G+G+G+G+G+G+G+I I H I I G+G+m d d d d d d d d d d d d d d d d d d d d d k I G+G+F+h+....E+..E+..h+..E+=.` ` ` =.......7.E+7.",
"I H H I G+G+G+I H H H I G+G+G+G+G+G+G+G+G+G+I I I I G+G+G+G+m 7 7 7 8 k 8 7 7 7 7 7 7 7 7 7 7 7 7 7 7 7 7 ( G+G+G+G+I H H H H G+G+d 9 : : : : 9 ^ h I H G+G+G+G+G+G+G+G+G+G+I I I I I G+G+G+G+G+G+G+G+G+G+G+I I G+G+G+G+G+G+G+I G+G+G+G+G+G+G+G+G+I I G+G+G+G+G+G+G+G+G+G+G+G+G+G+G+G+I I G+G+G+G+G+G+G+G+H H H H H I G+I I G+G+G+G+G+G+G+I H H G+G+G+G+G+G+G+G+G+G+G+G+G+4 [ 5 5 5 5 5 5 ( G+G+G+G+H H I G+G+G+G+G+I G+G+G+G+G+G+G+G+G+G+G+G+G+G+G+G+G+G+G+G+G+G+G+G+G+G+G+G+I I G+G+H H I G+G+G+I I H H I G+G+G+G+G+G+G+G+G+I I I H H I G+G+G+G+G+I G+G+G+G+G+I H I G+G+G+G+G+G+G+G+G+G+G+G+G+G+G+G+G+I H H H H I G+G+G+G+G+G+G+G+I I I H I G+G+G+G+G+G+G+G+G+I I I G+G+G+G+j c d d d d d d d d d d d d d d d d d d d c ( G+G+G+G+G+G+G+G+G+G+G+G+G+G+G+G+G+G+G+G+G+G+G+I H ",
"I H H G+G+G+G+I I H H G+G+G+G+G+G+G+G+G+I I H H H H I G+G+G+I 8 7 8 7 7 8 7 7 8 7 k 7 7 7 7 7 7 7 7 7 7 7 8 I G+G+I I H H H H I = ^ 9 : : : : 9 ^ = I H G+G+G+G+G+G+G+G+G+G+I I I I G+G+G+G+G+G+G+G+G+G+G+G+I I G+G+G+G+G+G+I I G+G+G+G+G+G+G+G+G+G+I G+G+G+G+G+G+G+G+G+G+G+G+G+G+G+G+I I G+G+G+G+G+G+G+I H H H H H H G+G+G+G+G+G+G+G+G+G+G+H I G+G+G+G+G+G+G+G+G+G+G+G+G+. 5 5 5 5 5 5 5 4 G+G+G+G+I I I G+G+G+G+G+I G+G+G+G+G+G+G+G+G+G+G+G+G+G+G+G+G+G+G+G+G+G+G+G+G+G+G+I H I G+G+H H I G+G+G+I G+G+I G+G+G+G+G+G+G+G+I I H H H H H H G+G+G+G+G+G+G+G+G+G+G+G+H H G+G+G+G+G+G+G+I I G+G+G+G+G+G+G+G+I H H H H H I G+G+G+G+G+G+G+G+G+I H I G+G+G+G+G+G+G+G+G+I I = H I G+G d d d d d d d d d d d d d d d d d d d d d d h G+G+G+G+G+G+G+G+G+G+G+G+G+G+G+G+G+G+G+G+G+G+G+G+H ",
"G+H H G+G+G+G+G+G+G+G+G+G+G+G+G+G+G+G+I H H H H H H I G+G+G+G+( 7 7 7 7 k 8 8 7 8 k 7 7 k 7 7 7 7 7 7 7 7 7 m G+G+I H H H H H I m ^ : : : : : 9 d = I I G+G+G+G+G+G+G+G+G+G+I H = H H I I I I I G+G+G+G+G+G+I H I G+G+G+G+G+G+I G+G+G+G+G+G+G+G+G+G+G+G+G+G+G+G+G+G+G+G+G+G+G+G+G+G+G+I H G+G+G+G+G+G+G+H H H H H H H I G+G+G+G+G+G+G+G+G+G+I I G+G+G+G+G+G+G+G+G+G+G+G+G+m - 5 5 5 5 5 5 j G+G+G+G+G+G+G+G+G+G+G+G+G+G+G+G+G+G+G+G+G+G+G+I I G+G+G+G+G+G+G+G+G+G+G+G+G+G+G+I H I G+G+H H I G+G+G+G+G+G+G+G+G+G+G+G+G+G+G+I H H H H H H H G+G+G+G+G+G+G+G+G+G+I I I I G+G+G+G+G+G+G+H I G+G+G+G+G+G+G+I H H H H H H I G+G+G+G+G+G+G+G+G+I H I G+G+G+G+G+G+G+G+G+G+I I I I I 4 d d d d d d d d d d d d d d d d d d d d c j G+G+G+G+G+G+G+G+G+G+G+G+G+G+G+G+G+G+G+G+G+G+G+G+G+I ",
"G+H H G+G+G+G+G+G+G+G+G+G+G+G+G+G+G+G+I H H H H H H I G+G+G+G+h k 7 k 8 7 8 7 8 8 7 8 8 8 8 8 7 k 8 7 7 k 7 j I G+I H H H H H G+m f : f f f f : d I I H G+G+G+G+G+G+G+G+G+G+G+I I I I I G+G+G+G+G+G+G+G+G+G+G+I I G+G+G+G+G+G+G+G+G+G+G+G+G+G+G+G+G+G+G+G+G+G+G+G+G+G+G+G+G+G+G+G+G+G+I G+G+G+G+G+G+I I I I H H H H I G+G+G+G+G+G+G+G+G+G+G+I I G+G+G+G+G+G+G+G+G+G+G+G+G++ 9 5 5 5 5 - 5 8 G+G+G+G+G+G+G+G+G+G+G+G+G+G+G+G+G+G+G+G+G+G+I I I I G+G+G+G+G+G+G+G+G+G+G+G+G+G+I H I G+G+H H I G+G+G+G+G+G+G+G+G+G+G+G+G+G+G+G+I I H H H H H G+G+G+G+G+G+G+G+G+G+I H H I G+G+G+G+G+G+G+H G+G+G+G+G+G+G+G+I H H H H H I G+G+G+G+G+G+G+G+G+G+G+I I G+G+G+G+G+G+G+G+G+G+G+G+G+G+= d d d d d d d d d d d d d d d d d d d d d d m G+G+G+G+G+G+G+I I G+G+G+G+G+G+G+G+G+G+G+G+G+G+G+G+G+",
"G+H H G+G+G+G+G+G+G+G+G+G+G+G+G+G+G+G+I I I H H H H I G+G+G+G+G+B 7 8 8 8 8 k 8 k k k 8 8 k 8 8 8 7 8 k 7 7 7 m G+H H H H H H G+. f f f f f f 9 8 G+I H G+G+G+G+G+G+G+G+G+G+G+G+G+G+G+G+G+G+G+G+G+G+G+G+G+G+G+G+G+G+G+G+G+G+G+G+G+G+G+G+G+G+G+G+G+I I I I G+G+G+G+G+G+G+G+G+G+G+G+G+G+G+G+G+G+G+G+G+I G+G+G+G+G+G+G+G+G+G+G+G+G+G+G+I G+G+G+I I G+G+G+G+G+G+G+G+G+G+G+G+G+h : 5 - - - - 5 k G+G+G+G+G+G+G+G+G+G+G+G+G+G+G+G+G+G+G+G+G+G+G+G+G+G+G+G+G+G+G+G+G+G+G+G+G+G+G+G+I I G+G+G+H H I G+G+G+I I G+G+G+G+G+G+G+G+G+G+G+I I I H H H H G+G+G+G+G+G+G+G+G+G+I H H H G+G+G+G+G+G+G+I G+G+G+G+G+G+G+G+I H H H H I I G+G+G+G+G+G+G+G+G+G+G+H I G+G+G+G+G+G+G+G+G+G+G+G+G+G+( d d d d d d d d d d d d d d d d d d d d d k I G+G+G+G+G+G+I I I I G+G+G+G+G+G+G+G+G+G+G+G+G+G+G+G+",
"I H H G+G+G+I I I G+G+G+G+G+G+G+G+G+G+G+I I H H H h I G+G+G+G+G+m 7 8 k 8 8 8 8 8 k 8 8 k k 8 8 8 8 8 k k 7 7 j I G+I I I I I G+. f f f f f f 9 j G+I H G+G+G+G+G+G+G+G+G+G+G+G+G+G+G+G+G+G+G+G+G+G+G+I G+G+I G+G+G+G+G+G+G+G+G+G+G+G+G+G+G+G+G+G+G+I G+G+G+G+G+G+G+G+G+G+G+G+G+G+G+G+G+G+G+G+G+G+G+G+G+G+G+G+G+G+G+G+G+G+G+G+G+G+I I G+G+G+I I G+G+G+G+G+G+G+G+G+G+G+G+G+h : 5 - - - - 5 k G+G+G+G+G+G+G+G+G+G+G+G+G+G+G+G+G+G+G+G+G+G+G+G+G+G+G+G+G+G+G+G+G+G+G+G+G+G+G+G+G+G+G+G+G+H H I G+G+G+I H G+G+G+G+G+G+G+G+G+G+G+G+I I H H H H G+G+G+G+G+G+G+G+G+G+I H H H I G+G+G+G+G+G+G+G+G+G+G+G+G+G+G+G+G+G+G+G+G+G+G+G+G+G+G+G+I G+G+G+I H I G+G+G+G+G+G+G+G+G+G+G+G+G+= 7 d d d d d d d d d d d d d d d d d d d d d ( G+G+G+G+G+G+G+G+G+G+G+G+G+G+G+G+G+G+G+G+G+G+G+G+G+G+I ",
"I H H G+G+G+G+H I G+G+G+G+G+G+G+G+G+G+G+G+I I H H H I G+G+G+G+G+I j k 8 8 8 8 k 8 8 8 8 k 8 8 8 k k 8 k k k 8 8 m G+G+G+G+G+G+G+( : f f f f f 9 4 G+I H I G+G+G+G+G+G+G+G+G+G+G+G+G+G+G+G+G+G+G+G+G+I I I I G+G+G+G+G+G+G+G+G+G+G+G+G+G+G+G+G+G+G+G+G+G+G+G+G+G+G+G+G+G+G+G+G+G+G+G+G+G+I G+I G+G+G+G+G+G+G+G+G+G+G+G+G+G+G+G+G+G+G+I G+G+G+I I G+G+G+G+G+G+G+G+G+G+I I G+h f 5 - - - - 5 k G+G+G+G+G+G+G+G+G+G+G+G+G+G+G+G+G+G+G+G+G+G+G+G+G+G+G+G+G+G+G+G+G+G+G+G+G+G+G+G+G+G+G+G+G+H H I G+G+G+G+I G+G+G+G+G+G+G+G+G+G+G+G+G+I I H H H G+G+G+G+G+G+G+G+G+G+G+H H H G+G+G+G+G+G+G+G+G+G+G+G+G+G+G+G+G+G+G+G+G+G+G+G+G+G+G+G+G+I I G+G+G+H I G+G+G+G+G+G+G+G+G+I I I I ( d d d d d d d d d d d d d d d d d d d d d d = G+G+G+G+G+G+G+G+G+G+G+G+G+G+G+G+G+G+G+G+G+G+G+G+G+G+I ",
"I H H G+G+G+G+I G+G+G+G+I G+G+G+G+G+G+G+G+G+I I H H I G+G+G+G+G+G+m 7 8 8 8 8 8 k k 8 8 8 8 k 8 8 8 8 8 8 8 8 7 4 G+G+G+G+G+G+G+( : f f f f f : ' G+I H I G+G+G+G+G+G+G+G+G+I I I I I I I I I I I I I G+G+I G+G+I G+G+G+G+G+G+G+G+G+G+G+G+G+G+G+G+G+G+G+G+G+G+G+G+G+G+G+G+G+G+G+G+G+G+G+I I I G+G+G+G+G+G+G+G+G+G+G+G+G+G+G+G+G+G+G+G+G+G+G+I I G+G+G+G+G+G+G+G+G+G+I I I h ^ 5 - 9 9 - 5 k G+G+G+I G+G+G+G+G+G+G+G+G+G+G+G+G+G+G+G+G+G+G+G+G+G+G+G+G+G+G+G+G+G+G+G+G+G+G+G+G+G+G+G+G+H H I G+G+G+G+G+G+G+G+I I G+G+G+G+G+G+G+G+G+G+I H I G+G+G+G+G+G+G+G+G+G+I H H I G+G+G+G+G+G+G+G+I G+G+G+G+G+G+G+G+G+G+G+G+G+G+G+G+G+G+G+G+I I G+G+G+H I G+G+G+G+G+G+G+G+G+I = H h 7 d d d d d d d d d d d d d d d d d d d d d 4 G+G+G+G+G+G+G+G+G+G+G+G+G+G+G+G+G+G+G+G+G+G+G+G+G+G+G+I ",
"I H H G+G+G+G+G+G+G+I I H I G+G+G+G+I G+G+G+G+G+I H I G+G+G+G+G+G+= j 8 8 k 8 k 8 8 8 8 8 8 8 8 8 k 8 8 8 k 8 8 8 + G+G+G+G+G+G+( : f f f f f : ( G+G+H I G+G+G+G+G+G+G+G+G+I H H H H H H H H H H I G+G+G+I I G+G+G+G+G+G+G+G+G+G+G+G+G+G+G+G+G+G+G+G+G+G+G+G+G+G+G+G+G+G+G+G+G+G+G+G+G+I G+I G+G+G+G+G+G+G+G+G+G+G+G+G+G+G+G+G+G+G+G+G+G+G+I H G+G+G+G+G+G+G+G+G+G+I I I h ^ 9 9 9 9 9 5 k G+G+G+G+G+G+G+G+G+G+G+G+G+G+G+G+G+G+G+G+G+G+G+G+G+G+G+G+G+G+G+G+G+G+G+G+G+G+G+G+G+G+G+G+G+H H I G+G+G+G+G+G+G+I H H G+G+G+G+I G+G+G+G+G+G+I I G+G+G+G+G+G+G+G+G+G+G+H H I G+G+G+G+G+G+G+I I I G+G+G+G+G+G+G+G+G+G+G+G+G+G+G+G+G+G+G+G+G+G+G+G+I I G+G+G+G+G+G+G+G+G+I H H i d d d d d d d d d d d d d d d d d d d d d 7 h G+G+G+G+G+G+G+G+G+G+G+G+G+G+G+G+G+G+G+G+G+G+G+G+G+G+G+I ",
"G+H H I G+G+G+I I I I I H I G+G+G+G+I I G+G+G+G+G+I I G+G+G+G+G+G+G+( 7 8 8 8 8 8 8 8 k 8 8 8 8 8 8 8 8 k 8 8 8 7 4 G+G+G+G+G+G+( : ^ ^ ^ ^ ^ : ( G+G+H I G+G+G+G+G+G+G+G+G+I H H H H H H H H H H I G+G+G+I I G+G+G+G+G+G+G+G+G+G+G+G+G+G+G+G+G+G+G+G+G+G+G+G+G+G+G+G+G+G+G+G+G+G+G+G+G+I G+G+G+G+G+G+G+G+G+G+G+G+G+I H H I G+G+G+G+G+G+G+G+I H G+G+G+G+G+I I G+G+G+I I I h ^ 9 9 9 9 9 5 k G+G+G+G+G+G+G+G+G+G+G+G+G+G+G+G+G+G+G+G+G+G+G+G+G+G+G+G+G+G+G+G+G+G+G+G+G+G+G+G+G+G+G+G+G+I H H I G+G+I I I I I H H I G+G+G+I I I G+G+G+G+G+I G+G+G+G+G+G+G+G+G+G+G+G+G+G+G+G+G+G+G+G+G+I I I G+G+G+G+G+G+G+G+G+G+G+G+G+G+G+G+G+G+G+G+G+G+G+G+H I G+G+G+G+G+I G+G+G+G+H h 8 d d d d d d d d d d d d d d d d d d d d d j G+G+G+G+G+G+G+G+G+G+G+G+G+G+G+G+G+G+G+G+G+G+G+G+G+G+G+I I ",
"G+H H I G+G+I I I I I I = I G+G+G+G+G+G+G+G+G+G+G+G+I G+G+G+G+G+G+G+= 8 8 8 8 8 8 8 8 8 8 8 8 8 8 8 8 8 8 8 k k k 8 m G+G+G+G+G+( f ^ ^ ^ ^ ^ : ' G+I H I G+G+G+G+I I G+G+G+I H H H H H H H H H H I G+G+G+G+G+G+G+G+G+G+G+G+G+G+G+G+G+G+G+G+G+G+G+G+G+G+G+G+G+G+G+G+G+G+G+G+G+G+G+G+G+I H I I I G+G+G+G+G+G+G+G+G+G+I H H I G+G+G+G+G+G+G+G+H H I G+G+G+G+H I G+G+G+I I I h ^ 9 9 9 9 9 5 k G+G+G+G+G+G+G+G+G+G+G+G+G+G+G+G+G+G+G+G+G+G+G+G+G+G+G+G+G+G+G+G+I G+G+G+G+G+G+G+G+G+G+G+G+I H H I G+I I H H I I H H G+G+G+G+G+I I G+G+G+G+G+G+G+G+G+G+G+G+G+G+G+G+G+G+G+G+G+G+G+G+G+G+G+I I I G+G+G+G+G+G+G+G+G+G+G+G+I H I I G+G+G+G+G+G+G+G+H I G+G+G+G+I H I G+G+G+I ( d d d d d d d d d d d d d d d d d d d d d d m G+G+G+G+G+G+G+G+G+G+G+G+G+G+G+G+G+G+G+I G+G+G+G+G+G+G+H H ",
"G+H H H I I I H H H I . # H G+G+G+G+G+G+G+G+G+G+G+G+G+G+G+G+G+G+G+G+G+i 8 8 8 8 8 8 8 8 8 8 8 8 8 8 E 8 8 8 8 8 8 8 4 G+G+G+G+I ( ^ ^ ^ ^ ^ ^ f 4 G+I H G+G+G+G+G+I H G+G+G+I H H H H H H H H H H G+G+G+G+I G+G+G+G+G+G+G+G+G+G+G+G+G+G+G+G+G+G+G+G+G+G+G+G+G+G+G+G+I I G+G+G+G+G+G+I H H H H I G+G+G+G+G+G+G+G+G+G+G+G+I I G+G+G+G+G+G+G+G+I H I G+G+G+G+H H G+G+G+I I I h ^ 9 9 9 9 9 5 k G+G+G+G+G+G+G+G+G+G+G+G+G+G+G+G+G+G+G+G+G+G+G+G+G+G+G+G+G+G+G+G+G+G+G+G+G+G+G+G+G+G+G+G+G+I H H I I I I = H H I H I G+G+G+G+G+G+G+I G+G+G+G+G+G+G+G+G+G+G+G+G+G+G+G+G+G+G+G+G+G+G+G+G+I I I H I G+G+G+G+G+G+G+G+G+G+G+I H h I G+I G+G+G+G+G+I H H G+G+G+G+I h H G+G+G+h 8 d d d d d d d d d d d d d d d d d d d d d 8 I G+G+G+G+G+G+G+G+G+G+G+G+G+G+G+G+G+G+I I I G+G+G+G+G+G+H H ",
"G.&.K &.] X.J K &.K 9.M K K a+` &.n.n.9.a+&.9.X.a+a+a+7.=.X.=...=.h+=.W M K r y M F M M K k v a a 8 8 8 8 8 8 8 8 8 8 m G+G+G+G+( ^ ^ ^ ^ ^ ^ f j G+I H H G+I = + m ( m G+G+I H H H H H H H = H H G+G+G+G+G+G+G+G+G+G+G+G+G+G+G+G+G+G+G+G+G+G+G+G+G+G+G+G+G+G+G+G+G+I I G+G+G+G+G+G+G+H H H H H G+G+G+G+G+G+G+G+G+G+G+G+G+G+G+G+G+G+G+G+G+G+I H I G+G+G+G+I I G+G+G+I I I h ^ 9 9 9 : 9 - 8 G+G+G+G+G+G+G+G+G+G+G+G+G+G+G+G+G+G+G+G+G+G+G+G+G+G+G+G+G+G+G+G+G+G+G+G+G+G+G+G+G+I I G+G+I H I I I I H I I I I I I G+G+G+G+G+G+G+G+I G+G+G+G+G+G+G+G+G+G+G+G+G+G+G+G+G+G+G+G+G+G+G+G+H H I I H I G+G+G+G+G+G+G+G+G+G+G+G+I I G+G+G+G+G+G+G+G+H H G+G+G+G+I H = G+G+G+B d d d d d , k a r M s s F s N r M s M M r s w h+X.=.7.a+a+a+X.9.&.a+9.n.n.&.` &.&.h+&.9.&.&.&.` X.=.a+&.a+",
"u.U.M.E.Y.P.Y.].$.E.o.B..+B.B.Y.$.>.@.]..+@+;.W.U.E.F.E.M.@+o..+Y.B.E.B.m.P.Y.,.F.C.C.;+.+P.n.G.&.8 8 8 8 8 8 8 8 8 8 j I G+G+G+m ^ ^ c d d d d 8 m . ( # # 4 8 8 8 8 # I G+I H H H H H H H = H H G+G+G+G+G+G+G+G+G+G+G+G+G+G+G+G+G+G+G+G+G+G+G+G+G+G+G+G+G+G+G+G+G+G+G+G+G+G+G+G+G+G+G+I I I G+G+G+G+G+G+G+G+G+G+G+G+I I G+G+G+G+G+G+G+G+G+I H G+G+G+G+G+G+G+G+G+G+I I I h ^ 9 : : : : 9 j G+G+G+G+G+G+G+G+G+G+G+G+G+G+G+G+G+G+G+G+G+G+G+G+G+G+G+G+G+G+G+G+G+G+G+G+G+G+G+G+G+I I G+G+I H I G+I I I G+G+G+I H I I G+G+G+G+G+G+G+G+G+G+G+G+G+G+G+G+G+I H I G+G+G+G+G+G+G+G+G+G+G+G+I H H I I G+G+G+G+G+G+G+G+G+G+G+G+G+I I G+G+G+G+G+G+G+G+H H G+G+G+G+I H I G+G+h 7 d d 7 d n.&.G.n.P..+;+C.C.F.,.Y.P.m.B.E.B.Y..+o.@+M.E.F.E.U.W.;.@+.+].@.>.$.Y.B.B..+B.o.E.$.].Y.P.Y.E.M.U.",
"B.m.E.m.n.&.F.X $.G.P.G.P.&.....=.n.%. .P.P.n.n.n.Y.Y.m.Y.n.B.m..+.+B.n.m.G.9.n.n.n.n.j.P.9.9.` h+8 8 8 8 8 8 8 8 8 8 8 m I = h . 8 8 8 8 8 j 4 4 8 8 8 8 8 4 # . . m h G+G+I H H H H H H H H H I G+G+G+G+G+G+G+G+G+G+G+G+G+G+G+G+G+G+G+G+G+G+G+G+G+G+G+G+G+G+G+G+G+G+G+G+G+G+G+G+G+G+G+G+G+G+G+G+G+G+G+G+G+G+G+G+G+G+G+I G+G+G+G+G+G+G+G+G+H H I G+G+G+G+G+G+G+G+G+I I I m f 9 : : : : 9 4 G+G+G+G+G+I G+G+G+G+G+G+G+G+G+G+G+G+G+G+G+G+G+G+G+G+G+G+G+G+G+G+G+G+G+G+G+G+G+G+G+I I G+G+I H I I I I G+G+G+G+I I I I G+G+G+G+G+G+G+G+G+I G+G+G+G+I I I I H H G+G+G+G+I G+G+G+G+G+G+G+G+I I I G+G+G+G+G+G+G+G+G+G+G+G+G+I H I G+G+G+G+G+G+G+G+H H G+G+G+G+G+I G+G+G+B d 7 7 d d 9.h+` 9.9.P.j.n.n.n.n.9.G.m.n.B..+.+m.B.n.Y.m.Y.Y.n.n.n.P.P. .%.n.=.....&.P.G.P.G.$.X F.&.n.m.E.m.",
"9.G.X.` &.&.G.&.K J 7.Y G+G+G+G+G+F+..F+..........=.=.` &.=.=.&.=.=.=.=...x w &.J W W &.J ] x w x 8 8 8 8 8 8 8 j j j j 4 # 4 8 8 # # 4 4 j 8 8 j . m * h I I G+G+G+G+G+G+G+I H H H H H H H H H I G+G+G+G+G+G+G+G+G+G+G+G+G+G+G+G+G+G+G+G+G+G+G+G+G+G+G+G+G+G+G+G+G+G+G+G+G+G+G+G+G+G+G+G+G+G+G+G+G+G+G+G+G+G+G+G+G+G+G+G+G+G+G+G+G+G+G+G+G+H H I G+G+G+G+G+G+G+G+G+I I I m : : : : : : 9 ( G+G+G+G+I I I I G+G+G+G+G+G+G+G+G+G+G+G+G+G+G+G+G+G+G+G+G+G+G+G+G+G+G+G+G+G+G+G+G+I I G+G+I H I G+I G+G+G+G+G+G+I I I G+G+G+G+G+G+G+G+G+I I G+G+I H I I H H H G+G+G+I I G+G+G+G+G+G+G+G+G+G+G+G+G+G+G+G+G+G+G+G+G+G+G+G+I I I G+G+G+G+G+G+G+G+H H G+I h G+G+G+G+G+h 7 d d 7 d d K x w w w J &.J J &.&.w x w &.J J =.&.=.=.&.` =.=...........F+..F+G+G+G+G+G+Y 7.J K &.G.&.&.` X.9.",
"G+H H I G+G+G+G+G+G+G+G+G+* G+G+G+G+G+G+G+G+G+I H I I G+I I I I H H I G+G+h 8 8 8 8 8 8 8 j j j j j j j 4 4 4 4 4 4 4 4 j 4 # ( . 8 7 d d d d ^ d I I I I G+G+G+G+G+G+G+G+G+I H H H H H H H H H H G+G+G+G+G+G+I G+G+G+G+G+G+G+G+G+G+G+G+I I I G+G+G+G+G+G+I G+G+G+G+G+G+G+G+G+G+G+G+G+G+G+G+G+G+G+G+G+G+I I I I I I I G+G+G+G+G+G+G+G+G+G+G+I H I G+G+G+G+G+G+G+G+G+I G+G+m : : : : : : : . G+G+G+G+G+I G+G+G+G+G+G+G+G+G+G+G+G+G+G+G+G+G+G+G+G+G+G+G+G+G+G+G+G+G+G+G+G+G+G+G+I G+G+G+I I G+G+G+G+G+G+G+G+G+I I G+G+G+G+G+G+G+G+G+I H H H G+I I I I H H H G+G+G+I I G+G+G+G+G+G+G+G+G+G+G+G+G+G+G+G+G+G+G+G+G+G+G+G+G+G+I G+G+G+G+G+G+G+G+H H G+( 8 . I G+G+I 4 d 7 7 7 d 7 7 d 7 d d d d d 7 d d d d 7 d d m G+G+G+G+G+G+G+I I G+G+G+G+G+G+G+G+G+G+G+G+G+G+G+G+G+G+G+G+G+G+G+",
"G+I I G+G+G+G+G+G+G+G+G+G+. G+G+G+G+G+G+G+G+G+H H H I G+G+I G+I I H I G+I = 4 j j j j j j 4 4 4 4 4 4 4 4 4 j j j j j 8 8 j h G+G+k ^ c c c c c d = G+H I G+G+G+G+G+G+G+G+G+I H I H H H H H H H I G+G+G+G+G+I H I I G+G+G+G+G+G+G+G+G+G+I I I G+G+G+G+G+G+G+G+G+G+G+G+G+G+G+G+G+G+G+G+G+I G+G+G+G+G+G+I H H H H H H H G+G+G+G+G+G+G+G+G+G+G+I I G+G+G+G+G+G+G+G+G+G+G+G+G+( 9 f f f f f f m G+G+G+G+G+G+G+G+G+G+G+G+G+G+G+G+G+G+G+G+G+G+G+G+G+G+G+G+G+G+G+G+G+G+G+G+G+G+G+G+G+G+I G+G+G+G+G+G+G+G+G+G+G+G+G+G+I G+G+G+G+G+G+G+G+G+I H I I G+G+I I I I H I G+G+G+G+G+G+G+G+G+G+G+G+G+G+G+G+G+G+G+G+G+G+I I I I I I G+G+G+G+G+G+G+G+G+G+G+G+H I G+m 4 8 # + G+m 7 d 7 7 7 7 7 7 7 d 7 7 7 7 7 d d d 7 d d d 8 I G+G+G+G+G+G+I I I G+G+G+G+G+G+G+G+G+G+G+G+G+G+G+G+G+G+G+G+G+G+G+",
"G+G+G+G+G+G+G+G+G+G+G+h 8 . G+G+G+G+G+G+G+G+G+G+G+G+I I H h h + m . ( # 4 4 4 4 4 4 4 4 4 j j j j j j j 8 8 8 8 8 8 8 8 8 8 ( G+G+j ^ d d d d d d = G+H H G+G+G+G+I G+G+G+G+G+G+I H H H H H H H G+G+G+G+G+G+G+G+G+G+G+G+G+G+G+G+G+G+G+G+G+G+G+I H H H G+G+G+I H I G+G+G+G+G+G+G+G+G+G+G+G+G+G+G+G+G+I H H H H H H I G+G+G+G+G+G+G+G+G+G+G+G+I H I G+G+G+G+G+G+G+G+G+G+G+G+j : f f f f : ^ = G+G+G+G+G+G+G+G+G+G+I I G+G+G+G+G+G+G+G+G+G+G+G+G+G+G+G+G+G+G+G+G+G+G+G+G+G+G+G+G+G+G+G+G+I G+G+G+G+G+G+G+G+G+G+G+G+G+G+G+G+G+G+G+G+G+G+G+G+G+G+I H H I G+G+I H I G+G+I G+G+G+G+G+G+G+G+G+G+G+G+G+G+G+G+I I I I I I G+G+G+G+G+G+G+G+G+G+G+G+G+H H I G+= ( 8 8 ( j u 7 7 7 7 7 7 7 7 7 7 7 7 7 7 7 d 7 7 7 7 u . G+G+G+G+G+G+G+G+G+G+G+G+H H H I G+G+I H I G+I G+G+G+G+G+G+G+G+G+G+",
"G+I G+G+G+G+G+G+G+G+G+= 8 ( G+G+G+G+G+I I = + + m . ( # 4 8 8 8 8 8 8 8 4 # ( 4 j j j j 8 8 8 8 8 8 8 8 8 8 8 8 8 8 8 8 8 8 8 m G+B c d d d d d c m G+H H G+G+I I I I G+G+G+G+G+I I I I I I I I G+G+G+G+G+G+G+G+G+G+G+G+G+G+G+G+G+G+G+G+G+I G+I H H H G+G+G+H H I G+I G+G+G+G+G+G+G+G+G+G+G+G+G+G+G+I H H H H I I I G+G+G+G+G+G+G+G+G+G+G+G+I H I G+G+G+G+G+G+G+G+G+G+G+G+7 : f f f f f d G+G+G+G+G+G+G+G+G+G+G+G+I G+G+G+G+G+G+G+G+G+G+G+G+G+G+G+G+G+G+G+G+G+G+G+G+G+G+G+G+G+G+G+G+G+I G+G+G+G+G+G+G+G+G+G+G+G+G+G+G+G+G+G+G+G+G+G+G+G+G+G+I H H I G+G+I H H I G+I G+G+G+G+G+G+G+G+G+G+G+G+G+G+G+I H H I I I I I G+G+G+G+G+G+G+G+G+G+G+G+H H I G+I I m # j j 8 7 7 7 7 7 7 7 7 7 7 7 7 7 7 7 7 7 7 d d j I G+I I G+G+G+G+G+G+I I I H H H I G+G+I H I G+I I G+G+G+I G+G+G+G+G+",
"G+G+G+G+G+G+G+G+G+G+G+= 8 # + m . . # # 4 j 8 8 8 8 4 4 4 # ( . m + h h h H I h 8 8 8 8 8 8 8 8 8 8 8 8 8 8 8 8 8 8 8 8 8 8 8 B I m d d d d d d c 4 G+H H G+G+I I I I G+G+G+G+G+G+G+G+G+G+G+G+G+G+G+G+G+G+G+G+G+G+G+G+G+I I G+G+G+G+G+G+G+I G+I H H H G+G+G+H H I G+I I G+G+I I G+G+G+G+G+G+G+G+G+G+I H H H H I I I G+I G+G+G+G+G+G+G+G+G+G+I H H G+G+G+G+G+G+G+G+G+I G+I d : f f f f : k G+G+G+G+G+G+G+G+G+G+G+I I G+G+G+G+G+G+G+G+G+G+G+G+G+G+G+G+G+G+G+G+G+G+G+G+G+G+G+G+G+G+G+G+G+G+G+G+G+G+G+G+G+G+G+G+G+G+G+G+G+G+G+G+G+G+G+G+G+G+G+G+I H H I G+G+I H H I G+I I G+G+G+G+G+G+G+G+G+G+G+G+G+G+I I I I I I I I I I G+G+G+G+G+G+G+G+G+G+I H I G+I I G++ 8 j 4 j 8 7 7 7 7 7 7 7 7 7 7 7 7 7 7 7 7 u 7 m G+G+I G+G+G+G+G+G+G+I I I H H H I G+G+I H H G+I I I G+G+I I G+G+G+G+",
"G+G+I I = = + m . ( # 4 4 4 8 8 8 8 8 4 # # ( . m m ( . h H H I G+G+I H I G+G+I ( 8 8 8 8 8 8 8 8 8 8 8 8 8 8 8 8 8 8 8 8 8 8 8 m h d d d d d d d k I H H G+G+I I I I G+G+G+I G+G+G+G+G+G+G+G+G+G+G+G+G+G+G+G+G+G+G+G+G+G+I G+G+G+G+G+G+G+I G+I H H H I G+G+H H I G+I I I G+G+H G+G+G+G+G+G+G+G+G+G+H H H H H H H I I I G+G+G+G+G+I G+G+G+G+I H H G+G+G+G+G+G+G+G+G+G+G+= ^ f f f f f : j G+G+I I G+I I G+G+G+G+I I G+G+G+G+G+G+G+G+G+G+G+G+G+G+G+G+G+G+G+G+G+G+G+G+G+G+G+G+G+G+G+G+G+G+G+G+G+G+G+G+G+G+G+G+G+G+G+G+G+G+G+G+G+G+G+G+G+G+G+G+H H H I G+G+I H H I G+I I G+I H I G+G+G+G+G+G+G+G+G+G+I I I I I I I I I I G+G+G+G+G+G+G+G+G+G+H H I G+I G+I B 7 8 j 4 4 8 7 7 7 7 7 7 7 7 7 7 7 7 7 7 7 d j I G+G+I G+G+G+G+G+G+G+I I G+H H H I G+G+I H H I I I I G+I I G+G+G+G+G+",
". . # 4 8 8 8 8 8 8 8 j 4 4 ( . m + h = I G+G+G+G+= 8 # H H H I G+G+I I I G+I I h j 8 8 8 8 8 8 8 8 8 8 8 8 8 8 8 8 8 8 8 8 8 8 j h k d d d d d d d = H H G+G+G+G+G+G+G+G+G+I I G+G+G+G+G+G+G+G+G+I G+I I I I I G+G+G+G+I I G+G+G+G+G+G+G+I G+I H H H G+G+G+H H I G+I I G+I I I G+G+G+G+G+G+G+G+G+G+H H H I H H H H I G+G+G+G+G+I I G+G+G+G+I H I G+G+G+G+G+G+G+G+G+G+G+m f ^ f f ^ f : ( G+G+H H I G+G+G+G+G+G+I H G+G+G+G+G+G+G+G+G+G+G+G+G+G+G+G+G+G+I I G+G+G+G+G+G+G+G+G+G+G+G+G+G+G+G+G+G+G+G+G+G+G+G+G+G+G+G+G+G+G+G+G+G+G+G+G+G+I G+I H H I G+G+I I I I G+I I G+I H I G+G+G+G+G+G+G+G+G+G+I I I I I I I I I I G+G+G+G+I G+G+G+G+G+H H I G+G+G+G 7 7 7 7 8 4 4 4 8 7 7 7 7 7 7 7 7 7 7 7 7 7 7 m G+G+G+H I G+G+G+G+G+G+G+G+G+H H H I G+G+I H H I I I I G+I H G+G+G+G+G+",
"8 8 4 4 # # . . + h I = # 4 = G+G+G+G+G+G+G+G+G+G+H # 4 h H H I G+G+I I I G+I I I A 8 8 8 8 8 8 8 8 8 8 8 8 8 8 8 8 8 8 8 8 8 8 8 B 4 d d d d d d d m H H G+G+G+G+G+G+G+G+G+G+G+G+G+G+G+G+G+G+G+G+G+I = h H H H I G+G+G+I H I G+G+G+G+G+G+I G+I H H H G+G+G+H H I G+I I G+G+H I G+G+G+G+G+G+G+G+G+G+I I I I I I H I G+G+G+G+G+G+I I G+G+G+G+I H I G+G+G+G+G+G+G+G+I H I j f ^ ^ ^ ^ f ^ = G+G+I I I G+G+G+G+G+G+I I G+G+G+G+G+G+G+G+G+G+G+G+G+G+G+G+G+G+G+I G+G+G+G+G+G+G+G+G+G+G+G+G+G+G+G+G+G+G+G+G+G+G+G+G+G+G+G+G+G+G+G+G+G+G+G+G+I I G+I H H I G+G+I I I I I I I G+I H I G+G+I G+G+G+G+G+G+G+I I I H H H I I I I G+G+G+I H I G+G+G+G+H H I G+G+I j u 7 7 7 7 8 8 4 4 8 k 7 7 7 7 7 7 7 7 7 7 7 j I G+G+G+H H G+G+G+G+G+G+G+G+G+I H H I G+G+I H H I I I G+G+I H I G+G+G+G+",
"m = = I I G+G+G+G+G+G+G+# 4 = G+G+G+G+G+G+G+G+G+G+I # 4 h H H G+G+G+I I I G+I I G+H j 8 8 8 8 8 8 8 8 8 8 8 8 8 8 8 8 8 8 8 8 8 8 8 j d d d d d d d ( H H G+G+G+G+G+G+G+G+G+G+G+G+G+G+G+G+G+G+G+G+G+I h h H H H I G+G+G+I H I G+G+G+G+G+G+G+G+G+H H H G+G+G+H H I G+I I G+G+I H G+G+G+G+G+G+G+G+G+G+G+G+G+G+G+I I I G+G+G+G+G+G+G+G+G+G+G+G+G+H H G+G+G+G+G+G+G+G+I I H d f ^ ^ ^ ^ f k I G+G+G+G+G+G+G+G+G+G+G+I I G+G+G+G+G+G+G+G+G+G+G+G+G+G+G+G+G+G+G+I I G+G+G+G+G+G+G+G+G+G+G+G+G+G+G+G+G+G+G+G+G+G+G+G+G+G+G+G+G+G+G+G+G+G+G+G+G+I G+I H H I G+G+G+I I I I I I G+G+H I G+G+G+G+G+G+G+G+G+G+I I I I I I I I I I G+G+G+I H I G+G+G+G+H H I G+G+( 7 7 7 7 7 7 7 7 8 j 4 4 8 7 7 7 7 7 7 7 7 7 7 h G+G+G+G+I I G+G+G+G+G+G+G+G+G+I H H I G+G+I H H I I I G+G+I H I G+G+G+G+",
"G+G+G+G+G+G+G+G+G+G+G+G+( 8 = G+G+G+G+G+G+G+G+G+G+I ( 8 * I H I G+G+I H I I I I G+G+m 8 8 8 8 8 8 8 8 8 8 8 8 8 8 8 8 8 8 8 8 8 8 8 8 7 d d d d d d 8 h H G+G+G+G+G+G+G+G+I I I G+G+G+G+G+G+G+G+G+G+G+I H I I I G+G+G+G+G+I I G+G+G+G+G+G+I G+G+H H H G+G+G+H H I G+I I G+G+I I G+G+G+G+G+G+G+G+G+G+G+G+G+G+G+G+G+G+G+G+G+G+G+G+G+G+G+G+G+G+I H I G+G+G+G+G+G+G+G+G+G+= d ^ ^ ^ ^ ^ f j G+G+G+G+G+I I G+G+G+G+G+I I G+G+G+G+G+G+G+G+G+G+G+G+G+G+G+G+G+G+I I I G+G+G+G+G+G+G+G+G+G+G+G+G+G+G+G+G+G+G+G+G+G+G+G+G+G+G+G+G+G+G+G+G+G+G+G+G+G+G+I H H I G+G+G+I H I G+I I G+G+I I G+G+G+G+G+G+G+G+G+G+G+G+G+G+G+I G+G+G+G+G+G+G+G+I G+G+G+m m H H G+G+h 7 7 7 7 7 7 7 7 7 7 7 8 4 4 j 8 7 7 7 7 7 7 u ( G+G+G+G+G+G+G+G+G+G+G+G+G+G+I G+I H H I G+G+I H H I I I G+G+I H I G+G+G+G+",
"G+G+G+G+G+G+G+G+G+G+G+I . 8 * G+G+G+G+G+G+G+G+G+G+G+. 8 m H H I G+G+I H H I I I G+G+I B 8 j 8 8 8 8 8 8 8 8 8 8 8 8 8 8 8 8 8 8 8 8 8 7 d d d d d d 7 * I G+G+G+G+G+G+G+G+G+I I G+G+G+G+G+G+G+G+G+G+G+G+G+G+G+G+G+G+G+G+G+G+G+G+G+G+G+G+G+I G+G+H H H G+G+G+H H I G+I I G+G+I I G+G+G+G+G+G+G+G+G+G+G+G+G+G+G+G+G+G+G+G+G+G+G+G+G+G+G+G+G+G+I H I G+G+G+G+G+G+G+G+G+G+m ^ ^ ^ ^ ^ ^ f ( G+G+G+G+I I I G+G+G+G+G+I I G+G+G+G+G+G+G+G+G+G+G+G+G+G+G+G+G+G+I I I G+G+G+G+G+G+G+G+G+G+G+G+G+G+G+G+G+G+G+G+G+I I I H H I G+G+G+G+G+G+G+G+G+G+G+G+I H H I G+G+G+H H I G+I I G+G+I I G+G+G+G+G+G+G+G+G+G+G+G+G+G+G+G+G+G+G+G+G+G+G+G+G+G+G+= j 8 . H G+I j 7 7 7 7 7 7 7 7 7 7 7 7 k j 4 4 j k 7 7 7 7 k = G+G+G+G+G+I G+G+G+G+G+G+G+G+I I I H H G+G+G+I H H I I I I G+I H G+G+G+G+G+",
"G+G+G+G+G+G+G+G+G+I I H . 8 m G+G+G+G+G+G+G+G+G+G+G+m 8 . H H G+G+G+I I I G+I I G+G+G+G j 8 j 8 j 8 8 j 8 8 8 8 8 8 8 8 8 8 8 8 8 8 8 7 7 d 7 7 d d d ( H G+G+G+G+G+G+G+G+G+G+G+G+G+G+G+G+G+G+G+G+G+G+G+G+G+I G+G+G+G+G+I I G+G+G+G+G+G+G+G+G+I I H I G+G+G+H H I G+I I G+G+I I G+G+G+G+G+G+G+G+G+G+G+G+G+G+G+G+G+G+G+G+G+G+G+G+G+G+G+G+G+G+I H I G+G+G+G+G+G+G+G+G+G+k f c c c ^ ^ d h G+G+G+G+I I G+G+G+G+G+G+G+I G+G+G+G+G+G+G+G+G+G+G+G+G+G+G+G+G+I I I I I G+G+G+G+G+G+G+G+G+G+G+G+G+G+G+G+G+G+G+I H H H H H I G+G+G+G+G+G+G+G+G+G+G+G+I H H I G+G+G+I I I G+I I G+G+I I G+G+G+G+I G+G+G+G+G+G+G+G+G+G+G+G+G+G+G+G+G+G+G+G+G+G+G+m 4 8 ( I . 7 7 7 7 7 7 7 7 7 7 7 7 7 7 7 8 j 4 4 8 7 7 7 m I G+G+G+G+G+I G+G+G+G+G+G+G+G+G+G+G+I G+G+G+G+I H H I I I I G+I H G+G+G+G+G+",
"G+G+I G+G+G+G+G+G+I H H . 8 m I G+G+G+G+G+G+G+G+G+G+m 8 ( H H G+G+G+I I I G+I I I G+G+H ( 8 8 j 8 j j 8 8 j 8 8 8 8 8 j 8 8 j 8 8 8 8 k 7 7 7 7 7 7 d j H G+G+G+G+G+G+G+G+G+G+G+G+G+G+G+G+G+G+G+G+G+G+G+I I I G+G+G+G+G+G+I G+G+G+G+G+G+G+G+G+G+G+G+G+G+G+G+H H I G+I I I G+I I G+G+G+G+G+G+G+G+G+G+G+G+G+G+G+G+G+G+G+G+G+G+G+G+G+G+G+G+G+G+G+I I G+G+G+I G+G+G+G+G+= d ^ ^ ^ ^ ^ ^ d I G+G+G+G+G+G+G+G+G+G+G+G+G+G+G+G+G+G+G+G+I G+G+G+G+G+G+G+G+G+G+G+I I I I G+G+G+G+G+G+G+G+G+G+G+G+I G+G+G+G+G+G+I I H H H H H I G+G+G+G+G+G+G+G+G+I G+I H H G+G+G+G+I I G+G+I I G+G+I G+G+G+G+G+I G+G+G+G+G+G+G+G+G+G+G+G+G+G+G+G+G+G+G+G+G+G+G+G++ j 8 # 8 7 7 7 7 7 7 7 7 7 7 7 7 7 7 7 7 k 8 4 4 8 8 j I G+G+G+G+G+G+I G+G+G+G+G+G+G+G+G+G+G+G+G+G+G+G+I H H I I I I G+G+I G+G+G+G+G+",
"G+I I G+G+G+G+G+I I H H h m h I G+G+G+G+G+G+G+G+G+G+h 8 ( H I G+G+G+I H I G+I I G+G+G+G+= j 8 j j j j j 8 8 j j j j 8 8 8 j 8 8 8 8 8 8 7 7 7 7 7 7 7 7 h G+G+G+I G+G+G+G+G+G+G+G+G+G+G+G+G+G+G+G+G+G+G+I G+G+G+G+G+G+G+G+I G+G+G+G+G+G+G+G+G+G+G+G+G+G+G+G+H H I G+I I I G+G+I G+G+G+G+G+G+G+G+G+G+G+G+G+G+G+G+G+G+G+G+G+G+G+G+G+G+G+G+G+G+G+H I G+G+G+G+G+G+G+G+G+. ^ c c c ^ c ^ 4 G+G+G+G+G+G+G+G+G+G+G+G+G+G+G+G+G+G+G+G+G+I G+G+G+G+G+G+G+G+G+G+G+G+I H I I G+G+G+G+G+G+G+G+G+G+I I G+G+G+G+G+I I H H H H H H I G+G+G+G+G+G+G+G+G+I I G+G+G+G+G+G+G+I H G+G+I I G+G+I G+G+G+G+G+I G+G+G+G+G+G+G+G+G+G+G+G+G+G+G+G+G+G+G+G+G+G+G+G+G+h # 8 8 k 7 7 7 7 7 7 7 7 7 7 7 7 7 7 7 7 7 8 j 4 8 ( I G+G+G+G+G+G+I G+G+G+G+G+G+G+G+G+G+G+G+G+G+G+G+I H I I G+G+G+G+G+G+G+G+G+G+G+",
"G+I I G+G+G+G+G+G+I H H H H H I G+G+G+G+G+G+G+G+G+G+= 4 4 I G+G+G+G+I H I G+I I G+G+G+I G+m 8 j j j j 8 j j j 8 j 8 j 8 8 8 j 8 8 j 8 8 7 7 7 7 7 7 7 7 m G+G+G+I I G+G+G+G+G+G+G+G+G+G+G+G+G+G+G+G+G+G+G+G+G+G+G+G+G+G+G+G+G+G+G+G+G+G+G+G+G+G+G+G+G+G+G+G+I H I G+G+G+G+G+G+G+G+G+G+G+G+G+G+G+G+G+G+G+G+G+G+G+G+G+G+G+G+G+G+G+G+G+G+G+G+G+G+H I G+G+G+G+G+G+G+G+G+8 ^ % d c c c d h G+G+G+G+G+G+G+G+G+G+G+G+G+G+G+G+G+G+G+G+G+G+G+G+G+G+G+G+G+G+G+G+G+G+I I I I I G+G+G+G+G+G+I I G+I I G+G+G+G+G+I I H H H H H H I G+G+G+G+G+G+G+G+G+G+G+G+G+G+G+G+G+I H H G+G+G+I G+G+G+G+G+G+G+G+G+G+G+G+G+G+G+G+G+G+G+G+G+G+G+G+G+G+G+G+G+G+G+G+G+G+I i 8 4 j k 7 7 7 7 7 7 7 7 7 7 7 7 7 7 7 7 7 k 8 j 8 # + G+G+G+G+G+G+G+G+G+G+G+G+G+G+G+G+G+G+G+G+G+G+G+I I I G+G+G+G+G+G+G+G+G+G+G+",
"I H I G+G+G+G+G+G+I H H H H H I G+G+G+G+G+G+G+G+G+G+I # 4 I G+G+G+G+I H I G+G+G+G+G+G+G+G+I B 8 j j j j j j j j j j j j j j j j 8 8 j j 8 7 7 7 7 7 7 7 j G+G+G+I G+G+G+G+G+G+G+G+G+G+G+G+G+G+G+G+G+G+G+G+G+G+G+G+G+G+G+G+G+G+G+G+G+G+G+G+G+G+G+G+G+G+G+G+G+G+I I I G+G+G+G+G+G+G+G+G+G+G+G+G+G+G+G+G+G+G+G+G+G+G+G+G+G+G+G+G+G+G+G+G+G+G+G+G+H I G+G+G+G+G+G+G+G+= d c d d d d c 7 I G+G+G+G+G+G+G+I I G+G+G+G+G+I G+G+G+G+G+G+G+G+G+G+G+G+G+G+G+G+G+G+G+I I I I I I I G+G+G+G+= = I H I G+G+G+G+G+G+I I H H H H H I G+G+G+G+G+G+G+G+G+G+G+G+G+G+G+G+G+G+I I I G+G+G+G+G+G+G+G+G+G+G+G+G+G+G+G+G+G+G+G+G+G+G+G+G+G+G+G+G+G+G+G+G+G+G+G+G+m 8 k 8 4 j 8 7 7 7 7 7 7 7 7 7 7 7 7 7 7 7 7 7 j + . 8 8 ( = G+G+G+I I G+G+G+G+G+G+G+G+G+G+G+G+G+G+G+G+G+G+I G+G+G+G+G+G+G+G+G+G+G+",
"I H I G+G+G+G+G+G+I H H H H I I G+G+G+G+G+G+G+G+G+G+G+# 8 = G+G+G+G+G+I I G+G+G+G+G+G+G+G+G+h j j j j j j j j j j j j j j j j j j j j j 8 7 7 7 7 7 7 7 7 h G+G+G+G+G+G+G+G+G+G+H H H H H I I G+G+G+G+G+G+G+G+I G+G+G+G+G+I I G+G+G+G+G+G+G+G+G+G+G+G+G+G+G+G+G+I I G+G+G+G+G+G+G+G+G+G+G+G+G+G+G+G+G+G+G+G+G+G+G+G+G+G+G+G+G+G+G+G+G+G+G+G+G+H I G+G+G+G+G+G+G+G+4 c d d d d d c ( I G+G+G+G+G+G+G+I I G+G+G+G+G+G+G+G+G+G+G+G+G+G+G+G+G+G+G+G+G+G+G+G+G+I I I I I I I G+G+G+G+I = I I I G+G+G+G+G+G+I I H H H H I G+G+G+G+G+G+G+G+G+G+G+G+G+G+G+G+G+G+G+G+I I G+G+G+G+G+G+G+G+G+G+G+G+G+G+G+G+G+G+G+G+G+G+G+G+G+G+G+G+G+G+G+G+G+G+G+G+= 8 7 7 8 j 4 j 8 7 7 7 7 7 7 7 7 7 7 7 7 7 7 7 7 m G+G+m # 8 4 m I G+I I I G+G+G+G+G+G+G+G+G+G+G+G+G+G+G+G+G+G+G+G+G+G+G+G+G+G+G+G+I ",
"G+I G+G+G+G+G+G+G+I H H H H I I G+G+G+G+G+G+G+G+G+G+G+. 8 h G+G+G+G+G+G+G+I G+G+G+G+G+G+G+G+G+m 8 j j j j j j j j j j j j j j j j j j j j 8 7 k 7 7 7 7 7 B I G+I G+G+I G+I G+G+h h h h h h H G+G+G+G+G+G+G+I I G+G+G+G+G+I I G+G+G+G+G+G+G+G+G+G+G+G+G+G+G+G+G+G+G+G+G+G+G+G+G+G+G+G+G+I G+G+G+G+G+G+G+G+G+G+I I G+G+G+G+G+G+G+G+G+G+G+G+G+G+H H G+G+G+G+G+G+G+I 7 c d d d d d d h G+G+G+G+G+G+G+G+I G+G+G+G+G+G+G+G+G+G+G+G+G+G+G+G+G+G+G+G+G+G+G+G+G+G+G+G+G+G+I I I G+G+G+G+H I G+G+G+G+G+G+G+G+G+G+I H H I I I G+G+G+G+G+G+G+G+G+G+G+G+G+G+G+G+G+G+G+G+G+G+G+G+G+G+G+G+G+G+G+G+G+G+G+G+G+G+G+G+G+G+G+G+I G+G+G+G+G+G+G+G+G+G+G+G+I B 7 7 7 7 8 j 4 j 8 7 7 7 7 7 7 7 7 7 7 7 7 7 7 B G+G+G+G+h . j 8 # h I G+G+G+G+G+G+G+G+G+I I I G+G+G+G+G+G+G+G+G+G+G+G+G+G+G+G+G+G+I ",
"G+G+G+G+G+G+G+G+G+G+I H H I I I G+G+G+G+G+G+G+G+G+G+G+. 8 m G+G+G+G+G+G+G+G+G+G+G+G+G+G+G+G+G+I B 8 j j j j j j j j j j j j j j j j j j j 8 7 k k 7 7 7 7 k h G+I I I I H H H I H h h h + h I G+G+G+G+G+G+G+I I G+G+G+G+G+G+G+G+G+G+G+G+G+G+I I I I I G+G+G+G+G+G+G+G+G+G+G+G+G+G+G+G+G+I G+G+G+G+G+G+G+G+G+G+G+G+G+G+G+G+G+G+G+G+G+G+G+G+G+G+H H I I G+G+G+G+G+. d d d d d d c 4 G+G+G+G+G+G+G+G+G+G+G+G+G+G+G+G+G+G+G+G+G+G+G+G+G+G+G+G+G+G+G+G+G+G+G+G+G+G+G+G+G+G+G+G+G+G+G+H I G+G+G+G+G+G+G+G+G+G+I H H I I G+G+G+G+G+G+G+G+G+G+G+G+G+G+G+G+G+G+G+G+G+G+G+G+G+G+G+G+G+G+G+G+G+I G+G+G+G+G+G+G+G+G+I I I I G+G+G+G+G+G+G+G+G+G+G+( 7 8 8 k 7 7 k j 4 4 8 7 8 7 7 7 7 7 7 7 7 7 7 8 = G+G+G+I G+G+= # 8 8 + G+G+G+G+G+G+G+I I I H H H G+G+G+G+G+G+G+G+G+G+G+G+G+G+G+G+G+G+",
"G+G+G+G+G+G+G+G+G+G+I I I I I G+G+G+G+G+G+G+G+G+G+G+G+m 8 . G+G+G+G+G+G+G+G+G+G+G+G+G+G+G+G+G+G+h j j j j j j j j j j j j j j j j j j j j 8 8 8 k k 8 8 8 7 ( I I I I I I I I I I H H H h h I G+G+G+G+G+G+G+G+G+G+G+G+G+G+G+G+G+G+G+G+G+G+I I H H H I G+G+G+G+G+G+G+G+G+G+G+G+G+G+G+G+G+G+G+G+G+G+G+G+G+G+G+G+G+G+G+G+G+G+G+G+G+G+G+G+G+G+G+G+H H I I G+G+G+G+I 7 d d d d d d d m G+G+G+G+G+G+G+G+G+G+G+G+G+G+G+G+G+G+G+G+G+G+G+G+G+G+G+G+G+G+G+G+G+G+G+G+G+G+G+G+G+G+G+G+G+G+G+G+I G+G+G+G+G+G+G+G+G+G+I I I I I G+G+G+G+G+G+G+G+G+G+G+I I I I I G+G+G+G+G+G+G+G+G+G+G+G+G+G+G+G+G+I G+G+G+G+G+G+G+G+G+G+G+G+G+G+G+G+G+G+G+I I G+G+m 8 7 k 7 8 8 k k 8 j 4 4 8 7 7 7 7 7 7 7 7 8 7 7 m G+G+G+G+G+G+G+G+G+m ( I G+G+G+G+G+G+G+H H I I H I G+G+G+G+G+G+G+G+G+G+G+G+G+G+G+G+G+G+",
"G+G+G+G+G+G+G+G+G+G+I I I I G+G+G+G+G+G+G+G+G+G+G+I H * 8 ( I G+G+G+G+G+G+G+G+G+G+G+G+G+G+G+G+G+I A 8 j j j j j j j j j j j j j j j j j j j 8 8 8 8 8 8 8 8 j H G+G+I I G+G+G+G+H I I H H H G+G+G+G+G+G+G+G+G+G+G+G+G+G+G+G+G+G+G+G+G+G+G+H I I I H G+G+G+G+G+G+G+G+G+G+G+G+G+G+G+G+G+G+G+G+G+G+G+G+G+G+G+G+G+I I I G+G+G+G+G+G+G+G+G+G+G+G+G+H I G+G+G+G+G+G+m d d d d d d d 7 I G+G+G+G+G+G+G+G+G+G+G+G+G+G+G+G+G+G+G+G+G+G+G+G+G+G+G+G+G+G+G+G+G+G+G+G+G+G+G+G+G+G+G+G+G+G+G+G+G+G+G+G+G+G+G+G+G+G+G+G+I I I G+G+G+G+G+G+G+G+G+G+G+I H H H H H G+G+G+G+G+G+G+G+G+G+G+G+G+G+G+G+G+G+G+G+G+G+G+G+G+G+G+G+G+G+G+G+G+G+G+G+G+I I G+= j 7 8 8 k k 8 k 8 7 8 8 4 4 8 7 7 7 8 8 8 8 k 7 B I G+G+G+G+G+G+G+G+G+G+I G+I G+G+G+G+G+G+I I G+G+G+G+G+G+G+G+G+G+G+G+G+G+G+G+G+G+G+G+G+G+",
"G+G+G+G+G+G+G+G+G+G+G+G+G+G+G+G+G+G+G+G+G+G+G+G+G+H H h 8 # I G+G+G+G+G+G+G+G+G+G+G+G+G+G+G+G+G+G+I B 8 j j j j j j j j j j j j j j j j j j j 8 8 8 8 8 8 8 8 ( G+G+G+G+G+G+G+G+I H I H I I G+G+G+G+G+G+G+G+G+G+G+G+G+G+G+G+I G+G+G+G+G+G+I G+G+G+G+G+G+G+G+G+G+G+G+G+G+G+G+G+G+G+G+G+G+G+G+G+G+G+G+G+G+I I G+I H I I G+G+G+G+G+G+G+G+G+G+G+G+H I G+G+G+G+G+I 8 d d d d d d d m G+G+G+G+G+G+G+G+G+G+G+G+G+G+G+G+G+G+G+G+G+G+G+G+G+G+G+G+G+G+G+G+G+G+G+G+G+G+G+G+G+G+G+G+G+G+G+G+G+G+G+G+G+G+G+G+G+G+G+G+G+G+G+G+G+G+G+G+G+G+G+G+G+G+G+I H I I H I G+G+G+G+G+G+G+G+G+G+G+G+G+G+G+G+G+G+G+G+G+G+G+G+G+G+G+G+I I I G+G+G+G+G+G+I G+I 4 7 8 k 8 8 8 8 k 8 8 8 8 8 4 4 8 8 8 k k 8 7 7 8 = G+G+G+G+G+G+G+G+G+G+G+G+G+G+G+G+G+G+G+G+G+G+G+G+G+G+G+G+G+G+G+G+G+G+G+G+G+G+G+G+G+G+G+G+",
"G+G+G+G+G+G+G+G+G+G+G+G+G+G+G+G+G+G+G+G+G+G+G+G+G+I I G+h h G+G+G+G+G+G+G+G+G+G+G+G+G+G+G+G+G+G+G+G+h j j j j j j j j j j j j j j j j j j j j 8 8 8 8 8 8 8 8 8 = G+G+G+G+G+G+G+I H H I G+G+G+G+G+G+G+G+G+G+G+G+G+G+G+G+G+G+G+G+G+G+G+G+G+G+G+G+G+G+G+G+G+G+G+G+G+I I G+G+G+G+G+G+G+G+G+G+G+G+G+G+G+G+G+G+G+G+G+I I G+G+G+G+G+G+G+G+G+G+G+G+I H I G+G+G+I I ( d d d d d d d 8 I G+G+G+G+G+G+G+G+G+G+G+G+G+G+G+G+G+G+G+G+G+G+G+G+G+G+G+G+G+G+G+G+G+G+G+G+G+G+G+G+G+G+G+G+G+G+G+G+G+G+G+G+G+G+G+G+G+G+G+G+G+G+G+G+G+G+G+G+G+G+G+G+G+G+G+G+I G+G+H G+G+G+G+G+G+G+G+G+G+G+G+G+G+G+G+G+G+G+G+G+G+G+G+G+G+G+G+I I H H H I G+G+G+G+G+I ( 7 8 k 8 k 8 k k k 8 8 8 k 8 8 4 4 8 8 8 8 k 8 7 m G+G+G+G+G+G+G+G+G+G+G+G+G+G+G+G+G+G+G+G+G+G+G+G+G+G+G+G+G+G+G+G+I H H I G+G+G+G+G+G+G+G+G+",
"G+G+G+G+G+G+G+G+G+G+G+G+G+G+G+G+G+G+G+G+G+G+G+G+G+I G+G+G+I G+G+G+G+G+G+G+G+G+G+G+G+G+G+G+G+G+G+G+G+G+m 8 j j j j j j j j j j j j j j j j j j j 8 8 8 8 8 8 8 7 ( I G+G+G+G+G+G+I H H I G+G+G+G+G+G+G+G+G+G+G+G+I G+G+G+G+G+G+G+G+G+G+G+G+G+G+G+G+G+G+G+G+G+G+G+I H H I G+I G+G+G+G+G+G+G+G+G+G+G+G+G+G+G+G+G+G+G+G+G+G+G+G+G+G+G+G+G+G+G+G+I H I G+G+G+I h 7 d 7 d 7 d d u m G+G+G+G+G+G+G+G+G+G+G+G+G+G+G+G+G+G+G+G+G+G+G+G+G+G+G+G+G+G+G+G+G+G+G+G+G+G+G+G+G+G+G+G+G+G+G+G+G+G+G+G+G+G+G+G+G+G+G+G+G+G+G+G+G+G+G+G+G+G+G+G+G+G+G+G+G+G+G+G+I G+G+G+G+G+G+G+G+G+G+G+G+G+G+G+G+G+G+G+G+G+G+G+G+G+G+G+G+G+I I I I I G+G+G+G+I m 8 8 k 8 8 8 8 8 8 8 8 8 8 8 8 8 8 4 4 j 8 k 8 7 B G+G+G+G+G+G+G+G+G+G+G+G+G+G+G+G+G+G+G+G+G+G+G+G+G+G+G+G+G+G+G+G+G+H H H I G+I I G+G+G+G+G+G+",
"G+G+G+G+G+G+G+G+G+G+G+G+G+G+G+G+G+G+G+G+G+G+G+G+G+G+G+G+G+G+G+G+G+G+G+G+G+G+I G+G+G+G+G+G+G+G+G+G+G+G+I ( j j j j j j j j j j j j j j j j j j j 8 8 8 8 8 8 8 8 8 G I I I G+G+G+G+I G+G+G+G+G+G+G+G+G+G+G+G+G+G+G+G+G+G+G+G+G+G+G+G+G+G+G+G+G+G+G+G+G+G+G+G+G+I H H H G+G+I G+G+G+G+G+G+G+G+G+G+G+G+G+G+G+G+G+G+G+G+G+G+G+G+G+G+G+G+G+G+G+G+I H I G+G+I I B d 7 7 7 7 7 d j G+G+G+G+G+G+G+G+G+G+G+G+G+G+G+G+G+G+G+G+G+G+G+G+G+G+G+G+G+G+G+G+G+G+G+G+G+G+G+G+G+G+G+G+I G+G+G+G+G+G+G+G+G+G+G+G+G+G+G+G+G+G+G+G+G+G+G+G+G+G+G+G+G+G+G+G+G+G+G+G+G+G+G+G+G+G+G+G+I H I G+G+G+G+G+G+G+G+G+G+G+G+G+G+G+G+G+G+G+G+G+G+G+G+G+G+G+G+m 8 8 8 8 8 8 k 8 8 8 8 8 8 8 k k k 8 8 4 4 j 8 7 j = G+G+G+G+G+G+G+G+G+G+G+G+G+G+G+G+G+G+G+G+G+G+G+G+G+G+G+G+G+G+G+G+G+I H H G+G+G+G+G+G+G+G+G+G+",
"G+G+G+G+G+G+G+G+G+G+G+G+G+G+G+G+G+G+G+G+G+G+G+G+G+G+G+G+G+G+G+G+G+G+G+G+G+H H I G+I G+G+G+G+G+G+G+G+G+G+= D j j j j j j j j j j j j j j j j j j j 8 8 8 8 8 8 8 8 j H G+G+G+G+G+G+G+G+G+G+G+G+G+G+G+G+G+G+G+G+G+G+G+G+G+G+G+G+G+G+G+G+G+G+G+G+G+G+G+G+G+G+G+G+G+I I I G+G+G+G+G+G+G+G+G+G+G+G+G+G+G+G+G+G+G+G+G+G+G+G+G+G+G+G+G+G+G+G+G+G+G+G+H I G+I I G 7 7 7 7 7 7 7 7 m G+G+G+G+G+G+G+G+G+G+G+G+G+G+G+G+G+G+G+G+G+G+G+G+G+G+G+G+G+G+G+G+G+G+G+G+G+G+G+G+I G+G+I I I G+G+G+G+G+G+G+G+G+G+G+G+G+G+G+G+G+G+G+G+G+G+G+G+G+G+G+G+G+G+G+G+G+G+G+G+G+G+G+G+G+G+G+I H H G+G+I G+G+G+G+G+G+G+G+G+G+G+G+G+G+G+G+G+G+G+G+G+G+G+G+h 8 8 8 8 8 k 8 8 8 8 8 8 k 8 k 8 8 k 8 8 8 j 4 j j + G+G+G+G+G+G+G+G+G+G+G+G+G+G+G+G+G+G+G+G+G+G+G+G+G+G+G+G+G+G+G+G+G+G+G+G+G+G+G+G+G+G+G+G+G+G+G+",
"G+G+G+G+G+G+G+G+G+G+I I G+G+G+G+G+G+G+G+G+G+G+G+G+G+G+G+G+G+G+G+G+G+G+G+I I H I G+I I G+G+G+G+G+G+G+G+G+G+m D j j j j j j j j j j j j j j j j j j j 8 8 8 8 8 8 8 8 m G+G+G+G+G+G+G+G+G+G+G+G+G+G+G+G+G+G+G+G+G+G+G+G+G+G+G+G+G+G+G+G+G+G+G+G+G+G+G+G+G+G+G+G+G+G+G+G+G+G+G+G+G+G+G+G+G+G+G+G+G+G+G+G+G+G+G+G+G+G+G+G+G+G+G+G+G+G+G+G+G+G+G+G+H I I G+I j 7 7 7 7 7 7 7 j G+G+G+G+G+G+G+G+G+G+G+G+G+G+G+G+G+G+G+G+G+G+G+G+G+G+G+G+G+G+G+G+G+G+G+G+G+G+G+G+G+G+G+G+G+I G+G+G+G+G+G+G+G+G+G+G+G+G+G+G+G+G+I I I G+G+G+G+G+G+G+G+G+G+G+G+G+G+G+G+G+G+G+G+G+G+G+G+G+G+I G+G+G+G+G+G+G+G+G+G+G+G+G+G+G+G+G+G+G+G+G+G+G+G+G+G+= j 7 8 8 8 8 8 8 8 8 8 8 8 8 8 8 8 8 8 8 8 8 8 j 4 4 = G+G+G+G+G+G+G+G+G+G+G+G+G+G+G+G+G+G+G+G+G+G+G+G+G+G+G+G+G+G+G+G+G+G+G+G+G+G+G+G+G+G+G+G+G+G+G+",
"G+G+G+G+G+G+G+G+G+G+I H I G+G+G+G+G+G+G+G+G+G+G+G+G+G+G+G+G+G+G+G+G+G+G+G+G+G+G+G+G+G+G+G+G+G+G+G+G+G+G+G+G+m j j j j D j D j j j j D j j j j j j j j 8 8 8 8 8 8 8 8 h G+G+G+G+G+G+G+G+G+G+G+G+G+G+G+G+G+G+G+G+G+G+G+G+G+G+G+G+G+G+G+G+G+G+G+G+G+G+G+G+G+G+G+G+G+G+G+G+G+G+G+G+G+G+G+G+G+G+G+G+G+G+G+G+G+G+G+G+G+G+G+G+G+G+G+G+G+G+G+G+G+G+G+H H I G+( 7 7 7 7 7 7 7 7 = G+G+G+G+G+G+G+G+G+G+G+G+G+G+G+G+G+G+G+G+G+G+G+G+G+G+G+G+G+G+G+G+G+G+G+G+G+G+G+G+G+G+G+G+G+G+G+G+G+G+G+G+G+G+G+G+G+G+G+G+G+G+G+G+I I G+G+G+G+G+G+G+G+G+G+G+G+G+G+G+G+G+G+G+G+G+G+G+G+G+G+G+G+G+G+G+G+G+G+G+G+G+G+G+G+G+G+G+G+G+G+G+G+G+G+G+G+I B 7 8 8 8 8 8 8 8 8 8 8 8 8 8 8 8 8 8 8 8 k 8 8 8 4 4 # = G+G+G+G+G+G+G+G+G+G+G+G+G+G+G+G+G+G+G+G+G+G+I I I G+G+G+G+G+G+G+G+G+G+G+G+G+G+G+G+G+G+G+G+G+",
"G+G+G+G+G+G+G+G+G+G+G+I G+G+G+G+G+G+G+G+G+G+G+G+G+G+G+G+G+G+G+G+G+G+G+G+G+G+G+G+G+G+G+G+G+G+G+G+G+G+G+G+G+G+I B j j j D j j j D j D j D D D j D j j j j j j j j j j 8 j H G+I I G+G+G+G+I G+G+G+G+G+G+G+G+G+G+G+G+G+G+G+G+G+G+G+G+G+G+G+I I I I G+G+G+G+G+G+G+G+G+G+G+G+G+G+G+G+G+G+G+G+G+G+G+G+G+G+G+G+G+G+G+G+G+G+G+G+G+G+G+I I I G+G+G+G+I H H I m k 7 7 7 7 7 7 7 . G+G+G+G+G+G+G+G+I I I I G+G+G+G+G+G+G+G+G+G+G+G+G+G+G+G+G+G+G+G+G+G+G+G+G+G+G+G+G+G+G+G+G+G+G+G+G+G+G+G+G+G+G+G+G+G+G+G+G+G+G+G+G+G+G+G+G+G+G+G+G+G+G+G+G+G+G+G+G+G+G+G+G+G+G+G+G+G+G+G+G+G+G+G+G+G+G+G+G+G+G+G+G+G+G+G+G+G+G+G+G+G+G+G+G+G+I ( 8 8 8 8 8 8 8 8 8 8 8 8 8 8 8 8 8 8 8 8 8 8 8 8 j m # 8 # = G+G+G+G+G+G+G+G+G+G+G+G+G+G+G+G+G+G+G+G+G+I I I G+G+G+G+G+G+G+G+G+G+G+G+G+G+G+G+G+G+G+G+G+",
"G+G+G+G+G+G+G+G+G+G+G+G+G+G+G+G+G+G+G+G+G+G+G+G+G+G+G+G+G+G+G+G+G+G+G+G+G+G+G+G+G+G+G+G+G+G+G+G+G+G+G+G+G+G+G+h B j j j D D D D D j j D D D j j j j j j j j j j j j j 8 ( I I I I I I I I I G+G+G+G+G+G+I . = G+G+G+G+G+G+G+G+G+G+G+G+G+G+G+I I G+G+G+G+G+G+G+G+G+G+G+G+G+G+G+G+G+G+G+G+G+G+G+G+G+I I G+G+G+G+G+G+G+G+G+G+G+G+G+I G+G+G+G+G+I H H h 8 7 7 7 7 7 7 7 j I G+G+G+G+G+I I G+I H H H H I I G+G+G+G+G+G+G+G+G+G+G+G+G+G+G+G+G+G+G+G+G+G+G+G+G+G+G+G+G+G+G+G+G+G+G+G+G+G+G+G+G+G+G+G+G+G+G+G+G+G+G+G+G+G+G+G+G+G+G+G+G+G+G+I I I I I G+G+G+G+G+G+G+G+G+G+G+G+G+G+G+G+G+G+G+G+G+G+G+G+G+G+G+G+G+G+G+G+G+G+I ( 8 8 8 8 8 8 8 8 8 8 8 8 8 8 8 8 8 8 8 8 8 8 8 8 8 m I = ( 8 4 = G+G+G+G+G+G+G+G+G+G+G+G+G+G+G+G+G+G+G+G+G+G+G+G+G+G+G+G+G+G+G+G+G+G+G+G+G+G+G+G+G+G+G+G+",
"G+G+G+G+G+G+G+G+G+G+G+G+G+G+G+G+G+G+G+G+G+G+G+G+I I I I G+G+G+G+G+G+G+G+G+G+G+G+G+G+G+G+G+G+G+G+G+G+G+G+G+G+G+G+m D D j D D D j D D D D j j j D j D j j j j j j j j j j 8 m G+G+G+I I I I I I G+G+G+I I ( 8 ( I G+G+G+G+G+G+G+G+G+G+G+G+G+G+G+G+G+G+G+G+G+G+G+G+G+G+G+G+G+G+G+G+G+G+G+G+G+G+G+G+G+I I G+G+G+G+G+G+G+G+G+G+G+G+G+G+G+G+G+G+G+I H H B 7 k k k k k 7 8 h G+G+G+G+I I I I I G+I H H H H I G+G+G+G+G+G+G+G+G+G+G+G+G+G+G+G+G+G+G+G+G+G+G+G+G+G+G+G+G+G+G+G+G+G+G+G+G+G+G+G+G+G+G+G+G+G+G+G+G+G+G+G+G+G+G+G+G+G+G+G+G+G+G+G+G+I I G+G+G+G+G+G+G+G+G+G+G+G+G+G+G+G+G+G+G+G+G+G+G+G+G+G+G+G+G+G+G+G+G+G+G+. 8 8 8 8 8 8 8 8 8 8 8 8 8 8 8 8 8 8 8 8 8 8 8 8 8 A I I H h ( 8 # m H H I G+I I G+G+G+G+G+G+G+G+G+G+G+G+G+G+G+G+G+G+G+G+G+G+G+G+G+G+G+G+G+G+G+G+G+G+G+G+G+",
"G+G+G+G+G+G+G+G+G+G+G+G+G+G+G+G+G+G+G+G+G+G+G+G+G+G+I I G+G+G+G+G+G+G+G+G+G+G+G+G+G+G+G+G+G+G+G+G+G+G+G+G+G+G+G+G+m D D D D D D j j D D D D D j D D D j D j j j j j j j 8 j h G+G+G+I I I H H I I I H m 8 4 h G+G+G+G+G+G+G+G+G+G+G+G+G+G+G+G+G+G+G+G+G+G+G+G+G+G+G+G+G+G+G+G+G+G+G+G+G+G+G+G+G+I I I G+G+G+G+G+G+G+G+G+G+G+G+G+G+G+G+G+G+G+G+H ( 8 8 8 8 8 8 8 7 m I I G+G+I I I G+G+G+G+I I H H I G+G+G+G+G+G+G+G+G+G+G+G+G+G+G+G+G+G+G+G+G+G+G+G+G+G+G+G+G+G+G+G+G+G+G+G+G+G+G+G+G+G+G+G+G+G+G+G+G+G+G+G+G+G+G+G+G+G+G+G+G+G+G+G+G+G+G+G+G+G+G+G+G+G+G+G+G+G+G+G+G+G+G+G+G+G+G+G+G+G+G+G+G+G+G+G+G+G+G+G+G+G+m 8 8 8 8 8 8 8 8 8 8 8 8 8 8 8 8 8 8 8 8 8 8 8 8 8 B I G+I I I H . 8 4 * H H I I I G+G+G+G+G+G+G+G+G+G+G+G+G+G+G+G+G+G+G+G+G+G+G+G+G+G+G+G+G+G+G+G+G+G+G+G+G+",
"G+G+G+G+G+G+G+G+G+G+G+G+G+G+G+G+G+G+G+G+G+G+G+G+G+G+G+G+G+G+G+G+G+G+G+G+G+G+G+G+G+G+G+G+G+G+G+G+G+G+G+G+G+G+G+G+G+I ( D D D D D D D D D j D D D D D D D D D j j j j j j j j B = G+G+G+G+I I I I I I h 4 8 m G+G+G+G+G+G+G+G+G+G+G+G+G+G+G+G+G+G+G+G+G+G+G+G+G+G+G+G+G+G+G+G+G+G+G+G+G+G+G+G+G+G+I I I I I I I I I I G+G+G+G+G+G+G+G+G+G+G+G+I A 8 8 8 8 8 8 8 8 B I H H G+G+G+I I G+G+G+G+I G+G+I G+G+G+G+G+G+G+G+G+G+G+G+G+G+G+G+G+G+G+G+G+G+G+G+G+G+G+G+G+G+G+G+G+G+G+G+G+G+G+G+G+G+G+G+G+G+G+G+I I I I G+I I G+I I G+G+G+G+G+G+G+G+G+G+G+G+G+G+G+G+G+G+G+G+G+G+G+G+G+G+G+G+G+G+G+G+G+G+G+G+G+G+G+G+G+G+G+G+m 8 8 8 8 8 8 8 8 8 8 8 8 8 8 8 8 8 8 8 8 8 8 8 8 8 j H G+G+G+G+G+G+G+. 8 8 m H I G+G+G+G+G+G+G+G+G+G+G+G+G+G+G+G+G+G+G+G+G+G+G+G+G+G+G+G+G+G+G+G+G+G+G+G+G+G+G+",
"G+G+G+G+G+G+I I I I I I I I I I I G+G+G+G+G+G+G+G+G+G+G+G+G+G+G+G+G+G+G+G+G+G+G+G+G+G+G+G+G+G+G+G+G+G+G+G+G+G+G+G+G+= i j D D D D D D D D D D D D D D j D D j j j j j j j j j B H G+G+G+G+G+G+G+G+H # 8 . I G+G+G+G+G+G+G+G+G+G+G+G+G+G+G+G+G+G+G+G+G+G+G+G+G+G+G+G+G+G+G+G+G+G+G+G+G+G+G+G+G+G+I I I I I H H H I I I G+G+G+G+G+I G+G+G+G+G+m 8 8 8 8 8 8 8 8 j I G+H H I G+G+G+I G+G+G+G+G+G+G+G+G+G+G+G+G+G+G+G+G+G+G+G+G+G+G+G+G+G+G+G+G+G+G+G+G+G+G+I H H H H H I I I I I I I I I I I I I I H H H H = = H h H H H H G+G+G+G+G+G+G+G+G+G+G+G+G+G+G+G+G+G+G+G+G+G+G+G+G+G+G+G+G+G+G+G+G+G+G+G+G+G+G+G+G+G+m 8 8 8 8 8 8 8 8 8 8 8 8 8 8 8 8 8 8 8 8 8 8 8 8 8 j h I G+G+G+G+G+G+G+G+m 8 8 m G+G+G+G+G+G+G+G+G+G+G+G+G+G+G+G+G+G+G+G+G+G+G+G+G+G+G+G+G+G+G+G+G+G+G+G+G+G+G+G+",
"I I I I I I H H H h h h h h H H H I G+G+G+G+G+G+G+G+G+G+G+G+G+G+G+G+G+G+G+G+G+G+G+G+G+G+G+G+G+G+G+G+G+G+G+G+G+I I I G+h D D j j D D j D j D D j D D j D D D D j D j D D D D j j B I G+G+G+G+G+G+G+. 8 # I G+G+G+G+G+G+G+G+G+G+G+G+G+G+G+G+G+G+G+G+G+G+G+G+G+G+G+G+G+G+G+G+G+G+G+G+G+G+G+G+G+G+G+I I I I I I I G+G+G+G+G+G+G+G+G+G+G+G+G+G+m 8 8 8 8 8 8 8 8 8 h G+G+H H I G+G+G+I I G+G+I G+G+G+G+G+G+G+G+G+G+G+G+G+G+G+G+G+G+G+G+G+G+G+G+G+G+G+G+G+I H H H H H H H H H H H H H H H H H H H H H H = = h h h h h h H H I I G+G+G+G+G+G+G+G+G+G+G+G+G+G+G+G+G+G+G+G+G+G+G+G+G+G+G+G+G+G+G+G+G+G+G+G+I I I G+m 8 8 8 8 8 8 8 8 8 8 8 8 8 8 8 8 8 8 8 8 8 8 8 8 8 8 m H I G+G+G+G+G+G+G+G+G+m 4 8 . G+G+G+G+G+G+G+G+G+G+G+G+G+G+G+G+G+G+G+G+G+G+G+G+G+G+G+G+G+I I G+G+G+G+G+G+G+G+",
"H H H H H H H = = h + h h H H H I I G+G+G+G+G+G+G+G+G+G+G+G+G+G+G+G+G+G+G+G+G+G+G+G+G+G+G+G+G+G+G+G+G+G+G+G+G+I I I G+G+G j j D D D D D j j D D D D D j D j D D D D D D D D D D D ( I G+G+G+G+G++ 8 4 = G+G+G+G+G+G+G+G+G+G+G+G+G+G+G+G+G+G+G+G+G+G+G+G+G+G+G+G+I I I I I G+G+G+G+G+G+G+G+G+G+G+G+I I I I I G+G+G+G+G+G+G+G+G+G+G+G+G+G+h 8 8 8 8 8 8 8 8 E m G+G+G+H H I G+G+I I I G+G+I G+G+G+G+G+G+G+G+G+G+G+G+G+G+G+G+G+G+G+G+G+G+G+G+G+G+G+G+G+I H H H H H H H H H H H H I I I I H H H I I H H H = h h h H H H I G+G+G+G+G+G+G+G+G+G+G+G+G+G+G+G+G+G+G+G+G+G+G+G+G+G+G+G+G+G+G+G+G+G+G+G+G+G+I I I m 8 8 8 8 8 8 8 8 8 8 8 8 8 8 8 8 8 8 8 8 8 8 8 8 8 8 m I H H I G+G+G+I G+G+G+I G++ 4 8 . G+G+G+G+G+G+G+G+G+G+G+G+G+G+G+G+G+G+G+G+G+G+G+G+I H H H H H I G+G+G+G+G+G+G+",
"H H H I I I I I H = h h H H H H I G+G+G+G+G+G+G+G+G+G+G+G+G+G+G+G+G+G+G+G+G+G+G+G+G+G+G+G+G+G+G+G+G+G+G+G+G+G+I I I G+G+G+m D j D D j D j D j D j D D j j D j j D D D j D j D D D D B h I I G+I 4 8 m G+G+G+G+G+G+G+G+G+G+G+G+G+G+G+G+G+G+G+G+G+G+G+G+G+G+G+I I H H = H H I I G+G+G+G+G+G+G+G+G+G+G+I I I G+G+G+G+G+G+G+G+G+G+G+G+G+G+m 8 8 8 8 8 8 8 8 8 m G+G+G+G+I I G+G+G+G+I G+G+G+G+G+G+G+G+G+G+G+G+G+G+G+G+G+G+G+G+G+G+G+G+G+G+G+G+G+G+G+G+G+G+I I H I I I H I H H I G+G+G+G+I I I G+G+G+G+G+I I = H I I I I I G+G+G+G+G+G+G+G+G+G+G+G+G+G+G+G+G+G+G+G+G+G+G+G+G+G+G+G+G+G+G+G+G+G+G+G+G+G+G+I m 8 8 8 8 8 8 8 8 8 8 8 8 8 8 8 8 8 8 8 8 8 8 8 8 8 8 ( G+I H H I G+I H H I G+G+I G+G++ # 8 . I G+G+G+G+G+G+G+G+G+G+G+G+G+G+G+G+G+G+G+G+G+G+I H = = H H H I G+G+G+G+G+G+",
"I I G+G+G+G+G+G+I I I I G+G+G+G+G+G+G+G+G+G+G+G+G+G+G+G+G+G+G+G+G+G+G+G+G+I G+G+G+G+G+G+G+G+G+G+G+G+G+G+G+G+G+G+I G+G+G+G+I m D D D D D D j D j D D D D D D D D D j D D D D D D D D D B h I G+. 8 ( G+G+G+G+G+G+G+G+G+G+G+G+G+G+G+G+G+G+G+G+G+G+G+G+G+G+G+G+I I H H = H H H I G+G+G+I G+G+G+G+G+G+I I I I I G+G+G+G+G+G+G+G+G+G+G+G+m 8 8 8 8 8 8 8 8 8 A G+G+G+G+G+G+G+G+G+G+G+G+G+G+G+G+G+G+G+G+G+G+G+G+G+G+G+G+G+G+G+G+G+G+G+G+G+G+G+G+G+G+G+G+G+G+G+G+I I G+I I I I I I G+G+G+G+G+I G+G+G+G+G+G+G+I I G+G+G+G+G+G+G+G+G+G+G+G+G+G+G+G+G+G+G+G+G+G+G+G+G+I H I I I I G+G+G+G+G+G+G+G+G+G+G+G+G+G+m 8 8 8 8 8 8 8 8 8 8 8 8 8 8 8 8 8 8 8 8 8 8 8 8 8 8 B I G+G+H I I G+I H H I G+G+I G+G+G+= # 8 ( I G+G+G+G+G+G+G+G+G+G+G+G+G+G+G+G+G+G+G+G+G+I H h = H H H I G+G+G+I G+G+",
"G+G+G+G+G+G+G+G+I I G+G+G+G+G+G+G+G+G+G+G+G+G+G+G+G+G+G+G+G+G+G+G+G+G+I I H H I I I G+G+G+G+G+G+G+G+G+G+G+G+G+G+G+G+G+G+G+G+I ( D D D D D D D D D D j D j D D j D D j D D D D D D D D D B h m 8 4 = G+G+G+G+G+G+G+G+G+G+G+G+G+G+G+G+G+G+G+G+G+G+G+G+G+G+G+G+I I H = h H H H I G+G+G+I I G+G+G+G+G+G+I I I G+G+G+G+G+G+G+G+G+G+G+G+m 8 8 8 j 8 8 8 8 8 A G+G+G+G+G+G+G+G+G+G+G+G+G+G+G+G+G+G+G+G+G+G+G+G+G+G+G+G+G+G+G+G+G+G+G+G+G+G+G+G+G+G+I I G+G+G+G+G+G+I I G+G+I I I I I G+G+G+G+G+G+G+G+G+G+G+I I I G+G+G+G+G+G+G+G+G+G+G+G+G+G+G+G+G+G+G+G+G+G+G+G+G+I H H I H H G+G+G+G+G+G+G+G+G+G+G+G+I m 8 8 8 8 8 8 8 8 8 8 8 8 8 8 8 8 8 8 8 8 8 8 8 8 8 8 4 = G+G+G+G+G+G+G+G+I G+G+G+G+G+G+G+G+G+= # 8 # I G+G+G+G+G+G+G+G+G+G+G+G+G+G+G+G+G+G+G+G+I H h = H H H G+G+G+G+G+G+I ",
"G+G+G+G+G+G+G+I I I G+G+G+G+G+G+G+G+G+G+G+G+G+G+G+G+G+G+G+G+G+G+G+G+G+I H H H H H I G+G+G+G+G+G+G+G+G+G+G+G+G+I I G+G+G+G+G+G+I ( D D D D D D D D D D D D j j D D D D D D D D D D D D D D j 4 8 + G+G+G+G+G+G+G+G+G+G+G+G+G+G+G+G+G+G+G+G+G+G+G+G+G+G+G+G+G+I I H h h = H I G+G+G+G+G+I I G+G+G+G+G+I I I G+G+G+G+G+G+G+G+G+G+I ( 8 8 j j j j j j 8 ( I G+G+G+G+G+G+G+G+G+G+G+G+G+G+G+G+I G+G+G+G+G+G+G+G+G+G+G+G+G+G+G+G+G+G+G+G+G+G+G+G+G+I I G+G+G+G+G+G+G+G+G+G+G+I G+I I I G+G+G+G+G+G+G+I I I I I I G+G+G+G+G+G+G+G+G+G+G+G+G+G+G+G+G+G+G+G+G+G+G+G+G+I H H H H H G+G+G+G+G+G+G+G+G+G+G+I m 8 8 j 8 8 8 8 8 8 8 8 8 8 8 8 8 8 8 8 8 8 8 8 8 8 8 j h G+G+G+G+G+G+G+G+G+G+G+G+G+G+G+G+G+G+G+G+= # 8 # = G+G+G+G+G+G+G+I I G+G+G+G+G+G+G+G+G+G+I = h h H H H G+G+G+G+G+G+I ",
"G+G+G+G+I I H I I I G+G+G+G+G+G+G+G+G+G+G+G+G+G+G+G+G+G+G+G+G+G+G+G+G+I H H H H H I G+G+G+G+G+G+G+G+G+G+G+G+G+G+G+G+G+G+G+G+G+G+= B D D D D D D D D D D D D D D D j D D D D D D D D D D D 4 8 4 I G+G+G+G+G+G+G+G+G+G+G+G+G+G+G+G+G+G+I I G+G+I G+G+G+G+G+I I I H h h = H I I G+G+G+G+G+G+I G+G+G+G+I I I G+G+G+G+G+G+G+G+G+= i 8 j j j j j j j 8 A I I I G+G+G+G+G+G+G+G+G+G+G+G+G+G+I I I G+G+G+G+G+G+G+G+G+G+G+G+G+G+G+G+G+G+G+I G+G+G+G+I I G+G+G+G+G+G+G+G+G+G+G+G+G+G+I I G+G+G+G+G+G+G+I H H I I G+G+G+G+G+G+G+G+G+G+G+G+G+G+I G+G+G+G+G+G+G+G+G+G+G+I H H H H I G+G+G+G+G+G+G+G+G+G+I ( 8 8 8 j j 8 8 8 j 8 8 8 8 8 8 8 8 8 8 8 8 8 8 8 8 8 j h G+G+G+G+G+G+G+G+G+G+G+G+G+G+G+I G+G+G+G+G+G+I # 8 # = G+G+G+G+G+G+I I I G+I I G+G+G+G+G+G+I = + = H H = I G+G+G+G+G+G+",
"G+G+G+G+I H = I I I G+G+G+G+G+G+G+G+G+G+G+G+G+G+I G+G+I G+G+G+G+G+G+G+I H H H H H I G+G+G+G+G+G+G+G+G+G+G+G+G+G+G+G+G+G+G+G+G+G+G+= B j D D D D D D D D D D D D D D D D D D D D D D D D 4 4 4 j B h G+G+G+G+G+G+G+G+G+G+= I G+G+G+G+G+I H I I H G+G+G+G+G+I I H H h h h H H I G+G+G+G+G+G+G+G+G+G+G+I I G+I = G+G+G+G+G+G+m D j j j j j j j j 8 m G+G+I H H I G+G+I I I I I I I I I I H H H I I I I G+G+G+G+G+G+G+G+G+G+G+G+G+G+G+I I G+G+G+I I G+G+G+G+G+G+G+G+G+G+G+G+G+G+G+I I G+G+G+G+G+I I H I I I G+G+G+G+G+G+G+G+G+G+G+G+G+G+I I G+I G+G+G+G+G+G+G+G+I H H H H I G+G+G+G+G+G+G+G+G+I ( 8 j 8 j 8 8 8 8 8 8 8 8 8 j 8 8 8 8 8 8 8 8 8 8 8 8 8 G G+G+G+G+G+I I I I G+G+G+G+G+I H I G+G+G+G+G+G+G+I ( 8 # = G+G+G+G+G+G+H I G+H I G+G+G+G+G+I I = h = H = = I G+G+G+G+G+G+",
"G+G+G+G+I I H I I G+G+G+G+G+G+G+G+G+G+G+G+G+G+G+H G+G+I I G+G+G+G+G+G+I H H H H H I G+G+G+G+G+G+G+G+G+G+G+G+G+G+G+G+G+G+G+G+G+G+G+G+h B D D D D D D D D D D D D D D D D D D D B B B B 4 4 4 j B D B m I G+G+G+G+G+G+G+I 4 # I G+G+G+G+I = I I H I G+G+G+G+I I H = h + h H H I G+G+G+G+G+I G+G+G+G+G+G+G+I . 8 + G+G+G+I ( j j j j D j j j j j m G+G+I H + + = G+I H H H H H H I I I I H H H H H H H I G+G+G+G+G+G+G+G+G+G+G+G+G+G+I I G+G+G+G+G+G+G+G+G+G+G+G+G+G+G+G+G+G+G+G+I I I G+G+G+G+G+I I I I G+G+G+G+G+G+G+G+G+G+G+G+G+G+G+I I G+I I G+G+G+G+G+G+G+I H H H H I G+G+G+G+G+G+G+G+H B 8 j j j j 8 j j j j j j j 8 8 j 8 j j 8 8 8 8 j 8 8 8 m I I I G+G+I H h h = I I G+I H = = H I I I I G+G+G+G+I . 8 4 h G+G+G+G+I H I I H I G+G+G+G+I I I h + h H = h I G+G+G+G+G+G+",
"G+G+G+G+G+I I I I G+G+G+G+G+G+G+G+G+G+G+I G+G+I I I G+I I G+G+G+G+G+G+I H H H H H I G+G+G+G+G+G+G+G+G+G+G+G+G+G+G+G+G+G+G+G+G+G+G+G+G+h D D D D D D D D D D D D D D D D D D D D B B B 4 4 4 B B B D D i h I G+G+G+G+G+m 8 # I G+G+G+G+I = I I H I G+G+G+G+I I H = h h H H I I G+G+G+G+G+I G+G+G+G+G+G+G+G+m 8 4 = G+m B j D D D D j j D j j m G+G+G+I h h + h I I h h h h h H H H H H H H H H H H H I G+G+G+G+G+G+G+G+G+G+G+G+G+G+I I G+G+G+G+G+G+G+G+G+G+G+G+G+G+G+G+G+G+G+G+I I I G+G+G+I G+G+I I I G+G+G+G+G+G+G+G+G+G+G+G+I G+I H G+G+I I G+G+G+= . = G+I H H H H I G+G+G+G+G+G+G+= B 8 j j j j j j j j j j j 8 j j j j 8 j j j 8 8 j j 8 8 m H H H H I G+H h + * + h H H H + + h H H H H H H I G+G+G+G+. 8 4 + G+G+G+I H I I H I G+G+G+G+I I I = h h H H H G+G+G+G+G+I I ",
"G+G+G+I G+G+I I G+G+G+G+G+G+G+G+G+G+G+G+I G+G+I H G+G+I I G+G+G+G+G+G+I H H H I I I G+G+G+G+G+G+G+G+G+G+G+G+G+G+G+G+G+G+G+G+G+G+G+G+G+G+h B D D D D D D D D D D D D D D D D D D D B 4 4 4 B B B B B B D B A h G+G+G+I 4 8 = G+G+G+G+G+I = I I I G+G+G+G+G+I I H H H = H I I G+G+G+G+G+I I G+G+G+G+G+G+G+G+G+. 8 # i D D j D D D D D D D B = G+G+G+G+G+H H H H I I H = = H I I I I I I I I I I G+G+G+G+G+G+G+G+G+G+G+G+G+G+G+G+G+G+I I G+G+G+G+G+G+G+G+G+G+G+G+G+G+G+G+G+G+G+G+G+I G+G+G+I I I G+I I G+G+G+G+G+G+G+G+G+G+G+G+G+G+G+I H I G+I I G+G+G+. 8 . G+H H H I I I G+G+G+G+G+G+h j 8 j j j j j j j j j j j j j j j j j j j j j j j j 8 8 m G+I H H H G+I H H h * * h H H H h + + h H H H H H I G+G+G+G+G+. 8 j m G+G+G+I I I I I G+G+G+G+G+G+G+I H H I I I G+G+G+I H H I ",
"G+G+I G+G+G+I I I G+G+G+G+G+G+G+G+G+G+G+G+G+G+I H I G+I G+G+G+G+G+G+G+I H H H I I I G+G+G+G+G+G+G+G+G+G+G+G+G+G+G+G+G+G+G+G+G+G+G+G+G+G+G+m D D D D D D D D D D D D D D D D D D D 4 4 4 B B B i i i B B B B B m I G+. 8 . G+G+G+G+G+G+I I I I I I I G+G+G+G+I I I I I I G+G+G+G+G+I I H H I G+G+G+G+G+G+G+G+h j j j D D D D D j D j D ( I G+G+G+G+G+G+G+I H H H H I I I G+G+G+G+G+G+G+G+G+G+G+G+G+G+G+G+G+G+G+G+G+G+G+G+G+G+G+G+G+G+I G+G+G+I I G+G+G+G+G+G+G+G+G+G+G+G+G+G+G+G+G+G+G+G+I I G+G+G+I G+I I G+G+G+G+G+G+G+G+G+G+G+G+G+H I G+G+G+G+G+G+= 4 8 h I H I I I G+G+G+G+G+I m j 8 j j j j j j j j j j j j j j j j j j j j j j j j 8 j m G+G+G+G+I G+G+G+I G+I = = I I I I I H H I I G+I I G+G+G+G+G+G+G+G+m 8 8 m I G+G+G+I I I G+G+G+G+G+G+G+G+G+G+G+G+I G+G+G+I H H I ",
"G+G+I G+G+G+G+I I I I G+G+G+G+G+G+G+G+G+G+G+G+I H I G+G+G+G+G+G+G+G+G+I H H I I G+G+G+G+G+G+G+G+G+G+G+G+G+G+G+G+G+G+G+G+G+G+G+G+G+G+G+G+G+G+G B D D D D D D D D D D D D D D D D j 4 4 4 i i B B i i i B B i B B C ( 4 4 I G+G+G+G+G+I G+G+I G+I I I G+G+G+G+I G+G+G+G+G+G+G+I G+G+G+I I I I G+G+G+G+G+I h ( D j 4 4 4 D D D D D j D m I G+G+G+G+G+G+G+G+G+I H I I = = H H H I I G+G+G+G+G+G+G+G+G+G+G+G+G+G+G+G+G+G+G+G+G+G+G+G+G+G+I G+G+I I H I G+G+G+I I H I G+G+G+G+G+G+G+G+G+G+G+G+I G+G+G+I I G+I = I I I G+G+G+G+G+G+G+G+G+G+I I G+G+G+G+G+G+G+m 8 ( I I I G+G+G+G+G+G+I A 8 8 j j j j j j j j j j j j j j j j j j j j j j j j 8 8 m G+G+G+G+G+G+G+G+G+G+G+G+G+G+G+G+G+G+G+G+G+G+G+G+G+G+G+G+G+G+G+G+G+G+G+m 8 8 . I G+G+I I I I G+G+G+G+G+G+G+G+G+G+G+I G+G+G+G+I I I ",
"I I I I G+G+I G+I H H I I G+G+G+G+G+G+G+G+G+G+I I G+G+G+G+G+G+G+G+G+G+G+G+I G+G+G+G+G+G+G+G+I I G+G+G+G+G+G+G+G+G+G+G+G+G+G+G+G+G+G+G+G+G+G+G+m D D D D D D D D D D D D D D D D j 4 4 D D B B i i i i B i i i B B j 8 ( h I G+G+G+G+G+I G+G+G+G+I I I G+G+G+G+G+G+G+G+G+G+I I I G+G+G+I I G+G+G+G+H G B j D D D j 4 4 j D D D j ( h G+G+G+G+G+G+G+G+G+G+G+I = h h * * * * * * = I G+G+G+G+I I I I I I I I I I G+G+G+G+G+G+G+G+G+G+I I G+G+I H H I G+G+G+H H H H I G+G+G+G+G+G+G+G+G+I H H I I G+I I I H H I I I G+G+G+G+G+G+G+G+G+G+G+G+G+G+G+G+G+G+G+I 4 8 + G+G+G+G+G+G+G+= B 8 j j j j j j j j j j j j j j j j j j j j j j j j j 8 j m G+G+G+G+G+G+G+G+G+G+G+G+I I I I G+G+G+G+G+G+G+G+G+G+G+G+G+G+G+G+G+G+G+G+I + 4 8 . I G+G+I I I G+G+G+G+G+G+G+G+G+G+G+I I G+G+G+I H I ",
"I H H I I G+I I I H H I G+G+G+G+G+G+G+G+G+G+G+G+G+G+G+G+G+G+G+G+G+G+G+G+G+G+G+G+G+G+G+G+G+G+G+G+G+G+G+G+G+G+G+G+G+G+G+G+G+G+G+G+G+G+G+G+G+G+G+G+m D D D D D D D D D D D D D D 4 4 4 D D D D B i i i i i i i i i # 4 4 B i ( m h I G+G+G+G+G+G+G+G+G+G+G+G+G+G+G+G+G+G+G+G+I I G+G+G+G+I I I H m A B D D D D D D B 4 4 4 D D B m I G+G+G+G+G+G+G+G+G+G+G+I H = + h h + * * * * h I G+G+G+G+I H H I I I I I I G+G+G+G+G+G+G+G+G+G+G+I H G+G+I H H I G+G+G+H H H H I G+G+G+G+G+G+G+G+I I H H H H I I I G+I H I G+G+G+G+I H H I G+G+G+G+G+G+G+G+G+G+G+G+G+G+m 8 # G+G+G+G+G+G+G D 8 j j j j j j j j j j j j j j j j j j j j j j j j j j 8 m G+G+G+G+G+G+G+G+I I G+I I H h h H H I G+G+G+G+I H I I I I H I I H I I G+G+I G+h # 8 . I G+G+G+I G+G+G+G+G+G+G+G+G+G+G+I I G+G+G+I = H ",
"I H h H H I I G+G+I I G+G+G+G+G+H H H G+G+G+G+G+G+G+G+G+G+G+G+G+G+G+G+G+G+G+G+G+G+G+G+G+G+G+G+G+G+G+G+G+G+G+G+G+G+G+G+G+G+G+G+G+G+G+G+G+G+G+G+G+G+G D D B B D B D D D D D D 4 4 4 j D D D D D B i i i i i i i i 4 4 B i i i i i i m h = I I G+G+G+G+G+G+G+G+G+G+G+G+G+G+G+G+I G+G+I H h m A B D D D B B B B B B B D 4 4 j A = G+G+G+G+G+G+G+G+G+G+G+G+G+I I I H H I I I H H H H I G+G+G+G+G+G+G+G+G+G+G+G+G+G+G+G+G+G+G+G+G+G+G+I H H G+G+I H H I G+G+G+I H H I G+G+G+G+G+G+G+G+I H H H H h H H I I G+G+G+G+G+G+G+G+H h h I G+I G+G+G+G+G+G+G+G+G+G+G+G+G+# 8 m G+G+G+I m j j j j j j j j j j j j j j j j j j j j j j j j j j j j j m G+G+G+G+G+G+G+G+I H H I I I H + * h H H G+G+G+G+I H H I I H H I I I I G+G+G+I G+G+= # 8 ( = G+G+I G+G+G+G+G+G+G+G+G+G+G+I G+G+G+G+I I I ",
"h H H h h H I G+G+G+G+G+G+G+G+I h h H G+G+G+G+G+G+G+G+G+G+G+G+G+G+G+G+G+G+G+G+G+G+G+G+G+G+G+G+G+G+G+G+G+G+G+G+G+I I I G+G+G+G+G+G+G+G+G+G+G+G+G+G+G+G B D B D D D D B B D D 4 4 4 D B B D D D D D B B i i i i 4 4 # i i i i i i i i i i A m m G h h H I I I G+G+G+I I I H h h G m A i B B i B B B B i B B B B B B D D j j + G+G+G+G+G+G+G+G+G+G+G+G+G+G+G+G+G+G+G+G+G+G+G+G+G+G+G+G+G+G+G+G+G+G+G+G+G+G+G+G+G+G+G+G+I G+G+G+G+G+I H H G+G+I I H G+G+G+G+G+I G+G+G+G+G+G+G+G+G+G+H H h h H H h = I G+G+G+G+G+G+G+G+I h h h H G+I I G+G+G+G+G+G+G+G+G+G+G+G++ 8 # I G+= ( j j j j j j j j j j j j j j j j j j j j j j j j j j j j j m G+G+G+G+G+G+G+G+G+I H H I G+G+I = * * H I G+G+G+G+G+I I G+G+G+G+G+G+G+G+G+G+G+I G+G+G+= # 8 # = G+G+I I I I I G+G+G+G+G+G+I G+G+G+G+I I G+",
"H H H H h H I I G+G+G+G+G+G+G+I h h h I G+I I G+G+G+G+G+G+G+G+G+G+G+G+G+G+G+G+G+G+G+G+G+G+G+G+G+G+G+G+G+G+G+G+G+I I I G+G+G+G+G+G+G+G+G+G+G+G+G+G+G+I G B D D B D B D B D 4 4 4 D B D D D D D B B D D D i i i 4 4 i i i i i i i i i i i i i B i i i C A A A A m A A A A C i i i D B i i i B B i B i i i i i B D B A h m 8 4 = G+G+G+G+G+G+G+G+G+G+G+G+G+G+G+G+G+G+G+G+G+G+G+G+G+G+G+G+G+G+G+G+G+G+G+G+G+G+G+G+G+G+G+G+G+G+G+G+G+I H H G+G+I I H G+G+G+G+G+G+G+G+G+G+G+G+G+G+G+G+I H H H H H h = I I G+G+G+G+G+G+G+G+H h h H I I I G+G+G+G+G+G+G+G+G+G+G+G+G+( 8 . h B j j j j j j j j j j j j j j j j j j j j j j j j j j j 8 j m G+G+G+I G+G+G+G+I G+I I I G+G+G+I H = = I G+G+G+G+G+G+G+G+G+G+G+G+G+G+G+G+G+G+G+I G+G+G+G+= # 8 ( H H H h h h I G+G+G+G+G+G+G+G+G+G+G+G+G+G+",
"H H H h + H I I I G+G+G+G+G+G+I h h h H I I I G+G+G+G+G+G+G+G+G+G+G+G+G+G+G+G+G+G+G+G+G+G+G+G+G+G+G+G+G+G+G+G+G+G+G+G+G+G+G+G+G+G+G+G+G+G+G+G+G+G+I I I h i D B B B B D 4 4 4 B D B B D B B D D B D D B B B # 4 4 i i i i i i i i i i i i i i i i i i i i i i i i B i i i i i i i i i i i B i B i i i i i i i m = G+G+G+. 8 # I G+G+G+G+G+G+G+G+G+G+G+G+G+G+G+G+G+G+G+G+G+G+G+G+G+G+G+G+G+G+G+G+G+G+G+G+G+G+G+G+G+G+G+G+G+G+G+G+G+G+I G+G+I H H G+G+G+G+I I G+G+G+G+G+G+G+G+G+G+G+I H H H h h H I I G+G+G+G+G+G+G+G+H h h = I I I G+G+G+G+G+G+I I I I G+G+G+= 4 4 j j j j j j j j j j j j j j j j j j j j j j j j j j j j j j h G+G+G+I I I I G+I I I I I I G+I I I I I G+G+G+G+G+G+G+G+G+G+G+G+G+G+G+G+G+G+G+G+G+G+G+G+G+G+G+I . h I H I H = H I G+G+G+G+G+G+G+G+G+I I I I G+",
"H H h * * H I I I I G+G+G+G+G+I h * * = H H I G+G+G+G+G+I I H H I G+G+G+G+G+G+G+G+G+G+G+G+G+G+G+G+G+G+G+G+G+G+G+G+G+G+G+G+G+G+G+G+G+G+G+G+G+G+G+G+I I I I h i D B B B D 4 4 4 B B B B D B B D D B B B D D D 4 4 B i i i i i i i i i i i i i i i i i i i i i i i i i i i i i i i i i B i i i i i i B i i A m h I G+G+G+G+I # 8 . G+G+G+G+G+G+G+G+G+G+G+G+G+G+G+G+G+G+G+G+G+G+G+G+G+G+G+G+G+G+G+G+G+G+G+G+G+G+G+G+G+G+G+G+G+G+G+G+G+G+G+G+G+I H H G+G+G+I H H G+G+G+G+G+G+G+G+G+G+G+G+H H h h * = I I I I I G+G+G+G+G+h + * h I H I I G+G+G+G+I H = H H H G+G+h j 4 j D j D j j D D j j j j j j j j j j j j j j j j j j j j j h G+G+G+G+I I I I I I I I I I I I I H H H I G+G+G+G+G+G+G+G+G+G+G+G+G+G+G+G+G+G+G+G+G+G+G+G+G+G+G+G+G+G+G+G+G+G+G+G+G+G+G+G+G+G+G+G+G+I H H H H I ",
"H H h @ m I I I I I G+G+G+G+G+I h * * H H H I I G+G+G+G+I = h = H H G+G+G+G+G+G+G+G+G+G+G+G+G+G+G+G+G+G+G+G+G+G+G+G+G+G+G+G+G+G+G+G+G+G+G+G+G+G+G+I I I G+G+= A D B B 4 4 4 B B B B B B B D B D B B D D B 4 4 4 D D B i i i i i i i i i i i i i i i i i i i i i i i i i i i i i i i i i i i i i i C m h H H I G+G+G+G+G+G+= 4 8 + G+I G+G+G+G+G+G+G+G+G+G+G+G+G+G+G+G+G+G+G+G+G+G+G+G+G+G+G+G+G+G+G+G+G+G+G+G+G+G+G+G+G+G+G+G+G+G+G+G+G+G+I H H I G+G+I I I G+G+G+G+G+G+G+G+G+G+G+G+G+I h * . h I I H I I G+G+G+G+G+H h * = H H H I G+G+G+G+G+H H I I I = A j j 4 4 j D D j D j j j D D j j j j j j j j D j j j D j j j B h G+G+G+G+G+I I I I G+I G+G+G+I I I I I I I G+G+G+G+G+G+G+G+G+G+G+G+G+G+G+G+G+G+G+G+G+G+G+G+G+G+G+G+G+G+G+G+G+G+G+G+G+G+G+G+G+G+G+G+G+G+I I H H H I ",
"G+H h * * I G+I I G+G+G+G+G+G+G+H H H I I I I I G+G+G+G+G+I I I I G+G+G+G+G+G+G+G+G+G+G+I I I G+G+G+G+G+G+G+G+G+G+I G+G+G+G+G+G+G+G+G+G+G+G+G+G+G+G+G+G+G+G+G+H A B 4 4 4 B B B B B B B B B B B B D B B 4 4 4 B B B B D D B i i i i i i i i i i i i i i i i i i i i i i i i i i i i i i i A m m h I G+G+I I I G+G+G+G+G+G+G++ 8 4 h I I G+G+G+G+G+G+G+G+G+G+G+G+G+G+G+G+G+G+G+G+G+G+G+G+G+G+G+G+G+G+G+G+G+G+G+G+G+G+G+G+G+G+G+G+G+G+G+G+G+I H H I G+G+G+G+G+G+G+G+I I G+G+G+G+G+G+G+G+G+H h * h I G+I I G+G+G+G+G+G+H H H I I I I I G+G+G+G+G+G+G+G+I G B D D D j 4 j D D j D D j D D j j j D j j j j j j D j D j j j ( = G+I I I I G+G+G+G+G+G+G+G+G+G+G+G+G+G+G+G+G+G+G+G+G+G+G+G+G+G+G+G+G+G+G+G+G+G+G+G+G+G+G+G+G+G+G+G+G+G+G+G+G+G+G+G+G+G+G+G+G+G+G+G+G+G+G+I I I I I I ",
"G+I = + + I G+G+G+G+G+G+G+G+G+G+H H I G+G+I I I G+G+G+G+G+G+G+G+G+G+G+G+G+G+G+G+G+G+G+H H H H H I G+G+G+G+G+G+G+I H I G+G+G+G+G+G+G+G+G+I I H I G+G+G+G+G+G+G+G+I ( 8 4 4 B B B B B B B B B B B B B B B 4 4 4 B B B B B B B B B B B C A A A i i i i i i i i i i i i i i i i i i i A A m G H I G+G+G+G+G+G+I G+G+G+G+G+G+G+G+G+. # = I G+G+G+G+G+G+G+G+G+G+G+G+G+G+G+G+G+G+G+G+G+G+G+G+G+G+G+G+G+G+G+G+G+G+G+G+G+G+G+G+G+G+G+G+G+G+G+G+G+G+G+H H H G+G+G+G+G+G+G+G+I H I G+G+G+G+G+G+G+G+I H + = G+G+G+G+G+G+G+G+G+G+I H I G+G+G+I I G+G+G+G+G+G+G+= A D D D D D j 4 4 j D j D D D j D D j j D j D D D D j j j j j j ( H G+G+H H H = I G+G+G+G+G+G+G+G+G+G+G+G+G+G+G+G+G+G+G+G+G+G+G+G+G+G+G+G+G+G+G+G+G+G+G+G+G+G+G+G+G+G+G+G+G+G+G+G+G+G+G+G+G+G+G+G+G+G+G+G+G+G+I H I I I H ",
"G+G+I H h H G+G+G+G+G+G+G+G+G+G+I I G+G+G+G+I I G+G+G+G+I I I I G+G+G+G+G+G+G+G+G+G+I H H H H H H G+G+G+G+G+G+G+I I H G+G+G+G+G+G+G+G+G+I I h h I I I G+G+G+G+G+I # 8 # i B i i B i B B i B i B B B B 4 4 4 B B B B B B B B B B B B B B G I H h h G m m m m m m m m m m G G h h H H H I I G+G+G+G+G+G+G+G+I I G+G+G+G+G+G+G+G+I I G+G+G+G+G+G+G+G+G+G+G+G+G+G+G+G+G+G+G+G+G+G+G+G+G+G+G+G+G+G+G+G+G+G+G+G+G+G+G+G+G+G+G+G+G+G+G+G+G+G+G+G+I I H H I G+G+G+G+G+I H h = I G+G+G+G+I I G+G+G+I = = I G+G+G+G+G+G+G+G+G+G+I G+G+G+G+G+I G+G+G+G+G+h m B j D D D D D D j 4 j D D D D D D D D D j j j j D D D D D j j j m I G+G+G+G+I = + H I I G+G+G+G+G+G+G+G+G+G+G+G+G+G+G+G+G+G+G+G+G+G+G+G+G+G+G+G+G+G+G+G+G+G+G+G+G+G+G+G+G+G+G+G+G+G+G+G+G+G+G+G+G+G+G+G+G+G+G+G+I I I I I I ",
"G+G+G+I = H G+G+G+G+G+G+G+G+G+G+G+G+G+G+G+G+G+I G+G+G+G+I = = H I G+G+G+G+G+G+G+G+G+I H H H H H H I G+G+G+G+G+G+G+I I G+G+G+G+G+G+G+G+G+G+I h h I I I I G+I G+I ( 8 # G i B B i B B i B B B B i i B B 4 4 B B B i B i B B B B B B B B B B A = G+G+G+G+G+G+G+G+G+G+G+G+G+G+G+G+I I I I I I G+G+G+G+G+G+G+I = H G+G+G+G+G+G+G+I I G+G+G+G+G+G+G+G+G+G+G+G+G+G+G+G+G+G+G+G+G+G+G+G+G+G+G+G+G+G+G+G+G+G+G+G+G+G+G+G+G+G+G+G+G+G+G+G+G+G+G+G+G+I I I H I G+G+I H H H = h = I G+G+G+G+G+G+G+G+G+G+I H G+G+G+G+G+G+G+G+G+G+G+G+G+G+G+G+G+I G+G+G+I G B j D j D j D D D D D 4 4 j D D D D D D j j D D D D D D j D D D D m G+G+G+G+G+G+I = h H I I I I I I I I I I I I I I I G+G+G+G+G+G+G+G+G+G+G+G+G+G+G+G+G+G+G+G+G+G+G+G+G+G+G+G+G+G+G+G+G+G+G+G+G+G+G+G+G+G+G+G+G+G+G+G+I I I G+G+",
"G+G+G+I H I G+G+G+G+G+G+G+G+G+G+G+G+G+G+G+G+G+I G+G+G+G+I I I I I G+G+G+G+G+G+G+G+G+I H H H H H I G+G+G+G+G+G+G+G+I I G+G+G+G+G+G+G+G+G+G+G+I I I I I I I I G+m 8 4 = G+h A D B B i i i B i i i B B 4 4 4 B B B B i B i i B B i B B B B B D i m I G+G+G+G+G+G+G+G+G+G+G+G+G+G+G+G+I G+G+G+G+G+G+G+G+G+I = h H G+G+G+G+G+I I I I I G+G+G+G+G+G+G+G+G+G+G+G+G+G+G+G+G+G+G+G+G+G+G+G+G+G+G+G+G+G+G+G+G+G+G+G+G+G+G+G+G+G+G+G+G+G+G+G+G+G+G+G+I H H I I G+I H h h = = H I G+G+G+G+G+G+G+G+G+G+I I I G+G+G+G+G+G+G+G+G+G+G+G+G+G+G+G+G+I G+G+= A D j j j j j j D D D D D j 4 4 j D D D j D D D D D D D D D D D D B h G+G+G+G+G+G+G+I I I I I I I I I I I I I I I I I I I G+G+G+G+G+G+G+G+G+G+G+G+G+G+G+G+G+G+G+G+G+G+G+G+G+G+G+G+G+G+G+G+G+G+G+G+G+G+G+G+G+G+G+G+G+G+G+G+G+G+G+G+G+",
"G+G+G+I I I G+G+G+G+G+G+G+G+G+G+G+G+G+G+G+G+G+I G+G+G+G+G+G+G+G+G+G+G+G+G+G+G+G+G+G+G+H H H H I I G+G+G+G+G+G+G+G+I I G+G+G+G+G+G+G+G+G+I I G+G+G+G+I I I G+= 4 8 * G+I I H A B i B i i i i i B B B 4 4 B i i B B B B i B B B B B B B B B B D i B m I G+G+G+G+G+G+G+G+G+G+G+G+G+G+G+G+G+G+G+G+G+G+G+G+I H = H G+G+G+G+G+G+I I G+G+G+G+G+G+G+G+G+G+G+G+G+G+G+G+G+G+G+G+G+G+G+G+G+G+G+G+G+G+G+G+G+G+G+G+G+G+G+G+G+G+G+G+G+G+G+G+G+G+I I G+G+I H H I G+G+I H h h = H I I G+G+G+G+G+G+G+G+G+G+I I I G+G+G+G+G+G+G+G+G+G+G+G+G+G+G+G+G+G+H m D j j D D D D D D D j D D D j 4 4 j D j D D j D j D D j D D j D j i = G+G+G+G+G+G+G+I I G+G+G+I I I I I I G+G+G+I I I I I I G+G+G+G+G+G+G+G+G+G+G+G+G+G+G+G+G+G+G+G+G+G+G+G+G+G+G+G+G+G+G+G+G+G+G+G+G+G+G+G+G+G+G+G+G+G+G+G+G+G+G+G+G+",
"G+G+G+I I I G+G+G+G+G+G+G+G+G+G+G+G+G+G+G+G+G+G+G+G+G+G+G+G+G+G+G+G+G+G+G+G+G+G+G+G+G+G+I I I G+G+G+G+G+G+G+G+G+I H I G+G+G+G+G+G+G+G+G+I I I G+G+G+G+I G+I # 8 . G+G+G+G+G+I m B i i i i B B B i 4 4 4 B i i B i B i B i i B B i B i i i B i i B D ( G I G+G+G+G+G+G+G+G+G+G+G+G+G+G+G+G+G+G+G+G+G+G+G+I I G+G+G+G+G+G+G+G+G+G+G+G+G+G+G+G+G+G+G+G+G+G+G+G+G+G+G+G+G+G+G+G+G+G+G+G+G+G+G+G+G+G+G+G+G+G+G+G+G+G+G+G+G+G+G+G+G+G+G+I I G+G+I H H H G+G+I H H I I I I I G+G+G+G+G+G+G+G+G+G+I I I G+G+G+G+G+G+G+G+G+G+G+G+G+G+G+G+H m B j D D D j j D j j D j D j j D D j 4 4 j D D j D j D j j D j D j j A I G+G+G+G+G+G+G+G+I G+I G+G+G+I I G+G+G+G+G+G+G+G+G+G+G+G+G+G+G+G+G+G+G+G+G+G+G+G+G+G+G+G+G+G+G+G+G+G+G+G+G+G+G+G+G+G+G+G+G+G+G+G+G+G+G+G+G+G+G+G+G+G+G+G+G+G+G+G+G+",
"G+G+G+I I I G+G+G+G+G+I I G+G+G+G+G+G+G+G+G+G+G+G+G+G+G+G+G+G+G+G+G+G+G+G+G+G+G+G+G+G+G+G+G+G+G+G+G+G+G+G+G+G+G+G+I I G+G+G+G+G+G+G+G+G+G+G+G+G+G+G+I G+G+m 8 # I G+G+G+G+G+G+I h i i i i B i B # 4 4 i i i B B i B i B B B i i i i B i i i B i i i B B A h I G+G+G+G+G+G+G+G+G+G+G+G+G+G+G+G+G+G+G+G+G+G+G+G+G+G+G+G+G+G+G+G+G+G+G+G+G+G+G+G+G+G+G+G+G+G+G+G+G+G+G+G+G+G+G+G+G+G+G+G+G+G+G+G+G+G+G+G+G+G+G+G+G+G+G+G+G+G+G+G+G+G+I I G+G+G+H H I G+G+G+I H G+G+I I I G+G+G+G+G+G+G+G+G+G+I I G+G+G+G+G+G+H H I G+G+G+G+G+G+I m B D D D D D D D D D D D D D D D D D D D j 4 j D j j D D D D D D D j D m = G+G+G+G+G+G+G+G+G+G+G+G+G+G+G+G+I G+G+G+G+G+G+G+G+I I I G+G+G+G+G+G+G+G+G+G+G+G+G+G+G+G+G+G+G+G+G+G+G+G+G+G+G+G+G+G+G+G+G+G+G+G+G+G+G+G+G+G+G+G+G+G+G+G+G+G+G+G+G+G+",
"G+G+I I I I G+G+G+G+I H H I G+G+G+G+G+G+G+G+I I G+G+G+G+G+I G+G+G+G+G+G+G+G+G+G+G+G+G+G+G+G+G+G+G+G+G+G+G+G+G+G+G+G+G+G+G+G+G+G+G+G+G+G+G+G+G+G+G+G+G+I h 8 4 h G+G+G+G+I I I G+G+H A B B i i i 4 4 B B i i i B i B i i i B B B B i B B B i i i i i B B i B A h I G+G+G+G+G+G+G+G+G+G+G+G+G+G+G+G+G+G+G+G+G+G+G+G+G+G+G+G+G+G+G+G+G+G+G+G+G+G+G+G+G+G+G+G+G+G+G+G+G+G+G+G+G+G+G+G+G+G+G+G+G+G+G+G+G+G+G+G+G+G+G+G+G+G+G+G+G+G+G+G+I I G+G+G+I I I G+I G+I I G+G+I I I I G+G+G+G+G+G+G+G+G+I I I G+I I G+I H H I G+G+G+I H m B D D D D D D D D D D D D D D D D D D D D D j 4 4 j D D D j D D j D j B = + 4 m G+G+G+G+G+G+G+G+G+G+G+G+G+G+G+G+I G+G+G+G+G+G+G+I I I I G+G+G+G+G+G+G+G+G+G+G+G+G+G+G+G+G+G+G+G+G+G+G+G+G+G+G+G+G+G+G+G+G+G+G+G+G+G+G+G+G+G+G+G+G+G+G+G+G+G+G+G+G+",
"G+G+I I H I I I I I I H H I G+G+G+I I G+G+G+I I G+G+G+G+G+I I G+G+I G+G+G+G+G+G+G+G+G+G+G+G+G+G+G+G+G+G+G+G+G+G+G+G+G+G+G+G+G+G+G+G+G+G+G+G+= I G+G+G+= # 8 m G+G+G+G+I I I I I G+G+I m B i i 4 4 # i B i i i B i i i i i i i i B B i B B i i i B B i B B B B i A h I G+G+G+G+G+G+G+G+G+G+G+G+G+G+G+G+G+G+G+G+G+G+G+G+G+G+G+G+G+G+G+G+G+G+G+G+G+G+G+G+G+G+G+G+G+G+G+G+G+G+G+G+G+G+G+G+G+G+G+G+G+G+G+G+G+G+G+G+G+G+G+G+G+G+G+G+G+G+I I G+G+G+I I G+G+I I I G+G+G+I I I G+G+G+G+G+G+G+G+G+I H h H I G+I I I H H I G+G+I m B D D D D D D D D D D D D D D D D D D D D D D D D j 4 4 D D D D D D D D m I G++ 8 8 m G+G+G+G+G+G+G+G+G+G+G+G+G+I G+G+G+G+G+G+G+I G+G+I I I G+G+G+G+G+G+G+G+G+G+G+G+G+G+G+G+G+G+G+G+G+G+G+G+G+G+G+G+G+G+G+G+G+G+G+G+G+G+G+G+G+G+G+G+G+G+G+G+G+G+G+G+G+",
"G+G+I h h H G+I I G+H H H I G+G+G+I I G+G+G+I I G+G+G+G+G+I I G+G+G+G+G+G+G+G+G+G+G+G+G+G+G+G+G+G+G+G+G+G+G+G+G+G+G+G+G+G+G+G+G+G+G+G+G+G+= # ( = G+I . 8 ( I G+G+G+I G+G+I I I G+G+G+G+h C B 4 4 B i i i B B i i i i i i i i i i B i i i i i i i B i i B i B i i B ( G I G+G+G+G+G+G+G+G+G+G+G+G+G+G+G+G+G+G+G+G+G+G+G+G+G+G+G+G+G+G+G+G+G+G+G+G+G+G+G+G+G+G+G+G+G+G+G+G+G+G+G+G+G+G+G+G+G+G+G+G+G+G+G+G+G+G+G+G+G+G+G+G+G+G+G+G+I I G+G+G+G+I G+G+I I I G+G+G+G+I I G+G+G+G+G+G+G+G+G+I h + = I G+G+G+I H I I = m B D j D D D D D D D D D D D D D D D D D D D D D D D D j 4 4 j D D D D D D m G+G+G+G++ j 8 m G+G+G+G+G+G+G+G+G+G+G+G+G+I G+G+G+G+G+G+I G+G+G+G+G+G+G+G+G+G+G+G+G+G+G+G+G+G+G+G+G+G+G+G+G+G+G+G+G+G+G+G+G+G+G+G+G+G+G+G+G+G+G+G+G+G+G+G+G+G+G+G+G+G+G+G+G+G+",
"G+G+H + + H G+G+G+G+H H H I G+G+G+G+G+G+G+G+I I G+G+G+G+G+I I G+G+G+G+G+G+G+G+G+G+G+G+G+G+G+G+G+G+G+G+G+G+G+G+G+G+G+G+G+G+G+G+G+G+G+G+G+G+= 4 8 4 m m 8 # = G+G+G+G+G+G+G+G+G+G+G+G+G+G+G+= # 8 4 i B B B i i i i B i i i i i B i B i i i i i i i i i i i i i B i B i i i m H G+G+G+G+G+G+G+G+G+G+G+G+G+G+G+G+G+G+G+G+G+G+G+G+G+G+G+G+G+G+G+G+G+G+G+G+G+G+G+G+G+G+G+G+G+G+G+G+G+G+G+G+G+G+G+G+G+G+G+G+G+G+G+G+G+G+G+G+G+G+G+G+G+G+I I G+G+G+G+G+G+G+I I I I G+G+G+G+G+G+G+G+G+G+G+G+G+G+I h + = I G+G+G+I h h A B D D D D D D D D D D D D D D D D D D D D D D D D D D D D D 4 4 4 D D D j ( = G+G+G+G+G+G++ 4 8 m G+G+G+G+G+G+G+G+G+G+G+G+G+G+G+G+G+G+G+G+G+I G+G+G+G+G+G+G+G+G+G+G+G+G+G+G+G+G+G+G+G+G+G+G+G+G+G+G+G+G+G+G+G+G+G+G+G+G+G+G+G+G+G+G+G+G+G+G+G+G+G+G+G+G+G+G+G+",
"G+G+H h = I G+G+G+G+H h H G+G+G+G+G+G+G+G+G+I I G+G+G+G+G+G+G+G+G+G+G+G+G+G+G+G+G+G+G+G+G+G+G+G+G+G+G+G+G+G+G+G+G+G+G+G+G+G+G+G+G+G+G+G+G+G+= ( 4 8 4 8 m G+G+G+G+G+G+G+I I I I G+G+G+G+G+= 4 4 i B B B B i i i i B i B B B i B i i i B i i i i i i i i i i i B i i B i i B i m h G+G+G+G+G+G+G+G+G+G+G+G+G+G+G+G+G+G+G+G+G+G+G+G+G+G+G+G+G+G+G+G+G+G+G+G+G+G+G+G+G+G+G+G+G+G+G+G+G+G+G+G+G+G+G+G+G+G+G+G+G+G+G+G+G+G+G+G+G+G+G+G+I I G+G+G+G+G+G+G+G+I I I = h G+G+G+G+G+G+G+G+G+G+G+G+G+I H I G+G+G+I G ( B j D D D D D D D D D D D D D D D D D D D D D D D D D D D D D D D 4 4 j D B m I G+G+G+G+G+G+G+G++ 4 m G+G+G+G+G+G+G+G+G+G+G+G+G+G+G+G+G+G+G+G+G+G+I I I G+G+G+G+G+G+G+G+G+G+G+G+G+G+G+G+G+G+G+G+G+G+G+G+G+G+G+G+G+G+G+G+G+G+G+G+G+G+G+G+G+G+G+G+G+G+G+G+G+G+G+G+G+",
"G+G+I I I G+G+G+G+G+I H I G+G+G+G+I G+G+G+G+G+I G+G+G+G+G+G+G+G+G+G+G+G+G+G+G+G+G+G+G+G+G+G+G+G+G+G+G+G+G+G+G+G+G+G+G+G+G+G+G+G+G+G+G+G+G+G+G+G+m 4 j 8 m I G+G+I G+I I I I I I I G+G+G+G+# 8 m = A i i i i B i i i i i i i i i i i i i B i i B i i i B i B i i i i i B i i i B B A G H G+G+G+G+G+G+G+G+G+G+I I I I I I I I I I I I G+G+G+G+G+G+G+G+G+G+G+G+G+G+G+G+G+G+G+G+G+G+G+G+G+G+G+G+G+G+G+G+G+G+G+G+G+G+G+G+G+G+G+G+G+G+G+I I G+G+G+G+G+G+G+G+I I H # 8 = G+G+G+G+G+G+G+G+G+G+G+G+I I G+G+= m B D j D D D D D D D D D D D D D D D D D D D D D D D D D D D D D D D D D j 4 j i h G+G+G+G+G+G+G+G+G+G+G+I G+G+G+G+G+G+G+G+G+G+G+G+G+G+G+G+G+G+G+I I I I I I I G+G+G+G+G+G+G+G+G+G+G+G+G+G+G+G+G+G+G+G+G+G+G+G+G+G+G+G+G+G+G+G+G+G+G+G+I I I I G+G+G+G+G+G+G+G+G+G+G+G+I ",
"G+I I I G+G+G+G+G+I G+G+G+G+G+G+G+G+G+G+G+G+I I G+G+G+G+G+G+G+G+G+G+G+G+G+G+G+G+G+G+G+G+G+G+G+G+G+G+G+G+G+G+G+G+G+G+G+G+G+G+G+G+G+G+G+G+G+G+G+G+m 8 4 4 8 # h G+G+I I I I I I I I G+G+G++ 8 # I G+I G i B B i B i i i i i B i i B B i i B i i i i i i i i B i i i i i i B B i i B i B C A h I G+G+G+G+G+I I = h = h h + h h h h H H H H H H I G+G+G+G+G+G+G+G+G+G+G+G+G+G+G+G+G+G+G+G+G+G+G+G+G+G+G+G+I I I H H I I G+G+G+G+G+G+G+I I G+G+G+G+G+G+G+G+G+I I ( 8 + G+G+G+G+G+G+G+G+G+G+G+G+I H G A B D D D D D D D B D D D B D D D D D D D D D D D D D D D D D D D D D D D D D j j 8 m G+G+G+G+G+G+G+G+G+G+G+G+G+G+G+G+G+G+G+I H H I I I I I I G+I I G+I I I I I I I G+G+G+G+G+G+G+G+G+G+G+G+G+G+G+G+G+G+G+G+G+G+G+G+G+G+G+G+G+G+G+I I G+G+I I I I I I G+G+G+G+G+G+G+I I G+G+I ",
"I I I G+G+G+G+G+G+G+G+G+G+G+G+G+G+G+G+G+G+G+I I G+G+G+G+G+I I I I I I I I G+G+G+G+G+G+G+G+G+G+G+G+G+G+G+G+G+G+G+G+G+I I G+G+G+G+I G+G+G+I H I * 4 j + h # 8 4 . I G+I G+G+I I I G+G+G+I # 8 + G+G+G+G+= A i i B i i i B i i i i i i i i i i B i B i i i B i i B i i B i i i B i i i i i i B A m h I I G+G+I H H H H H h h = h H H H H H I I G+G+G+G+G+G+G+G+G+G+G+G+G+G+G+G+G+G+G+G+G+G+G+G+G+G+G+G+G+I H H H H H H I G+G+G+G+G+G+G+I G+G+G+G+G+G+G+G+G+G+I . 8 m G+G+G+G+G+G+G+G+G+G+H G A i D D D B B B B B D D D B D D D D D D D D D D D D D D D D D D D D D D D D D D D D ( m 4 4 = G+G+G+G+G+G+G+G+G+I I I I H H H I H H h h h = H H I G+G+G+G+G+G+I I I I I I G+G+G+G+G+G+G+G+G+G+G+G+G+G+G+G+G+G+G+G+G+G+G+G+G+G+G+G+G+G+G+G+G+G+G+G+I I I I I G+G+G+G+G+G+G+G+G+G+G+G+",
"I I I G+G+G+G+G+I G+G+G+G+G+G+G+G+G+G+G+G+G+G+I I I I H H H H = h h h h H G+G+G+G+G+I I H I G+I H G+G+G+G+G+G+G+G+I # 4 + I H H H H H H = h * # 8 ( I G+I . j 8 m G+G+I I I I I I G+G+m 8 ( G+G+G+G+G+G+G+G C B i i i i i i i B i i i i i i i i i i B i i i i i i i i B B i i B i i i B i i i B B A m h H I G+G+G+G+G+I I I I I I G+G+G+G+G+G+G+G+G+G+G+G+G+G+G+G+G+G+G+G+G+G+G+G+G+G+G+G+I G+G+G+G+G+I H H H H H H H G+G+G+G+G+G+G+G+G+G+G+G+G+G+G+G+G+G+G+* 8 ( I G+G+G+G+G+G+I G m B D D D B B B B B B B B B B B D D B D D B B D D D D D D B D B D D D D D D D D D D j B m = I . 8 . G+G+G+G+G+G+G+G+G+I I I I H H H H H = h h h = H H I G+G+I I I I G+G+I I I I G+G+G+G+G+G+G+G+G+G+G+G+G+G+G+G+I I I I I G+G+G+G+G+G+G+G+G+G+G+G+G+G+G+G+G+G+G+G+G+G+G+G+G+G+G+G+G+G+G+G+",
"I I G+G+G+G+G+I H I G+G+G+I G+G+G+G+G+G+G+G+G+I I I H H = H H h h + + + = I G+I I I I G+I I G+G+I G+G+G+G+G+G+G+G+I ( 8 8 . H I H H H = h + # 8 # h H I I I * ( = I I I H H H H I G+= 4 8 = G+G+G+G+G+G+G+G+= m i i i B i i i i i B i i i i i i i i i i B B i i i B B i i B i B i B i i i i i B B i B i A m h H I G+G+G+G+I G+G+G+G+G+G+G+G+G+G+G+G+I G+G+G+G+G+G+G+G+G+G+G+G+G+G+G+G+G+I I H H H I I H = H H H H H H G+G+G+G+G+G+G+G+G+G+G+G+G+G+G+G+G+G+G+= 8 # H I I I = G A i D D B i B D B D B D B B D B B B D B D B D B B D B B B D B D D B B B B D B D D D D D D ( h G+G+G+= 4 4 = G+G+G+G+G+G+G+G+G+G+G+G+G+I I I I H = H I I I I I I I H H H H I I I H = H I G+G+G+G+G+G+G+G+G+G+G+G+G+G+G+I I I I I I I G+G+G+G+G+G+G+G+G+G+G+G+G+G+G+G+G+G+G+G+G+G+G+G+G+G+G+G+G+H ",
"I G+G+G+G+G+I h + h H I H H I I G+G+G+I I G+G+I G+G+I I I I I I = = h h H I I I I I I G+G+G+G+G+G+G+G+G+G+G+G+G+G+G+G+m 4 8 # h G+G+G+I I m 8 4 = I I I I I I = H H I I H = = H I G+. 8 . G+G+G+G+G+G+G+G+G+G+I h A i i i i i i i i i i i i B i i i i i i i i B i i i i i i B i i i i i i i i i i B i i B i i i A G h I I I G+G+G+G+G+G+G+G+G+G+G+G+I I G+G+G+G+G+G+G+G+G+G+G+G+G+G+I I I I I H H I G+H h H H H H H I G+G+G+G+G+G+G+G+G+G+G+G+G+G+G+G+G+G+G+I # # h h m ( B D D B B B B B B B B B B B B B B B B B B B B B B B D B D D B B D D B D D B D B D D D D D B G I G+I I G+G+. 8 ( I I H I G+G+G+G+G+G+G+G+G+G+G+G+G+I I I I G+I I I I I H h = H H H H H H H I I G+G+G+G+G+G+G+I G+I I I G+G+I H H H H I I G+G+G+G+G+G+G+G+G+G+G+G+G+I G+G+G+G+G+I G+G+G+G+G+G+G+G+G+G+",
"I G+G+G+I I I = + h H I H H I I G+G+G+I I G+G+I G+G+G+I I I I I H I I I H H I G+G+G+I I I I G+G+I G+G+I H H I G+G+G+G+G+= # 8 4 m G+G+G+= 4 8 m G+G+G+I I I H H I I I I I I H I G+h j 4 I G+G+G+G+G+I I I G+G+I I H m C i i i i i i i i i i i i i i i B i i i i i i i i i i i i i i B i i i i i i i i i i i B i B i B C m G h I I G+G+G+G+G+G+G+G+G+G+G+G+G+G+G+G+G+G+G+G+G+G+G+G+G+H I G+G+G+H I I I H H H H H H H I G+G+G+G+G+G+G+G+G+G+G+G+G+G+G+G+G+I I h # j B B B B B B i B B B B i B B B B B B B B B B i B B i B B B B B B B B B B B D B B B D B D B D D B m I G+G+I I I G+G+= 4 j * H H H G+G+G+G+G+G+G+G+G+G+G+G+G+G+G+G+G+G+G+G+G+I G+I H I I I I I I I I I G+G+G+G+G+G+G+G+G+G+I I I G+G+H H H H H H I G+G+G+G+G+G+G+G+G+G+G+G+I I I G+G+G+G+I I G+G+G+G+G+G+G+G+G+",
"G+G+G+G+G+G+I H H I I G+I I G+G+G+G+G+G+G+G+G+G+G+G+G+G+I I I H = H I I I H H G+G+G+G+G+I G+G+G+I G+G+H H H I G+G+G+G+G+G+I . 8 8 ( = G+( 8 . G+G+G+G+G+I I I H I I H H I I I I H ( 8 m G+G+G+G+G+G+G+I I G+G+I H H H h m i i i i i i i i i i i i i i i i i i i i i i i i i i i i i i i i i i i i i i i i B i i i i B i i i i i A m G h H I G+G+G+G+G+G+G+G+G+G+G+G+G+G+G+G+G+G+G+I H I G+G+G+I I G+I H H H H H H h H G+G+G+G+G+G+G+G+G+G+G+G+G+I = h m A B i 4 4 4 B B i i B i B i i B B B B i B i B B B B B B B B B B B B B B B B i B B B B B B B B B D D D A h H G+G+G+G+G+G+G+G+G+m 8 ( I G+G+G+G+G+G+G+G+G+G+G+G+G+G+G+G+G+G+G+G+I I I G+G+G+I I I I I H I I I I G+G+G+G+G+G+I G+G+G+I I G+G+G+H H H H H H I G+G+G+G+G+G+G+G+G+G+G+G+I H I G+G+G+G+H H I G+G+G+G+G+G+G+I ",
"G+G+G+G+G+G+I I I G+G+G+G+G+G+G+G+G+G+G+G+G+G+G+G+G+G+G+I H H = h = I I G+I H H I G+G+G+G+G+G+G+G+G+G+G+G+G+G+G+G+G+G+G+G+G+G++ # 8 4 ( j # = I I I I I I I I H H H H = = = H I m 8 # I G+G+I I G+G+G+G+I G+G+I H H H H H h A i i i i i i i i B i i i i i i i i i i i i B i i i i i i i i i B i i i i i i i i i B i i i i i i i i i i i i A m G h H I I G+G+G+G+G+G+G+G+G+G+G+G+I H H H I G+G+G+G+I I H h h h h h h H G+G+G+G+G+G+G+I = h G m A i i B D i B B 4 4 4 B B i i i i i B B i B i i i B B i i B i B B B i B B B B B B B B B B i B B B B B B B B A h I H h H G+G+G+G+G+G+G+G+I # 8 + G+G+G+G+G+G+G+G+G+I I I I I I = = = = H = H I I I I I H H H H H = = I I I G+G+G+G+I H G+G+G+G+G+G+G+G+H H H H H H I G+G+G+G+G+G+G+G+G+G+G+G+I H G+G+G+G+I H H H G+G+G+I I I H H ",
"G+G+G+G+G+G+I I I G+G+G+G+G+G+G+G+G+G+G+G+G+G+G+G+G+I G+G+I H h h = I I G+I h h H G+G+G+G+G+G+G+G+G+G+G+G+G+G+G+G+G+G+G+I I I I = ( j 8 8 . = = H H I I I G+I I I I I H H H I H # 8 + G+G+I H I G+G+G+G+G+G+G+I H H H H H I I h A i i i i i i i i i i i i i i i i i i i i i i i i i i i i i i i i B i i i i i i i i i i i B i i i i i i i B i B B i i A m m G h = = H H I I I I H H H h H I G+G+G+I I H h h h h h h h H h h G m m A i i i B i B B B B B i B B 4 4 4 i B B i i B i i i B B B i B B i i i B i B i B B i B i B B B B i i B i B i B B B B i G I G+G+H h h I G+G+G+I I I I G+m 8 # I G+G+G+G+G+G+I H H H H H H h + * * + + h H I I I H H I I I H H H H I G+G+G+G+G+I H H I G+G+G+G+G+G+G+H H H H H H I G+G+G+G+G+G+G+G+G+G+G+G+I H G+G+G+I H H H H G+G+G+I I I H H ",
"G+G+G+G+G+G+I I I G+G+G+G+G+G+G+G+G+G+G+G+G+G+G+G+G+G+G+I G+I h h H G+G+G+H h H H G+G+G+I I I I I I I I I I I G+G+G+G+G+I H H H H h 4 4 j # @ h H H I G+G+I H I I I I I I I I m 8 ( G+G+I H H H G+G+G+G+G+G+G+I H H H H H H I G+I h A i i i i i i i i i i i i i i i i i i i i i i i i i i i i i i i i i i i i i i i i i i i i i i i i i i i i B i i i B B B B i B i C A A A A A A A A A A A m m m m m A A A A C C C C i B i i i i i i i i i i i B i B i B i i i 4 4 B i i i i B i i i i i i B i B i i B i i i B B B i i B i B B i i B i B i i i B i m h G+G+I H = H H I G+G+I H H H H I H # 8 m H I G+G+G+G+G+H H H H H H h h + + h h = I G+G+I H = I G+I I I I I I G+G+G+G+G+H H H I G+G+G+G+G+G+G+I H H H H H I G+G+G+G+G+G+G+G+G+G+G+G+I H I G+G+H H H H H G+G+G+I I I I I ",
"G+G+G+G+G+G+I I I G+G+G+G+G+G+G+G+G+G+G+G+G+G+G+G+G+G+G+I I I = + H G+G+I H H H H G+G+G+H H H H H H H H H H H I G+G+G+G+I H H H H ( 8 # # j 4 # * H I G+G+H h = I I I I I I h 4 j = G+G+I H H H I I G+G+G+G+G+I H H H H H H I G+G+G+I h A i i i i i i i i i i i i i i i i i i i i i i i i i i i i i i i i i i i i i i i i B i i i B i i i i i i B B i i i i i i B i i i B i i B i B B B i i D D i D i B i B B i i i i i i i B i i i i B i i i i i B B i i i i i 4 4 i i B B i B i i i i i B i B i B i i i i B i B i B i i i B i B B B B i B i A G H h = G+G+H = H H H I G+G+I H H H H H H m 8 # h I G+G+G+G+I H H H H H H h * * * * h h I G+G+I h h I G+I I I I I I I G+G+G+G+I H H H H I G+G+G+G+G+H H H H H I I G+G+G+G+G+G+G+G+G+G+G+G+I H I G+G+I I I I I G+G+G+G+G+G+G+G+",
"G+G+G+G+G+I I I I G+G+G+G+G+G+G+G+G+G+G+G+G+G+G+G+G+I I I I I = + = G+I H H H H H G+G+G+H H H H H H H H H H I G+G+G+G+G+H H H H * 8 4 * * # 4 8 # @ I I I = + + I I H H H H ( 8 . I G+G+I H H H H I G+G+G+G+G+I H H H H H I I G+G+G+G+G+I h A i i i i i i i i i i i i i i i i i i i i i i i i i i i i i i i i i i i i i i i i i i i i i i B i i i i i i i i i i i i B B i i i i i B i B i i i i i i i B i B i i i i i i i i i i i i i i i B B i B B i i i B B i 4 4 i i B i B i i B B i B B B i i i i i B i i i i B i i B B i B i B B i B A G H I = + h I I H H H H H I G+G+I I H H H I I H ( 8 . G+G+G+G+G+I H H H h h H = * . @ * * * = I I I h h H I H H H H H H I I G+G+G+I H H H H I G+G+G+G+G+I I I I I I I G+G+G+G+G+G+G+G+G+G+G+G+I I I G+G+G+G+G+G+G+G+G+G+G+G+G+G+G+",
"G+G+G+G+I I I I I G+G+G+G+G+G+G+G+G+G+G+G+G+G+G+G+G+I I I I I h h H G+I H H H H H G+G+G+I H H I I I I I I I I G+G+G+G+G+H H H h # 8 m H h * . # 8 j . I G+I = H I I I I I * 8 4 = G+G+G+G+I H H H I G+G+G+G+G+I I I I I I I G+G+G+G+G+G+G+G+I h A i i i i i i i i i i i i i i i i i i i i i i i i i i i i i i i i i i i i i i i i i i i i i i i B i i i i i i i B i i i i i B i i i i i i i i i B i B i B i i i i i i i i i i i i B i i i i i i i i i i i i i B 4 4 4 i i i i i i B i B B i i B i i B B i i i i i B i B i i B i B i i A G H I G+I = + H G+G+I I H H H G+G+G+G+G+G+G+G+G+G+G+= 4 4 = G+G+G+G+I H H I H I I I H h h = = = I I I I I I I I I I I I I I I G+G+G+G+G+I I I I G+G+G+G+G+G+I I I I I G+G+G+G+G+G+G+G+G+G+G+G+G+G+G+I G+G+G+G+G+G+G+G+G+G+G+G+G+G+G+G+",
"G+G+G+G+G+I I I I I G+G+G+G+G+G+G+G+G+G+G+G+G+G+G+G+I I I G+I h h G+G+G+I I I H I G+G+G+G+G+G+G+G+G+G+G+G+G+G+G+G+G+G+G+I I I ( 8 . G+G+I H H H m 4 8 # = G+G+I I I I G+I # 8 m G+G+G+G+G+G+I G+G+G+G+G+G+G+G+I G+I I G+G+G+G+G+G+G+G+G+G+G+G+G+G+h m i i i i i i i i i i i i i i i i i i i i i i i i i i i i i i i i i i i i i i i i i i i i i i i i i i i i i i i i i i i i i B i i i B i i i i i i i i i i i i B i i B i i B i i i i i i i i i B i i i i i B 4 4 4 i i i i i B B i i i i i B i i i i i i i i i i B i i i i i i A h I G+G+I I G+H h I G+G+G+G+G+G+G+G+G+G+G+G+G+G+G+G+G+G+G+. 8 . G+G+G+G+G+G+G+G+G+G+G+G+G+G+G+G+G+G+I I G+G+G+I I I I I I I I G+G+G+G+G+G+G+G+G+G+G+G+G+G+G+G+G+G+G+G+G+G+G+G+G+G+G+G+G+G+G+G+G+G+G+G+G+I G+G+G+G+G+G+G+G+G+G+G+G+G+G+G+G+",
"G+H H I G+G+I I I I G+G+G+G+G+G+G+G+G+G+G+G+G+G+G+G+I G+G+G+I = H G+G+G+G+G+G+G+G+G+G+G+G+G+G+G+G+G+G+G+G+G+G+G+G+G+G+G+G+G+m 8 # I G+G+G+G+I G+G++ # 8 4 m I I I I I I m 8 # = I G+G+G+G+G+G+G+G+G+G+G+G+G+G+G+G+G+G+G+G+G+G+G+G+G+G+G+G+G+G+G+G+G+G+= m A i i i i i i i i i i i i i i i i i i i i i i i i i i i i i i i i i i i i i i i i i i i i i i i i i i i i i i i i i i i i i i i i i i i i i i i i i i i i i i i i B i i i i B i B i i B i i i i i i i i 4 4 i i i i B i i B i B B i i i B i B i i B i i B i i i B B m h I G+G+G+I G+G+G+I H I G+G+G+G+G+G+G+G+G+G+G+G+G+G+G+G+G+G+G+I 4 8 = G+G+G+G+G+G+G+G+G+G+G+I I I I I I I I I I I I I I I I I I I I I G+G+G+G+G+G+G+G+G+G+G+G+G+G+G+G+G+G+G+G+G+G+G+G+G+G+G+G+G+G+G+G+G+G+G+G+G+G+G+G+G+G+G+G+G+G+G+G+G+G+G+G+",
"I H H H I G+G+I = H G+G+G+G+G+G+G+G+G+G+G+G+G+G+G+G+G+G+G+G+I I H G+G+G+G+G+G+G+G+G+G+G+G+G+G+G+G+G+G+G+G+G+G+G+G+G+G+G+G+h 8 8 h G+G+I I I I I I I = . 8 8 ( h I I I h # 8 * I I I G+G+G+G+G+G+G+G+G+G+G+G+G+I I G+G+I I G+G+G+G+G+G+G+G+G+G+G+G+G+G+G+G+I G A i i i i i i i i i i i i i i i i i i i i i i i i i i i i i i i i i i i i i i i i i i i i i i i i i i i i i i i i i i i i i i i i i i i i i i i i i i i i i i i i i i i i i i i i i i i i B B i i i 4 4 i B i i i i i i i i i i i i i B i i i i B B i i i A m = G+G+G+G+G+G+I G+G+I I I G+G+G+G+G+G+G+G+G+G+G+G+G+G+G+G+G+G+G+G+G+m . I G+G+G+G+G+G+G+G+G+G+G+I H H H I I H I I I H I I I I H I H H I I G+G+G+G+G+G+G+G+G+G+G+G+G+G+I I I I I I I G+G+G+G+G+G+G+G+G+G+G+G+G+G+G+G+G+G+G+G+G+G+G+G+G+G+G+G+G+G+G+",
"I H H H G+G+I I h h I G+G+I I I I I G+G+G+G+G+G+G+G+G+G+G+G+G+G+G+G+G+G+G+G+G+G+G+G+G+G+G+G+G+G+G+G+G+G+G+G+G+G+G+G+G+G+I # 8 . G+G+G+G+I I I I I I I I + # 8 # m I I . 8 ( I I I G+G+G+G+G+G+G+G+I G+G+G+G+G+I I I I I I G+G+G+G+G+G+G+G+G+G+G+G+G+G+G+G+G+G+I h m A i i i i i i i i i i i i i i i i i i i i i i i i i i i i i i i i i i i i i i i i i i i i i i i i i i i i i i i i i i i i B i i i i i i i i i i i i i i i i i B i i i i i i i i i i i B i i B 4 4 i i i i B i i i i i i i B i i i i i i i B i i A h H G+G+G+G+G+G+G+G+I G+G+G+G+G+G+G+G+G+G+G+G+G+G+G+G+G+G+G+G+G+G+G+G+G+G+G+G+G+G+G+G+G+G+G+G+G+G+G+G+I H H H I I I I I I I H I H H I I I I I I G+G+G+G+I G+I G+I I G+G+G+I I I I I H H I G+G+G+G+G+G+G+G+G+G+G+G+G+G+G+G+G+G+G+G+G+G+G+G+G+G+G+G+G+G+G+",
"I h h I G+G+I I = h H I I I H I I I I G+G+G+G+G+G+G+G+G+G+G+G+G+G+G+G+G+G+G+G+G+G+G+G+G+G+G+G+G+G+G+G+G+G+G+G+G+G+G+G+G+. 8 # I G+I G+G+I H H I I I I I I h ( 8 8 . h 4 4 h I I I I I G+I I I I G+I I G+G+G+I I H H H H H I G+G+G+G+G+G+G+G+G+G+G+G+G+G+G+G+G+G+G+G+H G A i i i i i i i i i i i i i i i i i i i i i i i i i i i i i i i i i i i i i i i i i i i i i i i i i i i i i i i i i i i i i i i i i i i i i i i i i i i i i i i i i i i B i B i i i i i i 4 4 i B i i i B i i i B i i B i i i i i i B A m H H H I I G+G+G+G+G+G+I I G+G+G+G+G+G+G+G+G+G+G+G+G+G+G+G+G+G+G+G+G+G+G+G+I I I I I I I I I I I I I I H I H h h = H H H H H H H H H H H H H H H H I I I I I I I I I I I I I I I H H H H H H I I G+G+G+G+G+G+G+G+G+G+G+G+G+G+G+G+G+G+G+G+G+G+G+G+G+G+G+G+G+G+",
"= * * = G+G+I H + + H H H H H H H H I G+G+G+G+G+G+G+I G+G+G+G+G+G+G+G+G+G+G+G+G+G+G+G+G+G+G+G+G+G+G+G+I I I I I I I G+m 8 4 h I H H H H = h + + h = H = = H = m 4 8 4 j ( = = = H H I I I I I I H I I I I I I H H H H H H H I G+G+G+G+G+G+G+G+G+G+G+G+G+G+G+G+G+G+G+G+G+I = m A i i i i i i i i i i i i i i i i i i i i i i i i i i i i i i i i i i i i i i i i i i i i i i i i i i i i i i i i i i i i i i i i i i i i i i i i i i i i i i i i i i i i i i i i i # 4 B i i i i i i i i i i i i i i i i C m h H H H H H H G+G+G+G+G+G+G+I G+G+G+G+G+G+G+G+G+G+G+G+G+G+G+G+G+G+G+G+G+G+G+I I I H I I I I I I I I H H H H H h h h + + h h h h = h h = h h h h h h = = H H I I I I I I I H I I H H H H H H H H H H I G+G+G+G+G+G+G+G+G+G+G+G+G+G+G+G+G+G+G+G+G+G+G+G+G+G+G+G+G+G+",
"= * m = I G+I = * * H H H H H H H H I G+G+G+G+I G+G+I G+I G+I G+G+G+G+G+G+G+G+G+G+G+G+G+G+G+G+G+G+I I I H H H I I G+= 4 8 m H H H = H h h h * * * + h h h + h h * # 8 j ( + h h h H H I I I I I I I I I H H H I H H H H H I I G+G+G+G+G+G+G+G+G+G+G+G+G+G+G+G+G+G+G+G+G+G+G+G+I h m A i i i i i i i i i i i i i i i i i i i i i i i i i i i i i i i i i i i i i i i i i i i i i i i i i i i i i i i i i i i i i i i i i i i i i i i i i i i i i i i i i i i i i i # 4 4 i i i i i i B i i i i i i A A m h I I H H H H H I G+G+G+G+G+G+G+I I I I I I G+G+G+G+G+G+G+G+G+G+G+G+G+G+G+G+G+G+I I I I I I I I G+G+G+G+I H H H H H h = H h h h h h h h h = h h h h h h = = H H I I G+G+G+G+G+I I G+I I I I I I I I I I I G+G+G+G+G+G+G+G+G+G+G+G+G+G+G+G+G+G+G+G+G+G+G+G+G+G+G+G+G+G+",
"G+= h = I I I I = h H I I H H H I I I G+G+G+G+G+G+G+I I I I I G+G+G+G+I G+G+G+G+G+G+G+G+G+G+G+G+G+G+G+I I I I I G+I ( 8 ( I I I I I I H = H I h h h = = = = = H h # 8 j 8 # * = H H I I G+G+G+G+G+I I G+I I I I I I I I I I G+G+G+G+G+G+G+G+G+G+G+G+G+G+G+G+G+G+G+G+G+G+G+G+G+G+G+G+I h m A i i i i i i i i i i i i i i i i i i i i i i i i i = F+7.m i i i i i i i i &.F+7...=.` a+=.=...=...` ..G++ i i i i i i i i i i i i i i i i i i i i i i i i i i i i i i i 4 4 i i i B i i i i B i A m h = H I I G+G+I I I G+G+G+G+G+G+G+G+G+G+I I I I I I G+G+G+I G+G+G+I G+G+G+I G+G+G+G+G+G+G+G+G+G+G+G+G+G+G+G+G+G+I I G+G+I I I I I I I I I I I I I I H H I I I I H H I I G+G+G+G+G+G+G+G+G+G+G+G+G+G+G+G+G+G+G+G+G+G+G+G+G+G+G+G+G+G+G+G+G+G+G+G+G+G+G+G+G+G+G+G+G+G+G+G+G+G+G+",
"G+G+I H I I I I I I G+G+G+G+G+G+G+G+G+G+G+G+G+G+G+G+I I G+G+I G+G+G+G+G+G+G+G+I G+G+G+G+G+G+G+G+G+G+G+G+G+G+G+G+G+m 8 4 I G+G+G+G+G+G+G+I I G+G+I I I I I I I I m 8 # m # 8 4 m I I G+G+G+G+G+G+G+G+G+G+G+G+G+G+G+G+G+G+G+G+G+G+G+G+G+G+G+G+G+G+G+G+G+G+G+G+G+G+G+G+G+G+G+G+G+G+G+G+G+G+G+I h G A ( i i i i i i i i i i i i i i i i i i i i i = E+..m i i i i i i i i &.7...=.a+&.a+=.a+&.&.a+` =.F++ i i i i i i i i i i i i i i i i i i i i i i i i i i i i i i i 4 4 i i i i 4 4 # A m h H I I I I G+G+G+G+G+G+G+G+G+G+G+G+G+G+G+G+G+G+I I G+I I G+G+G+G+G+G+G+G+G+G+G+G+G+G+G+G+G+G+G+G+G+G+G+G+G+G+G+G+G+G+G+G+G+G+G+G+G+G+G+G+G+I I I I I I I I I I I I I I I G+G+G+G+G+G+G+G+G+G+G+G+G+G+G+G+G+G+G+G+G+G+G+G+G+G+G+G+G+G+G+G+G+G+G+G+G+G+G+G+G+G+G+G+G+G+G+G+G+G+G+G+G+",
"G+G+G+I I I I I I G+G+G+G+G+G+G+G+G+G+G+G+G+G+G+G+G+G+I I G+I G+G+G+G+G+G+G+G+G+G+G+G+G+G+G+G+G+G+G+G+G+G+G+G+G+= 4 j + G+G+G+G+G+G+G+G+G+G+G+G+G+I I I I I G+H # 8 m G+I . 8 8 ( = G+G+G+G+G+G+G+G+G+G+G+G+G+G+G+G+G+G+G+G+G+G+G+G+G+G+G+G+G+G+G+G+G+G+G+G+G+G+G+G+G+G+G+G+G+G+G+G+G+G+G+G+G+G+G+H h m A i i i i i i i i i i i i i i i i i i E+E+..x i i i i i i i i &...=.&.&.X.X.&.X.9.X.9.&.` 7.m i i i i i i i i i i i i i i i i i i i i i i i i i i i i i i i 4 4 B i i A ( 8 4 I G+I G+G+I I I I G+G+G+G+G+G+G+G+G+G+G+G+G+G+G+G+G+I I G+G+G+G+G+G+G+G+G+G+G+G+G+G+G+G+G+G+G+G+G+G+G+G+G+G+G+G+G+G+G+G+G+G+G+G+G+G+G+G+G+G+I I G+I I I I I I I I I I G+I G+I G+G+G+G+G+G+G+G+G+G+G+G+G+G+G+G+G+G+G+G+G+G+G+G+G+G+G+G+G+G+G+G+G+G+G+G+G+G+G+G+G+G+G+G+G+G+G+G+G+G+G+G+G+",
"G+G+G+I G+I I I I I G+G+G+G+G+G+G+G+G+G+G+G+G+G+G+G+G+G+G+G+G+G+G+G+G+G+G+G+G+G+G+G+G+G+G+G+G+G+G+G+G+G+G+G+G+I # 8 . G+G+G+G+G+G+G+G+G+G+G+G+I = G+G+G+G+G+G+m 8 ( I G+G+G++ # 8 4 m I G+G+G+G+G+G+G+G+G+G+G+G+G+G+G+G+G+G+G+G+G+G+G+G+G+G+G+G+G+G+G+G+G+G+G+G+G+G+G+G+G+G+G+G+G+G+G+G+G+G+G+G+G+G+G+I I = G m ( i i i i i i i i i i i i i i ..h+` v i i i i i i i i 9.=.&.9.P.9.P.9.P.n.P.P.9.&...m i i i i i i i i i i i i i i i i i i i i i i i i i i i i i i i 4 8 ( G = I I # 8 = G+I I G+I H = H I G+G+G+G+G+I I I G+I I I G+G+G+G+G+G+G+G+G+G+G+G+G+G+G+G+G+G+G+G+G+G+G+G+G+G+G+G+G+G+G+G+G+G+G+G+G+G+G+G+G+G+G+G+G+G+G+G+G+G+G+G+G+G+G+G+G+G+G+G+G+G+G+G+G+G+G+G+G+G+G+G+G+G+G+G+G+G+G+G+G+G+G+G+G+G+G+G+G+G+G+G+G+G+G+G+G+G+G+G+G+G+G+G+G+G+G+G+G+G+G+G+G+G+G+G+G+G+",
"G+G+G+I G+I I = h h I I I I G+G+I I I I I I G+G+G+G+G+G+G+G+G+G+G+G+G+G+G+G+G+G+G+G+G+G+G+G+G+G+G+G+G+G+G+G+G+. 8 # I G+G+G+G+G+G+G+G+G+G+G+G+. 4 + G+G+G+G+= 4 j = G+G+G+G+G+I . 8 8 ( I G+G+G+G+G+G+G+G+G+G+G+G+G+G+G+G+G+G+G+G+G+G+G+G+G+G+G+G+G+G+G+G+G+G+G+G+G+G+G+G+G+G+G+G+G+G+G+G+G+G+G+G+G+G+G+G+G+G+G+I H h m A A i i i i i i i i i x =.&.J i i i i i i i i X.` &.G.Y.Y..+.+B.B..+m.Y.9.... i i i i i i i i i i i i i i i i i i i i i i i i i i i A A m h ( 8 m G+G+G+G+. 8 . G+I G+I H h + + = H I I I I I I H H H H I G+G+G+G+G+G+G+G+G+G+G+G+G+G+G+G+G+G+G+G+G+G+G+G+G+G+G+G+G+G+G+G+G+G+G+G+G+G+G+G+G+G+G+G+G+G+G+G+G+G+I G+G+G+G+G+G+G+G+G+G+G+G+G+G+G+G+G+G+G+G+G+G+G+G+G+G+G+G+G+G+G+G+G+G+G+G+G+G+G+G+G+G+G+G+G+G+G+G+G+G+G+G+G+G+G+G+G+G+G+G+G+G+G+G+G+G+G+",
"G+G+G+I G+I = + * + H I I I H I I I H H H H G+G+G+G+G+G+G+G+G+G+G+G+G+G+G+G+G+G+G+G+G+G+G+G+G+G+G+G+G+G+G+G++ 8 4 = G+G+G+G+G+G+G+G+G+G+G+G+I . 8 8 m I G+G+. 8 . G+G+G+G+G+G+G+G+m 4 4 = G+G+G+G+G+G+G+G+G+G+G+G+G+G+G+G+G+G+G+G+G+G+G+G+G+G+G+G+G+G+G+G+G+G+G+G+G+G+G+G+G+G+G+G+G+G+G+G+G+G+G+G+G+I I G+G+G+G+G+G+G+G+I H h G m m A i i i i x &.9.K i i i i i i i i 9.&.9.n.E.F.F.F.M.C.E.E.$.P.=.m i i i i i i i i i i i i i i i i i i i i i i C A A m * h I G+G++ 8 . G+G+G+G+h 8 # G+G+G+I = + * * h H I I H H I I H H H H I G+G+G+G+G+G+G+G+G+G+G+G+G+G+G+G+G+G+G+G+G+G+G+G+G+G+G+G+G+G+G+G+G+G+G+G+G+G+G+G+G+G+G+G+G+G+G+G+G+I G+G+G+G+G+G+G+G+G+G+G+G+G+G+G+G+G+G+G+G+G+G+G+G+G+G+G+G+G+G+G+G+G+G+G+G+G+G+G+G+G+G+G+G+G+G+G+G+G+G+G+G+G+G+G+G+G+G+G+G+G+G+G+G+G+G+G+G+",
"G+G+I I I I h * * + H I I I H H I I H H H H G+G+G+G+G+G+G+G+G+G+G+G+G+G+G+G+G+G+G+G+G+G+G+G+G+G+G+G+G+G+G+= # 8 m G+G+G+G+G+G+G+G+G+G+G+G+I G+I m 4 8 # I h 8 # = G+I I G+G+G+G+G+G+= h G+G+G+G+G+G+G+G+G+G+G+G+G+G+G+G+G+G+G+G+G+G+G+G+G+G+G+G+G+G+G+G+G+G+G+G+G+G+G+G+G+G+G+G+G+G+G+G+G+G+I G+G+G+I I G+G+G+G+G+G+G+G+G+G+G+G+I I I H h G m x X.G.K i i i i i i i i G.9.P.B.C.D.M..+D.W.C.F.$. .=...i i i i i i i i i i i i i i i C A A m G h h H H h * * H G+G+G+= 8 # G+G+G+I H # 4 = I I I = + + + H I I I I H H I I I H H G+G+G+G+G+G+G+G+G+G+G+G+G+G+G+G+G+G+G+G+G+G+G+G+G+G+G+G+G+G+G+G+G+G+G+G+G+G+G+G+G+G+G+G+G+G+G+I I I I I G+G+G+G+I H H H H H I I I I I I I I I G+I I G+G+G+G+G+G+G+G+I I G+I I G+G+G+G+G+G+G+G+G+G+G+G+G+G+G+G+G+G+G+G+G+G+G+G+G+G+G+G+G+G+G+G+",
"G+G+I I I = h + + h H I I I I H H I G+I H I G+G+G+G+G+G+G+G+G+G+G+G+G+G+G+G+G+G+G+G+G+G+G+G+G+G+G+G+G+G+I ( 8 . G+G+G+G+G+G+G+G+G+G+G+G+G+I I I I h # 8 4 # 8 m I I I I I I I H H I I I I I I I G+G+G+G+G+I I I I I I I I I G+G+G+G+G+G+G+G+G+G+G+G+G+G+G+G+G+G+G+G+G+G+G+G+G+G+G+G+G+G+G+G+I G+G+G+G+G+G+G+G+G+G+G+G+G+G+G+G+G+G+G+G+G+G+G+G+h+9.P.J h h G m m A A A 9.9.n.E.M.D.,+++++w.W.U.E.Y.=.+ i i i i A A A A m m m G h = H H I I G+G+I H H H h * . h G+G+G+I 4 4 I G+I I I . 8 m I H = = h h h H I G+G+G+I I I G+G+I I G+G+G+G+G+G+G+G+G+G+G+G+G+G+G+G+G+G+G+G+G+G+G+G+G+G+G+G+G+G+G+G+G+G+G+G+G+G+G+G+G+G+G+G+G+G+I I I I I I G+G+G+G+G+H H H H H H H H H H H H H I I H H I I I I I I I I H H H I I H I G+G+G+G+G+G+G+G+G+G+G+G+G+G+G+G+G+G+G+G+G+G+G+G+G+G+G+G+G+G+",
"I I I H = = = = h = I G+G+G+G+I I I G+G+I G+G+G+G+G+G+I I I G+G+G+G+G+G+G+G+G+G+G+G+G+G+G+G+G+G+G+G+G+G+m 8 4 I G+G+G+G+G+G+G+G+G+G+G+I I I H I I G+I . j 4 # h I H H H H H H H H H H I I I I I H H H H H H H H H H H I I H G+G+G+G+G+G+G+G+G+G+G+G+G+G+G+G+G+G+G+G+G+G+G+G+G+G+G+G+G+G+G+G+G+G+G+G+G+G+G+G+G+G+G+G+G+G+I I G+G+G+G+G+G+G+G+G+=.G.F.X.I I I I I H H H X.9.n.C.#.>+u.N.N.++D.M.B.G.=.h h h H H H H H I G+G+G+G+G+G+G+G+I G+G+G+I H H H h . . + I G+G+G+# 8 = G+G+H H * 8 ( H H H I H h = I G+G+G+G+G+G+G+I G+G+G+G+G+G+G+G+I I I G+G+G+G+G+G+G+G+G+G+G+G+G+G+G+G+G+G+G+G+G+G+G+G+G+G+G+G+G+G+G+G+G+G+G+G+G+I I I H H I G+G+G+G+I I G+I H H H H H H H H H H I I I I I I I I I I I I I I H H H H I I G+G+G+G+G+G+G+G+G+G+G+G+G+G+G+G+G+G+G+G+G+G+G+G+G+G+G+G+G+G+",
"H I I I I I I = h H I G+G+G+G+G+G+G+I G+G+G+G+G+G+G+I I I I I I G+G+G+G+G+G+G+G+G+G+G+G+G+G+G+I G+G+G+h 4 8 h G+G+G+G+G+G+G+G+G+G+G+G+I I H H = I I G+I # 8 j ( h H = = = = H H h h H I I I I I I H I I I I I I I H H H I I G+G+G+G+G+G+G+G+G+G+G+G+G+G+G+G+G+G+G+G+G+G+G+G+G+G+G+G+G+G+G+I I G+G+G+G+G+G+G+G+G+G+G+G+I H H I G+G+G+G+G+G+G+G+..X.G...G+G+G+G+G+G+G+G+X.n.F.F.W.++++++O.w.V.U.E.P.=.F+G+G+G+G+G+G+G+G+G+G+G+G+G+G+I I G+G+G+G+I H H H h   . * H G+G+G+( 8 h G+G+I H = # 4 h I I I = + h I I G+G+G+G+G+I I I G+G+G+G+I G+G+I I I I G+G+G+G+G+G+G+G+G+G+G+G+G+G+G+G+I I G+G+G+G+G+G+G+G+G+G+G+G+G+G+G+G+G+I I I H H = H G+G+G+G+I H I I H H H H H H H = H I I I I I I I I I I I I I I I I I I I G+G+G+G+G+G+G+G+G+G+G+G+G+G+G+G+G+G+G+G+G+G+G+G+G+G+G+G+G+G+G+G+",
"H I I I I I H h + = I I G+I G+I I I I I G+G+G+G+I G+I I I I I I G+G+G+G+G+G+G+G+G+G+G+G+G+G+G+I I G+I # 8 . G+G+G+G+G+G+G+G+G+G+G+I I I H = = = H I G+. 8 # # 8 4 . + + + h h h + h H I I I I I I I I I G+G+G+I G+G+I H I G+G+G+G+G+G+G+G+G+G+G+G+G+G+G+G+G+G+G+G+G+G+G+G+G+G+G+G+G+I G+I = = I I I I G+I I I I I I I H = = H I G+G+G+G+G+G+G+7.9.9.h+G+G+G+G+G+G+G+G+n.$.X +.M.++w.W.D.++++U.E.G.] F+G+G+G+G+G+I I I G+G+G+G+G+G+G+G+G+G+G+G+I H H H = * . + = I I G+. 8 m G+G+I = H ( 8 m G+I I = h = I G+G+G+G+G+G+G+G+I I G+G+I I G+I I I I I I G+G+G+G+G+G+G+G+G+G+G+G+G+G+G+I I I G+G+G+G+G+G+G+G+G+G+G+G+G+G+G+I I I I = = = H I G+G+G+I H = = H = h h H = = = = I I G+G+G+G+I I G+G+G+G+G+G+G+G+G+I I G+G+G+G+G+G+G+G+G+G+G+G+G+G+G+G+G+G+G+G+G+G+I I I I G+I I = = H ",
"H I G+G+G+G+I = = I G+G+G+G+G+G+G+G+G+I I G+G+I I I I I I I I G+G+G+G+G+G+G+G+G+G+G+G+G+G+G+G+G+I I . 8 # I G+G+G+G+G+G+G+G+G+G+I I I I H = = = = G+= 4 j * h # j j ( * = h h = h = = I I G+I I I G+G+G+G+G+G+G+G+G+G+I H G+G+I G+G+G+G+I G+G+G+G+G+G+G+G+G+G+G+G+I H H H H H I I H h h h m . * h h h h h h h h h + + h = H H I G+G+G+G+G+G+G+..n.P.h+G+G+G+G+G+G+G+G+Y.%.X @+M.D.w.w.w.D.++C.E.9.` I G+G+G+G+G+G+I I I G+G+G+G+G+G+G+G+G+G+G+I H H I H h + + H H I I m 8 ( I I H = H m 8 ( G+G+I H H I G+G+G+G+G+G+G+G+G+G+I I G+G+I I I I I I I G+G+G+G+G+G+G+G+G+G+G+G+G+G+G+G+I I I I G+G+G+G+G+G+G+G+G+G+G+G+I I I I I H H = = H I G+G+I H = = = = H = = = = = = H H I G+G+G+G+G+G+G+G+G+G+G+G+G+G+G+I I I I G+G+G+G+I G+G+G+G+G+G+G+G+G+G+G+G+G+G+H H H h H H H h * . . ",
"I G+G+G+G+G+I H H I G+G+G+G+G+G+G+G+G+G+I I G+I I I I I I I G+G+G+G+G+G+G+G+G+G+G+G+G+G+G+G+G+I I m 8 4 = G+I G+G+G+G+G+G+G+I I I I I I H H = = H I . 8 ( = = = . j 8 m H = = = = H H H G+G+G+I I G+G+G+G+G+G+G+G+G+I H H H I I I I I I I I I I I I I I I I I G+I H h h h h + h H h * . . m . . @ * * * * + h + *   . * H H H I G+G+G+G+G+G+G+=.P.n.h+G+G+G+G+G+G+G+G+Y.%.F.C.W.u.N.N.w.++w.M.B.9.` F+G+G+G+I G+G+I H I G+G+G+G+G+G+G+G+G+G+G+G+G+I G+I I H = H H I I h 8 # H I H H I = 4 4 I G+I H = H I G+G+I I I G+G+G+G+G+I G+G+G+I I I I I G+G+G+G+G+G+G+G+I H H H H H I I I H = H H H H I I H I I I I I H H H I I I I H H = = H I G+G+I H = = H = I I I H H = H H H I G+G+G+G+G+G+G+G+G+G+G+G+G+G+I H H H = = I I I I I I I I I I I I I I I G+I I H H h + h H H h * . x ",
"G+G+G+G+G+I I = = H I G+I I I G+G+G+G+G+G+G+I G+G+I I I I I I G+G+G+G+G+G+I H H H H H H H H H H h 4 8 . H I I H I I I H H = h H I I I I H = = = I + 8 # = I H H I * . I I H I H = H H I G+G+G+I I G+G+G+G+G+G+G+G+G+I H = H = h H I I I H I I I I I I I I I I I I H h h = h + h H H h * . . m . * * * * * h h h h h * + H H H H I G+G+G+G+G+G+=.m.n.=.G+G+G+G+G+G+G+G+n.P.n.C.W.N.O.].].O.w.U. .P.` F+I I H I I G+G+I H G+G+G+G+G+G+G+G+G+G+G+G+G+G+G+G+G+I I I H I I = # 4 = H H I G+I ( 8 m G+I H h h H I I I I I G+G+G+G+G+G+I I G+G+I I I I I G+G+G+G+G+G+G+I H H H H H H H H h h h h h h H I I H H H H = H h h H I I H H H = H I G+G+G+I I H H H I I I I I H H H H I G+G+G+G+I G+G+G+G+G+G+G+G+G+I H H H H h + h I G+I I I I I I I I I I I I I I I H H H h = I I H h * . ",
"G+G+G+G+I I I = h h H I I I I G+G+G+G+G+G+G+I I G+G+G+I I I I I G+G+G+G+G+I H H H H H H H H H h ( 8 # + h H I H H H H H H h h h I I I I H H H I I # 8 m G+I I I I G+I G+G+I I H H H I G+G+G+G+I I G+G+G+G+G+G+I I I H H H H h * h I G+H H I I I I I I I I I I I I I = H I H = H I I H h * * + = h = H = H I I I I H H H I I H I I G+G+G+G+G+G+=.Y.P...G+G+G+G+G+G+G+G+&.G.Y.;+V.N.N.>.>.@.;.@+ .P.=.I = = H I I I G+G+I G+I I G+G+G+G+G+G+G+G+G+G+G+G+G+G+G+G+I I I G+I # 4 = I I I G+G++ . = I I H = = H I G+I I G+G+G+G+G+G+G+G+I I G+G+I I I I G+G+G+G+G+G+G+I H H H H H H H H h h h h h h H H I I H H H H h h h H I I H H H I I I G+G+G+G+I I I I G+G+G+I I I I I I I G+G+G+G+I I G+G+G+G+G+G+I I H = = H H h + + H I I I I I I I H I I I I I G+I H I I I H I G+G+I I H = ",
"G+G+G+G+I I H = = H I I I I I G+G+G+G+G+G+G+G+I I G+G+I I I I G+G+G+G+G+G+G+I H H H H H H H H . 8 # * = H H H I I H H H H h + h I I I I I I I G+m 8 # I G+G+G+G+G+G+G+G+G+G+I I I I I G+G+G+G+I I G+G+G+G+G+G+I H H H = = = h + + I G+I H I I I I I I I I I I G+G+I I I I I H I G+G+I I H = H I G+G+G+G+G+G+G+G+G+I I I G+G+I I I G+G+G+G+G+G+=.Y.G...G+G+G+G+G+G+G+G+a+G.m.F.U.O.>.@.@.@.X +.n.9.E+I I I I G+G+G+G+G+G+G+H H G+G+G+G+G+G+G+G+G+G+G+G+G+G+G+G+G+G+G+G+G+. 8 m G+G+G+G+G+G+G+G+I I H H I G+G+G+G+G+G+G+G+G+G+G+G+G+G+I G+G+G+I I I G+G+G+G+G+G+G+G+I I I I I I I I H H H H H I I I G+G+G+I I I H h h H I I I I I I G+G+G+G+G+G+G+G+G+G+G+G+G+G+G+I H H I I G+G+G+G+I I G+G+G+G+G+I I I H = = H H h h h H I I I I I I I I I I I I G+G+G+I I G+I H I G+G+G+G+I H ",
"G+G+G+G+I I I I I I G+G+G+G+G+G+G+G+G+G+G+G+G+G+I G+G+G+G+I I G+G+G+G+G+G+G+G+I I I G+I I I h 4 8 * I I I I I G+G+G+G+G+I H h h I I I I I I G+H # 8 + G+G+G+G+G+G+G+G+G+G+G+G+I H I I G+G+G+G+I I G+G+G+G+G+G+I H I H = = H H = = I I H I I I I I I I G+G+G+G+G+G+I I I G+I H I G+G+G+I I H I I G+G+G+G+G+G+G+G+G+G+G+G+G+G+G+G+I G+G+G+G+G+G+a+n.P.E+G+G+G+G+G+G+G+G+X.9.m.C.V.>.>.@.>.N.-.B.G.&.E+I G+G+G+G+G+G+G+G+G+G+H h I G+G+G+G+G+G+G+G+G+G+G+G+G+G+G+G+G+G+G+G+m 8 . G+G+G+G+G+G+G+G+I I I I I G+G+G+G+G+G+G+G+G+G+G+G+G+G+G+I G+G+G+G+I G+G+G+G+G+G+G+G+G+G+G+G+G+G+G+G+G+I I I G+G+G+G+G+G+G+G+G+G+I = h I I I I I I I G+G+G+G+G+G+G+G+G+G+G+G+G+G+G+I I H H I G+G+G+G+I I G+G+G+G+G+I I I I I I I I I H H I I I I G+I G+G+I G+G+G+G+G+G+G+I I I G+I I G+G+G+G+I H ",
"G+G+G+G+I I I I I G+G+G+G+G+G+G+G+G+G+G+G+G+G+I I I I G+G+I I G+G+G+G+G+G+G+G+G+G+G+G+G+G+I # 8 . I G+G+G+G+G+G+G+G+G+G+G+I H H I I I I I I I m 8 # G+G+G+G+G+G+G+G+G+G+G+G+G+G+I H I G+G+G+G+I I G+G+G+G+G+I I I I I I I I I H H G+G+I I I I G+I I I G+G+I I G+G+I H I G+I I G+G+G+G+I H H I G+G+G+G+G+G+G+G+G+G+G+G+G+G+G+G+G+G+G+G+G+G+G+G+=.n.m...G+G+G+G+G+G+G+G+X.G.n.o.,+>.@.@.@.].M.Y.P.X...F+G+G+G+G+G+G+G+G+G+G+H h I G+G+G+G+G+G+G+G+G+G+G+G+G+G+G+G+G+G+G+G++ 8 ( G+G+G+G+G+G+G+G+I I I I G+G+G+G+G+G+G+G+G+G+G+G+G+G+G+I G+I I G+G+G+G+G+G+G+G+G+G+G+G+G+G+G+G+G+G+G+G+G+G+G+G+G+G+G+G+G+G+G+G+G+G+I I I I I I I I I G+G+G+G+G+G+G+G+G+G+G+G+G+G+G+G+G+I H I G+G+G+I I I G+G+G+G+G+I G+G+G+G+I G+G+I I I G+G+I I I I I I I I G+G+I I I I H I G+I I I G+G+G+I I H ",
"G+G+G+G+I I I I I G+G+G+G+G+G+G+G+G+G+G+G+G+G+I I I I I I G+G+G+G+G+G+G+G+G+G+G+G+G+G+G+G+. 8 # I G+G+G+G+G+G+G+G+G+G+G+G+G+I I I I I I I I G+I m = G+G+G+G+G+G+G+G+G+G+G+G+G+G+G+I I G+G+G+G+I I G+G+G+G+G+G+G+G+G+G+I G+G+G+I I G+G+I I I G+G+I I I I G+I I I I I I I G+I I G+G+G+G+I I I I G+G+G+G+G+G+G+G+G+G+G+G+G+G+G+G+G+G+I I G+G+G+G+h+9.n.&.G+G+G+G+G+G+G+G+9.9.Y.B.*.>.@.@.>.*.E.Y.Y.9.=.F+G+G+G+G+G+G+G+G+G+G+H h I G+G+G+G+G+G+G+G+G+G+G+G+G+G+G+G+G+G+G+G+= 4 # I G+G+G+G+G+I I I I I I G+G+G+G+G+G+G+G+G+G+G+G+G+G+G+I G+G+I I G+G+G+G+G+G+G+G+G+G+G+G+G+G+G+G+G+G+G+G+G+G+G+G+G+G+G+G+G+G+G+G+G+I I I I I I I G+G+G+G+G+G+G+G+I G+G+G+G+G+G+G+G+G+G+G+G+G+G+G+G+I I I G+G+G+G+G+G+G+G+G+G+I G+G+I I I G+G+I I I G+I I I I G+I I I I I H I G+G+I I G+G+G+I I I ",
"G+G+G+I I I I I I G+G+G+G+G+G+G+G+G+G+G+G+G+G+G+G+G+G+I I G+G+G+G+G+G+G+G+G+G+G+G+G+G+G++ j 4 = G+G+G+G+G+G+G+G+G+G+G+G+G+G+G+G+G+I I I I I G+G+G+G+G+G+G+I G+G+G+G+G+G+G+G+G+G+G+G+G+G+G+G+G+I G+G+G+G+G+G+G+G+G+G+G+G+G+G+G+I I G+G+I I I G+G+I I I G+G+I I I I I I G+G+I I G+G+G+G+G+I I I I G+G+G+G+G+G+G+G+G+G+G+G+G+G+G+G+I H H I G+G+G+&.G.G...G+G+G+G+G+G+G+G+9.G.Y.Y.,.@.>.>.].#.E.Y.G.&.=.= I I G+G+G+G+G+G+G+G+I I G+G+G+G+G+G+G+G+G+G+G+G+G+G+G+G+G+G+G+G+G+I # 4 = G+G+G+G+G+H H H I I I G+G+G+G+G+G+G+G+G+G+G+G+G+G+G+I G+G+I I I G+G+G+G+G+G+G+G+G+G+G+G+G+G+G+G+G+G+G+G+G+G+G+G+G+G+G+G+G+G+G+G+I G+I I I I I I G+G+G+G+G+G+G+I I G+G+G+G+G+G+G+G+G+G+G+G+G+G+G+I I G+G+G+G+G+G+G+G+G+G+G+G+G+G+I I G+G+G+I I I I G+I I I G+G+I I I I I I G+G+I I G+G+G+G+I I ",
"G+G+I H H H I I I G+G+G+G+G+G+G+G+G+G+G+G+G+G+G+G+G+G+I I I G+G+G+G+G+G+G+G+G+G+G+G+G+I 4 8 + G+G+G+G+G+G+G+G+G+G+G+G+G+G+G+G+G+G+I I I I I I G+G+G+G+G+G+I I G+G+G+G+G+G+G+G+G+G+G+G+G+G+G+I I G+G+G+G+G+G+G+G+G+G+G+G+G+G+G+I I G+G+I I I G+G+I I I G+G+I H I I I I G+G+I I G+G+G+G+G+I I I I G+G+G+G+G+G+I I G+G+G+G+G+G+I I H = = H I G+G+=.9.X.7.G+G+G+G+G+G+G+G+X.9.n.F.,+#.N.O.W.E.B.P.X.&.h+= I I G+G+G+G+G+G+G+G+I G+G+G+G+G+G+G+G+G+G+G+G+G+G+G+G+G+G+G+G+G+G+G+# 8 h G+G+G+G+G+I = H I I I I G+G+G+G+G+G+G+G+G+G+G+G+G+G+I G+G+I I G+G+G+G+G+G+G+G+G+G+G+G+G+G+G+G+G+G+G+G+G+G+G+G+G+G+G+G+G+G+G+G+G+G+G+I I I H H H H I I G+G+G+G+I H G+G+G+G+G+G+G+G+G+G+G+G+G+G+G+= h I G+G+G+G+G+I I I G+G+G+G+G+I I G+G+G+I I I G+I G+I I G+G+I I I I I I G+G+I I G+G+G+G+I I ",
"I G+G+I = H I I I G+G+G+G+G+G+G+G+G+G+G+G+G+G+I G+G+G+I I G+G+G+G+G+G+G+G+G+G+G+G+G+G+( 8 4 = G+G+G+G+G+G+G+G+G+G+G+G+G+G+G+G+G+G+I H H = h H H I G+G+G+G+H I G+G+G+G+G+G+G+G+G+G+G+G+G+G+G+h h I G+G+G+G+G+I H I G+G+G+G+G+G+I I G+G+I I I I I I I I G+G+I I I I I H I G+I H G+G+G+G+G+I I I I G+G+G+G+G+I G+I G+G+G+G+G+G+I I H = = = h H I ..X.&.=.G+G+G+G+G+G+G+G+9.9.n.B.E.M.M.C.E.n.X.` =.` =.F+G+G+G+G+G+G+G+G+G+G+G+G+G+G+G+G+G+G+G+G+G+G+G+G+G+G+G+G+G+G+G+G+G+G+. 8 m G+G+G+I G+G+I H I I I I G+G+G+G+G+G+G+G+G+G+G+G+G+G+I I G+I I I G+G+G+G+G+G+G+G+G+G+G+G+G+G+G+G+G+G+G+G+G+G+G+G+G+G+G+G+G+I I G+G+G+I I = h h h = = = I G+G+G+I I I G+G+G+G+G+G+G+G+G+G+G+G+G+I + * H G+G+G+G+G+I I I I G+G+G+G+I I I G+G+I I I I I I I I G+G+I I I I H I I I H I G+G+G+G+I H ",
"G+I G+G+I H I I I G+G+G+G+G+G+G+G+G+G+G+G+G+G+I G+G+G+G+G+G+G+G+G+G+G+G+G+G+G+G+G+G+m 8 j 8 4 + G+G+G+G+G+G+G+G+G+G+I I I G+G+G+I I h h + h h H H I G+G+G+I I I G+G+G+G+G+G+G+G+G+G+G+G+G+I h * I G+G+G+G+G+G+I I G+G+G+G+G+G+I I G+G+I I I I I I I I G+G+I H I I I H I G+I I G+G+G+G+G+I H H I G+G+G+G+I H I G+G+G+G+G+G+G+I I H H = = = = H ..X.a+=.I I I I I I I I &.&.G.Y. ..+.+n.G.X...E+7.=.` F+G+G+G+G+G+G+G+G+G+G+G+G+G+G+G+G+G+G+G+G+G+G+G+G+G+G+G+G+G+G+G+G+G+G+m 8 m G+G+G+G+G+G+G+I H I I I G+G+G+G+G+G+G+G+G+G+G+G+G+G+I G+G+G+G+G+G+G+G+G+G+G+G+G+G+G+G+G+G+G+G+G+G+G+G+G+G+G+G+G+G+G+G+G+I H H I G+G+I I h * + h = H H H I G+G+G+G+I I G+G+G+G+G+G+G+G+G+G+G+G+G++ * I G+G+G+G+G+G+G+G+G+G+G+G+G+I I G+G+G+I I I I I I I I G+I I I I I H I I I H I G+G+G+I I H ",
"G+G+G+G+I I I I I G+G+G+G+G+G+G+G+G+G+G+G+G+G+G+I G+G+G+G+G+G+G+G+G+G+G+G+G+G+G+G+= 4 4 m m 8 8 . I G+I H I G+G+I I H H I I G+G+I H + + + h = H H H I G+G+G+G+I I G+G+G+G+G+G+G+I H I I G+G+h * I G+G+G+G+G+G+G+I G+G+G+G+G+G+I I G+G+I I I I I I I I G+G+I I I I I H I I I I G+G+G+G+I H = H I I G+G+I H H H G+G+G+G+G+G+G+I I H H H H H H H E+a+&.=.H H H H H H H H W &.9.G.9.G.9.9.X.a+h+..E+=.` = I G+G+G+G+G+G+G+I H G+G+G+G+G+G+G+G+G+G+G+G+G+G+G+G+G+G+G+G+G+G+G+G++ 8 ( I G+G+G+G+G+G+I H H I I G+G+G+G+G+G+G+G+G+G+G+G+G+G+G+G+G+I I G+G+G+G+G+G+G+G+G+G+G+G+G+G+G+G+G+G+G+G+G+I I I I I G+I H H = H G+I I G+I + * + h = H H H H I G+G+G+I H I G+G+G+I I I = h = I I I h m = G+G+G+G+G+G+I G+G+G+G+G+G+I I I I G+I I I I I I H I G+I H I I I H H I I H I G+G+G+I H = ",
"G+G+G+G+G+I H H I G+G+G+G+G+G+G+G+G+G+G+G+G+G+G+I G+G+I I G+G+G+G+G+G+G+G+G+G+G+I # 8 . G+G++ 4 8 ( = H = H I I H H = = I G+I G+G+H + * + h h = H H H I G+G+I H H H I I I I H h + + * h H I = + I G+G+G+G+G+G+I G+G+G+G+G+G+G+= = I G+I I I I I I H I G+I H H I I I H I I H = I G+G+G+I = = = H I I G+I I I G+G+G+G+G+G+G+G+G+I I H I I H H I E+a+&.&.H H H H H H H I J &.X.9.9.G.P.G.9.9.X.X.X.X.&.x = I I I I G+G+G+I I G+G+G+G+G+G+G+G+G+G+G+G+G+G+G+G+G+G+I I I I I I h 8 4 I G+G+G+G+G+I I I H I G+G+G+G+G+G+G+G+G+G+G+G+G+G+G+I G+G+I I I G+G+G+G+G+G+G+G+G+G+G+G+G+G+G+G+G+I I I I = = H I I H H = = H G+G+G+I I = + + h = H H H I I G+G+I h h = H I I H h * . . * h H H h h I G+G+G+G+G+I H I G+I G+G+G+I = * = G+I I I I I I I I G+I I H I I H I I I = H I G+G+I H = ",
"I G+G+G+I I I I I G+G+G+G+G+G+G+G+G+G+G+G+G+G+I I I I I I I G+G+G+G+G+G+G+G+G+G+m 8 # I G+G+G+h # 8 # * H I I I H H H = I G+G+G+G+I = + + h = H H H H I G+I = + h h H H H H * . . . . * h H = H I G+G+G+G+G+H = I G+I G+G+G+I + * H G+I I I I I I I I I G+I = I I I H I I H = H I I I I = = = = I I G+G+G+G+G+G+G+G+G+G+G+G+G+G+G+I G+G+I I I E+a+X.&.I I G+G+I ..K 9.9.n.m.%.$.o.N.D.E.E.E.Y.n.9.&.X.&.a+h H H H I G+G+G+G+G+G+G+G+G+G+G+G+G+G+G+G+G+G+G+G+I I = = H I I H . m I I I G+G+G+I I I I I G+G+G+G+G+G+G+G+G+G+G+G+G+G+G+I I I I I I I G+G+G+G+G+G+G+G+G+G+G+G+G+G+G+G+I I I H = = H I G+I H H I I G+G+G+G+H I = + h H H H I I I I I H h h H H H H h * . . . . + H H + h G+G+G+G+G+I H h H I H H I I I = + = G+I I G+G+G+I I I G+I I I I I I I G+I H H I G+G+I I H ",
"I G+G+I I I I I I G+G+G+G+G+G+G+G+G+G+G+G+G+G+G+I I I I I I I G+G+G+G+G+G+G+G++ 8 4 = G+G+G+G+I = # 8 4 m I G+G+I I I I I G+G+G+I H I = h = H H I I I I I I = h h = H H H h + m m m . . h H h = G+I G+G+G+I H = H H H H I I I h + I G+I I G+G+G+I I I G+G+I I I G+I I G+G+I H I G+G+G+I I I H I I G+G+G+G+G+G+G+G+G+G+G+G+G+G+G+G+G+G+G+G+G+G+7.=.&.=.G+G+G+G+I &...&.9.F.+.C.$.F.w.D.U.M.W.U.E.Y.X.=.E+E+=.H H I G+G+G+G+G+G+G+G+G+G+G+G+G+G+G+G+G+G+G+G+G+I H H H I I I I G+G+G+G+I I G+I I I I I I G+G+G+G+G+G+G+G+G+G+G+G+G+G+G+G+I I I I I I G+G+G+G+G+G+G+G+G+G+G+G+G+G+G+G+I I H = H I G+G+G+G+G+G+G+G+I G+G+G+I H I H H I I I G+G+G+I I I I H I I G+I H h h h + + h H H h + I G+I G+I I H = H H h h h = H H I I I G+G+G+G+G+G+I G+G+I I I G+I I I G+I H H G+G+G+G+I I ",
"I I I I I I I I I I G+G+G+G+G+G+G+G+G+G+G+G+G+G+G+G+I I I I I G+G+G+G+G+G+G+I # 8 m G+G+G+G+G+I I = . j 8 . I G+G+G+G+G+G+G+G+I G+I I I I I G+G+G+G+G+G+G+I I I I I G+G+I H H = = = = h = H = h I G+I I I I H = = H h h h H I I I I G+G+I I G+G+G+I G+G+G+I I G+G+I I G+G+I H I G+G+G+I I I I I I G+G+G+G+G+G+G+G+G+G+G+G+G+G+G+G+G+G+G+G+G+G+7.=.=.=.G+G+G+G+= ..=.a+G.$.X M.-.*.N.D.D.u.v.u.-.-.P.G.a+7...I I G+G+G+G+G+G+G+G+G+G+G+G+G+G+G+G+G+G+G+G+G+G+I I I I G+G+G+G+G+G+G+G+G+I I I I I I I I G+G+G+G+I I H H I I G+G+G+G+G+G+G+G+I I G+G+G+G+G+G+G+G+G+G+G+G+G+G+G+G+G+G+G+I I I G+G+G+G+G+G+G+G+G+G+G+G+I G+G+I I G+G+G+G+G+G+G+G+G+G+G+G+G+G+G+G+G+I I I I H H I I H H H H G+G+G+I I H = H H h h h H H I I G+I I = = H H I I G+G+G+I I G+I I I G+I H H = H I I = = ",
"G+I I I H I I I I G+G+G+I I H H H I G+G+G+G+G+I G+G+G+G+I G+G+G+G+G+G+G+G+G+. 8 ( G+G+G+G+G+G+I I I G++ 4 8 # = G+G+G+G+G+G+G+I I I I G+G+G+G+G+G+G+G+G+G+G+G+G+G+G+G+G+G+I I I H I H H H I I I H G+G+G+G+I I H H H = h = I I I I G+G+= + + h = I I I G+G+I I G+G+H I I G+I = + + = I I H = H I I G+G+G+G+G+G+G+G+G+G+G+G+G+G+I G+I I I I H H F+&.X.&.I I G+G+= =.&.X.G.m.Y.F.#.].V.u.C.C.V.-.P.P.n.n.9.=...G+G+G+G+G+G+G+G+G+G+G+G+G+G+G+G+G+G+G+G+G+G+G+G+G+G+G+G+G+G+G+G+G+G+G+G+G+I I I H H I I I I G+G+I H H H H H I G+G+G+G+I G+G+G+G+I I G+G+G+G+G+G+G+G+G+G+G+G+G+G+G+G+G+I I I G+G+G+G+G+G+G+G+G+G+G+G+G+I I I G+I I G+G+G+G+G+G+G+G+G+I G+G+G+G+G+I I I I I I I I G+I I I I G+G+G+G+G+I I I I I H I I I I G+G+G+= . . * + h H G+G+I I I G+I = I G+I H h * * = H h * ",
"G+G+I H H I I I I G+G+G+I H H H H H I G+G+G+I I I G+G+G+I G+G+G+G+G+G+G+G+m 8 # I G+G+G+G+G+I I I G+G+G+= # 8 . G+G+G+G+G+G+G+G+I I I I G+G+G+G+G+G+G+G+G+G+I I I G+G+I I I I H I I H I G+G+G+I I I G+G+G+G+G+I I G+I I I G+G+I I G+I + . . @ + = I I G+G+I I I I = = I I I = m . * H H = = = = H I H H I I I G+G+G+G+I H I G+I H H H h + + + ..X.G.P.H H I G+h =.J P.Y.B.F.F.B.#.M.++U.M.n.P.P.P.9.Y.P.a+E+G+G+G+G+G+G+G+G+I G+G+G+G+I G+G+G+G+G+G+G+I I I G+G+G+G+G+G+G+G+G+G+G+G+G+G+I I H H I I I I G+G+I H H = H H I G+G+G+G+I = I I I H I G+G+G+G+G+G+G+G+G+G+G+G+G+I I I = = = I G+G+G+G+G+G+G+G+G+G+G+G+G+I H I G+G+I G+G+I I I I I I I H = H I G+I = = = H H H H I G+G+I I I G+G+G+G+G+G+G+G+G+G+I G+G+I I G+G+I h . . * h h H I G+I I I G+I H = I G+G+I h h I I I = ",
"G+G+G+I I I I I I I G+G+H = = = H H I G+G+G+G+= = I I H I I G+G+G+G+G+G+= 4 8 + G+G+G+I H H = h h G+G+G+G+. 8 + G+I G+G+G+G+G+I I I I I I G+G+I I I I I I H H H H I G+I h h = H H H H I G+G+G+I I I I G+G+G+G+G+G+G+G+G+G+G+I I I G+G++ . . * h H I I G+G+I I I G+I = = I G+G+I h = I I I I H = H H I I H H I G+G+G+G+I I I G+I I H H = = h h I ` 9.M H H G+G+= ..` n.%.E.C.D.,+w.N.N.D.G. .G.G.9.9.F.n.a+..G+G+G+G+G+G+G+I H I G+G+I I G+G+G+G+G+G+I I I I G+G+G+G+G+G+G+G+G+G+G+G+G+G+G+I I I I I I I G+G+I = = h h H H G+G+G+G+I + h H = = H G+G+G+G+G+G+G+G+G+G+G+G+G+I H h + * h I G+G+G+G+G+G+I I I G+G+G+G+I = = I I G+I I I H H H H H h h h h H I = * * + = H H H I G+G+G+I I I I G+G+G+G+G+G+G+G+G+G+G+I I I G+I H * m h = I I I G+I I I G+G+I H = H G+G+I I I G+G+G+",
"G+G+G+G+G+G+G+G+I G+G+I H = H H h H I G+G+G+G+h * h H = H I G+G+G+G+G+I # 8 . G+G+G+G+I H = h + h I G+G+= j 4 = I H I G+G+G+G+I H H I G+G+I H I I I I H = h h h h I I h + * h = H H H I G+G+G+I I I I I I G+G+G+G+G+G+G+G+G+I I I G+G+= * + h I G+I I G+G+I I I I G+I = = I G+G+G+I I I G+G+I I I I G+G+I I G+G+G+G+G+G+G+G+I I G+I I I H H = G+E+a+J I I G+G+= ] =.P.m.F.D.w.v.v.N.O.o.P.%.P.G.&.G.E.G.&.E+G+G+G+G+G+G+G+I I I G+G+G+I G+G+G+G+G+G+G+I H H G+G+G+G+G+G+G+G+G+G+G+G+G+G+G+G+G+G+G+G+I G+G+I H H H H h H H G+G+G+G+I + h H = = I G+G+G+G+G+G+G+G+G+G+G+G+G+G+I I I H I G+G+G+G+G+G+I I I I G+G+G+G+G+H I I G+G+I H I I I I H h h h h h H G+H + * + H H H H I G+G+G+I H H I I I G+G+G+G+G+G+G+G+G+I I G+G+I I = = I I I I I G+I I I I G+G+I = H I G+I I = H I I ",
"I G+G+G+G+G+G+G+G+G+G+H H H H H H H I G+G+G+I = h h H = I I G+G+G+G+G+. 8 # I G+G+G+G+G+G+I I I I G+G+G+. 8 . G+I I I G+G+G+G+G+I I G+G+G+I I H I I H H = h h h h I I H h + = H H I H I G+G+G+G+I H H H I G+G+G+G+G+G+G+G+G+G+I I G+G+I = H I I G+G+I G+G+G+I I I I G+I H = I I I I = = I G+G+G+G+G+G+G+G+G+G+G+G+G+G+G+G+G+G+G+G+G+G+G+G+I G+G+F+h+=.G+G+G+G+I ] =.9.B.U.W.N.V.u.v.].%.` n.9.P.G.$.C.P.&...G+G+G+G+G+G+G+G+I G+G+G+G+G+G+G+G+G+G+I I I = H G+G+G+G+G+G+G+G+G+G+G+G+G+I G+G+G+G+G+G+G+G+G+I H H H H H H I G+G+G+I I = H I H I G+G+G+G+G+G+G+G+G+G+G+G+G+G+G+G+G+I I I G+G+G+G+G+G+G+G+I I G+G+G+G+G+G+G+G+G+G+G+G+I I G+I H H H = H H I G+I = = H H I I H I G+G+G+I = = = H I G+G+G+G+G+G+G+G+G+I I G+G+G+I H I G+G+G+G+G+G+G+G+I H I G+G+I H H H I = + + H I ",
"G+G+G+G+G+G+G+G+G+G+G+H H I I H H H I G+G+I I I = I I I I G+G+G+G+G+h 8 4 = G+G+G+G+G+G+G+G+I I I G+G+I # 8 = G+G+I I G+G+G+G+G+I G+G+G+G+G+G+I I G+I I I H H H I I G+I I I I I I I I I G+G+G+G+I H = H I G+G+G+G+G+G+G+G+G+G+G+G+G+G+I I I I G+G+G+G+G+G+G+G+I I G+G+G+I H = H H H H H I G+G+G+G+G+G+G+G+G+G+G+G+G+G+G+G+G+G+G+I I G+G+G+G+G+G+F+=.=.G+G+G+G+F+X.` 9.B.E.-.-.D.W.++,.%.&.P.9.X.n.M.F.Y.&.h+G+G+G+G+G+G+G+G+G+G+G+G+G+G+G+G+G+G+G+G+I I I I I G+G+G+G+G+G+G+G+G+G+G+G+I G+G+G+G+G+G+G+G+G+I H H I I H H I G+G+G+I I I I I I I G+G+G+G+G+G+G+G+G+G+G+G+G+G+G+G+G+I = H I G+G+G+G+G+G+G+G+G+G+G+G+G+G+I G+G+G+G+G+G+G+G+G+G+G+I I I I I G+G+I I I I I I I I G+G+G+G+G+I H H H I G+G+G+G+G+G+G+G+G+G+G+G+G+G+I I I G+G+G+G+G+G+G+G+G+I I G+G+G+I H I I H = = I G+",
"G+I G+G+I G+G+G+G+G+G+I H H I H H H I G+G+I I I I G+G+G+G+G+G+G+G+I # 8 m G+G+G+G+G+G+G+G+G+H = H G+G+m 8 # G+G+G+G+G+G+G+G+G+I I I I G+G+G+G+G+G+G+G+G+G+G+G+I G+G+G+G+G+G+G+G+I I I G+G+G+G+G+G+I I I I G+G+G+G+G+G+G+G+G+G+G+G+G+G+I I G+G+G+G+G+G+G+G+G+G+G+G+G+G+G+G+G+I = h H G+G+G+G+G+G+G+G+G+G+G+G+G+G+G+G+G+G+G+G+G+G+I I G+G+I I G+G+E+=.=.G+G+G+G+F+9.X.P..+C.*.;.U.W.D.M.-.P...n.n.C.M.E.+.G...G+G+G+G+G+G+G+G+G+G+G+G+G+G+G+G+G+G+G+G+I = I I G+G+G+G+G+G+G+G+G+G+G+G+G+I G+G+G+I G+G+G+G+G+G+H H H H H H I G+G+G+I I I G+G+G+G+G+G+G+G+G+G+G+G+G+G+G+G+G+G+G+H I I = H I G+G+G+G+G+G+G+G+G+G+G+G+G+I H I I G+G+G+G+G+G+G+G+G+G+G+G+G+G+G+G+G+G+G+G+I I I I G+G+G+G+G+G+I H H I I G+G+G+G+G+G+G+G+G+G+G+G+G+I I I G+G+G+G+G+G+G+G+G+G+G+G+G+G+G+I I H H H I G+G+",
"I I G+G+I I G+G+G+G+G+I H H H H H I I G+G+I I I G+G+G+G+G+G+G+G+G+. 8 ( G+G+G+G+G+G+G+I H G+G+= H G+G+# 8 + G+G+G+G+G+G+G+G+G+H = H I I G+G+G+G+G+I G+G+G+G+G+G+G+G+G+G+G+G+G+G+G+G+G+G+G+G+G+G+G+I I I I I G+G+G+G+G+G+G+G+G+G+G+G+G+G+I G+G+G+G+G+G+G+G+G+G+G+G+G+G+G+G+G+G+H h H G+G+G+G+G+G+G+G+G+G+G+G+G+G+G+G+G+G+G+G+G+I I I G+G+G+G+G+G+=.=...G+G+G+G+I &.9.n.F.W.++W.V.++#.w.-. .%.%.U.M.E.+.,.G.E+G+G+G+G+G+G+G+G+G+G+G+G+G+G+G+G+G+G+G+G+I I = I G+G+G+G+G+G+G+G+G+G+G+G+G+I G+G+G+I G+G+G+G+G+G+I I H H H I I G+G+G+I I I G+G+G+G+G+G+G+G+G+G+G+G+G+G+G+G+G+G+G+H h I G+I G+G+G+G+G+G+G+G+G+G+G+G+G+G+H = = I I G+G+G+G+G+G+G+G+G+G+G+G+G+G+G+G+G+G+G+G+G+G+G+G+G+G+G+G+G+H H H H H G+G+G+G+G+G+G+G+G+G+G+G+G+I I G+G+G+G+G+G+G+G+G+G+G+G+G+G+G+G+G+I H = H I G+G+",
"G+I G+G+G+G+G+G+G+G+G+G+I I H H H I G+G+G+I I I I G+G+G+G+G+G+G+m 8 4 = G+G+G+G+G+G+G+I H = I G+I G+h 8 # I G+G+G+G+G+G+G+G+I = = H I I I G+G+G+G+G+I G+G+G+G+G+G+G+G+G+G+G+G+G+G+G+G+G+G+G+G+G+I I I I H I G+G+G+G+G+G+G+G+G+G+G+G+G+G+I I G+G+G+G+G+G+G+G+G+G+G+G+G+G+G+G+I I H h H G+G+G+G+G+I H I I G+G+G+G+G+G+G+I I G+G+I = H G+G+I G+G+G+=.` W I G+G+G+F+9.9.P.E.@+O.N.w.w.++V.M.D.D.U.W.U.B.-.+.G.=.G+G+G+G+G+G+G+G+G+G+G+G+G+G+G+G+G+G+G+G+G+I H = G+G+G+G+G+G+G+G+G+G+G+G+G+G+G+G+G+G+G+G+G+G+G+G+G+I I H H I G+G+I I I I I G+G+G+G+G+G+G+G+G+G+G+G+G+G+G+G+G+G+I H h = I G+G+G+G+G+G+G+G+G+G+G+G+G+G+I = h = I I I G+G+G+G+G+G+G+G+G+G+G+G+G+G+G+G+G+G+G+G+G+G+G+G+G+G+G+G+I I I I I G+G+G+G+G+G+G+G+G+G+G+G+G+G+I I G+G+G+G+G+G+G+G+G+G+G+G+G+G+G+G+G+H H h h I G+",
"G+G+G+G+G+G+G+G+G+G+G+G+G+I I H H I G+G+G+I I I I G+G+G+G+G+G+= 4 8 + G+G+G+G+G+G+G+G+I H h I I I I . 8 m G+G+G+G+G+G+G+G+G+H h h H I I I I G+G+G+G+G+I G+G+G+G+G+G+G+G+G+G+G+G+G+G+G+G+G+G+G+G+I I G+G+G+G+G+G+G+G+G+G+G+G+G+G+G+G+G+G+I I G+G+G+G+G+G+G+G+G+G+G+G+G+G+G+I H H H H h H I G+G+G+I h H H I G+G+G+G+G+G+I I G+G+I + h G+G+G+G+G+F+` &.&.I G+G+G+F+9.X.n.E.U.w.N.O.O.v.D.M.V.V.>+C.M.Y..+.+G.` G+G+G+G+G+G+G+G+G+G+G+G+G+G+G+G+G+G+G+G+G+I I H I G+G+G+G+G+G+G+G+G+G+G+G+G+G+G+G+G+G+G+G+G+G+G+G+G+I I H I G+G+I I I I I G+G+G+G+G+G+G+G+G+G+G+G+G+G+G+G+G+G+I H h h H I G+G+G+G+G+I I G+G+G+G+G+G+I h + = G+I H = I G+G+G+G+I H I G+G+G+G+G+G+G+G+G+G+G+G+G+G+G+G+G+G+G+G+G+G+G+G+G+G+G+G+G+G+G+G+G+G+G+G+G+G+I I G+G+G+G+G+G+G+G+G+G+G+G+G+G+G+G+G+H H h h h H ",
"G+G+G+G+G+G+G+G+G+G+G+G+G+I I I I G+G+G+G+I I I I G+G+G+G+G+I # 8 . G+G+G+G+G+G+G+G+G+I H H H I G+= 4 4 = I H I G+G+G+G+G+I = h h H I H h = G+G+G+G+G+H H I G+G+G+G+G+G+G+G+G+G+G+G+G+G+G+G+G+G+G+G+G+G+G+G+G+G+G+G+G+G+G+G+G+G+G+G+G+I I I G+G+G+G+G+G+G+G+G+G+G+G+G+G+G+I H = H H H h h H G+G+G+I H I G+G+G+G+G+G+G+I I G+I I h = G+G+G+G+G+=.=.a+` G+G+G+G+I X.9.n.E.C.,+u.O.N.>+w.W.W.N.++M.U.F.B.m.G.` G+G+G+G+G+G+G+G+G+G+G+G+G+G+G+G+G+G+G+G+G+G+I I I I G+G+G+G+G+G+G+G+G+G+G+G+G+G+G+G+G+G+G+G+G+G+G+G+G+G+I G+G+G+G+I I I I G+G+G+G+G+G+G+G+G+G+G+G+G+G+G+G+G+G+I H = h h h I G+I G+I H H I G+G+G+G+I H = h H I I h h I G+G+G+G+I I I G+G+G+G+G+G+G+G+G+G+G+G+G+G+G+G+G+G+G+G+G+G+G+G+G+G+G+G+G+G+G+G+G+G+G+G+G+G+I H I G+G+G+G+G+G+G+G+G+G+G+G+G+G+G+I H H H H H H ",
"I G+G+G+G+G+G+G+G+G+G+G+G+G+G+G+G+G+G+G+G+I I I I G+G+G+G+G+. 8 # I G+G+G+G+G+G+G+G+G+I H H h h + . 8 ( H h h = I G+G+G+I I H = H I H H + h I G+G+G+G+I I I G+G+G+G+G+G+G+G+G+G+G+I I I G+G+G+G+G+I G+G+G+G+G+G+G+G+G+G+G+G+G+G+G+G+G+I H H I G+G+G+G+G+G+G+G+G+G+G+G+G+G+G+I h h H I H H H G+G+G+G+G+G+G+G+G+G+G+G+G+G+G+G+G+I H H G+G+G+G+G+J 9.&.` G+G+G+G+Y G.9.n.E.C.U.u.u.++++N.#.,+u.++u.U.M.F..+9.` G+G+G+G+G+G+G+G+G+G+G+G+G+G+G+G+G+G+G+G+G+G+G+I I = = I G+G+G+G+G+G+G+G+G+G+G+G+G+G+G+G+G+G+G+G+G+G+G+G+G+G+G+G+G+G+I I I I G+G+G+G+G+G+G+G+G+G+G+G+G+G+G+G+G+I H H h * @ . = I I H = H H G+G+G+I H H I I I I H = h I G+G+G+G+G+G+G+G+G+G+G+G+G+G+G+G+G+G+I I I I G+G+G+G+G+G+G+G+G+G+G+G+G+G+G+G+G+G+G+G+G+G+G+I H I I G+G+G+G+G+G+I I G+G+G+G+G+G+I H H H I I I ",
"I G+G+G+G+I I I G+G+G+G+G+G+G+G+G+G+G+G+G+G+I I I I G+I G+h 8 4 = G+G+G+G+G+G+G+G+G+G+I H H h + * 4 8 + H + h h H I I I I I I I I I I H + h G+G+G+G+G+G+G+G+G+G+G+G+G+G+G+G+G+G+I I I I I G+G+G+G+G+G+G+G+G+G+G+G+G+G+G+G+G+G+G+G+G+G+I H H I G+G+G+G+G+G+I I I G+G+G+G+G+G+I H h h I G+G+G+I G+G+G+G+G+G+G+G+G+G+G+G+G+G+G+G+G+I I G+G+G+G+G+] P.G.J G+G+G+G+F+P.X.P.m.F.W.W.V.N.++U.C.U.v.N.V.V.U.E.m.X.=.G+G+G+G+G+G+G+G+G+G+G+G+G+G+G+G+G+G+G+G+G+G+G+G+I = h = I I I I I I I I I G+G+G+G+I I I G+G+G+G+G+G+G+G+G+G+G+G+G+G+I I H H I I I G+G+G+G+G+G+G+G+G+G+G+G+G+G+I H H H = h + h I I H H I I I I I I I I I I I I I = h I G+G+G+G+G+G+I I G+G+G+G+I G+G+G+G+I I H I I G+G+G+G+G+G+G+G+G+G+G+G+G+G+G+G+G+G+G+G+G+G+G+I I G+G+G+I I I I I = = I I I I I G+I = h H I G+G+",
"G+G+G+G+G+I I I I G+G+G+G+G+G+G+G+G+G+G+G+I I I = I I I H # 8 m G+G+G+G+G+G+G+G+G+G+G+I H H I I m 8 # H I H H I I I I I I I I I G+I I I h = I G+G+I I G+I I I G+G+G+G+I G+G+G+I I H H I I G+G+G+G+I G+G+G+G+G+G+G+G+G+G+G+G+G+G+G+G+G+I I I G+G+G+I I I I H = h H H H H H I I H h h I G+G+G+H H I G+G+I I G+G+G+G+G+G+G+G+G+G+G+G+G+G+G+G+G+G+&.X.=.=.G+G+G+G+F+G.&.G.Y.F.D.V.N.N.N.W.F.M.++V.V.u.C..+n.&...G+G+G+G+G+G+G+G+G+G+G+G+G+G+G+G+G+G+G+G+G+G+G+G+G+I = = = H I = H I I I G+G+G+G+G+I I I I G+G+G+G+G+G+G+G+G+G+G+G+I I I I H I I I G+G+G+G+G+G+G+G+G+G+G+G+G+G+I H I I G+G+I = H I I I I I I I I I I I I G+G+I I H = I G+G+G+I G+I h h I G+G+G+I I G+G+G+I H H I G+G+G+G+I I G+G+G+G+G+G+G+G+G+G+G+G+G+G+G+G+G+G+G+G+G+G+G+H h h h h + * h h = = H I I H h = I G+G+",
"G+G+G+G+G+I I I I G+G+G+G+G+G+G+G+G+G+G+G+I I I I I G+I . 8 ( G+G+G+G+G+G+G+G+G+G+G+I H H I G+G+( 8 m I I I I I G+G+G+G+G+G+I I I I I I = = I G+G+I I I H h H I G+G+G+G+G+G+G+G+I I I I G+G+G+G+G+I G+G+G+G+G+G+G+G+G+G+G+G+G+G+G+G+G+G+G+G+G+G+I H H h h h h * + h = = = H H I I H H I G+G+I h + H G+I H G+G+G+G+G+G+G+G+G+G+G+G+G+G+G+G+G+G+=.E+..a+G+G+G+G+I a+` 9.Y.B.U.W.w.U.U.C.F.w.,+W.M.M.E..+P.&.E+G+G+G+G+G+G+G+G+G+G+G+G+G+G+G+G+G+G+G+G+G+G+G+G+G+I H H H h H I H I I G+G+G+G+G+G+G+I H I G+G+G+G+G+G+G+G+G+G+G+G+I I I G+G+G+G+I I I G+G+G+G+I I G+G+G+G+I I H H H I G+G+G+= h = I I I H I G+G+G+G+G+I I I I I I H I G+G+I I I I H H I G+G+G+G+I I G+G+G+I G+G+G+G+G+G+G+G+G+G+G+G+G+G+G+G+G+G+G+G+G+G+G+G+G+G+G+G+G+G+G+I H = H H h * + H H H H I G+I I I I G+G+",
"G+G+G+G+G+I H H I G+G+G+I I I G+G+G+G+G+I I H I G+G+G+m 8 # = G+I I I H I I I I I I H H H I G+= 4 4 h h = I G+H H G+G+G+G+G+I I I I I I H I I G+G+I H H H I H I I G+G+G+G+G+G+G+G+G+G+G+G+G+G+G+G+G+G+G+G+G+G+G+G+G+G+G+G+G+G+G+G+G+G+G+G+G+G+G+G+I I H H H h + h H I I I I I G+G+G+G+G+G+I I H h I I H H G+G+G+G+G+G+G+G+G+G+G+G+G+G+G+G+G+G+..=.....G+G+G+G+G+=.&.&.G..+E.C.>.C.Y..+W.++#.D.U.F.B.Y.9.a+7.G+G+G+G+G+G+G+G+G+G+G+G+G+G+G+G+G+G+G+G+G+G+G+G+G+G+I I I H H I G+I G+G+G+G+G+G+G+G+I H I G+G+G+I = I G+G+G+G+G+I I I I G+G+G+G+I H H I I H H H H H I I H H H H H I I I G+I h * * + I I h H G+G+G+G+G+I I I H H I I I I I I I I I I I I I G+G+G+G+G+G+G+G+G+G+G+G+G+G+G+G+G+G+G+G+G+G+G+G+G+G+G+G+G+G+G+G+G+G+G+I G+G+G+G+G+I I I I = + h I G+I I I G+G+G+G+G+G+G+",
"G+G+G+G+G+I H H I G+G+I h h H G+G+G+I I H I I I G+G+= 4 8 m I I H H H H H H H H H H H H H H H . 8 ( h + * h G+H h I G+G+G+G+I I I H H H I I I I I I I H I I I I I I G+G+G+G+G+G+G+G+G+G+G+G+G+G+G+G+G+G+G+G+G+G+G+G+G+G+G+G+G+G+G+G+G+G+I G+G+G+G+G+I I I I h + H I G+G+G+G+I I G+G+G+G+G+G+G+G+G+G+I h H G+G+G+G+G+G+G+G+G+G+G+G+G+G+I I I I E+h+..=.G+G+G+G+G+..=.&.P. .m.$.>.-.$.M.U.M.W.F.F.B.m.G.&.=.F+G+G+G+G+G+G+G+G+G+G+G+G+G+G+G+G+G+G+G+G+G+G+G+G+G+G+G+G+G+G+I I G+G+G+G+G+G+G+G+G+G+I H I I G+I = + h I I I I I H I H I I G+G+G+G+I I I I H H H H I I I I I I I I I I I G+I H h h h H I H H G+G+G+G+I I I H H H I I G+I I I H H I I I H I I G+G+G+G+I I G+G+G+G+G+G+G+G+G+G+G+G+G+G+G+G+G+G+G+G+G+G+G+G+G+G+G+G+G+G+G+G+G+I H I H H h + = G+I I I I I G+G+G+G+G+G+",
"G+G+G+G+G+G+I I I I I I = h = I I I I H H H H I G+I # 8 . I G+I I I H H H I G+G+G+G+G+G+G+G+H 4 4 h I = h = I H H I G+G+G+G+I I I H H H I I I I I I I I I I I I I I I G+G+G+G+G+G+G+G+G+G+G+G+G+G+G+G+G+G+G+G+G+G+G+G+G+G+G+G+G+G+G+G+G+G+G+G+G+G+I I H H H h + I G+I I I I I I G+G+G+G+G+G+G+G+G+G+I h h I G+G+G+G+G+G+G+G+G+G+G+G+I H H H H ......` G+G+G+G+G+=...` G. .n. . ..+B..+E.F.E..+n.n.P.9.a+..F+G+G+G+G+G+G+G+G+I G+G+G+G+G+G+G+G+G+G+G+G+G+G+G+G+G+G+G+G+G+G+G+G+G+G+G+G+G+G+G+G+G+I I I I I I I = H I I I I I H H I I I G+G+G+G+G+G+G+G+I I H H G+G+G+G+G+G+G+G+G+G+G+G+I I I I I I H H I G+G+G+G+I I I H H H I I I I H H H H H = H H I G+G+G+G+G+G+I I G+G+G+G+G+G+G+G+G+I G+G+G+G+G+G+G+G+G+G+G+G+G+G+G+G+G+G+G+G+G+G+I H = = H h + I G+I = H H H H I G+G+G+G+",
"G+G+G+G+G+G+G+G+G+I G+G+I I I I I I I I I I I I G+. 8 # I G+G+G+G+I H H I G+G+G+G+G+G+G+G+G+m 8 ( I G+I I I H h H I G+G+G+G+I I I H H = I I I H H H H H = = H I G+G+G+G+G+G+G+I G+G+G+G+G+G+G+G+G+I I G+G+G+G+G+G+G+G+G+G+G+G+G+G+G+G+G+G+G+G+G+G+I I H H = h h I G+H h = H H H I G+G+G+G+G+G+I I G+I H H I G+G+G+G+G+G+G+G+I G+G+I I H H H H ..7.7.x G+G+G+G+G+=.E+=.&.9.9.9.P.P.n.n.Y.Y.Y.n.X.9.9.X...F+G+G+G+G+G+G+G+G+G+I G+G+G+G+G+G+G+G+G+G+G+G+G+G+G+G+G+G+G+G+G+G+G+G+G+G+G+G+G+G+G+G+G+G+G+I I I G+G+G+I I I I I I I I I I G+G+G+G+G+G+I G+I I I H I G+G+G+G+G+G+G+G+G+G+G+G+G+G+I I I I H H I G+G+G+G+G+I I H H = H I H = h h h h h h = I G+G+G+G+G+G+G+G+I I G+G+G+G+G+G+G+I I G+G+G+G+G+G+G+G+G+G+G+G+G+G+G+G+G+G+G+G+G+G+I H H = = h h I G+H h h H H H h H G+G+G+",
"G+G+G+G+G+G+G+G+G+G+G+G+G+G+G+G+G+G+G+G+I I G+G+h j j = G+I H I I I H H G+G+G+G+G+G+G+G+G+G+# 8 + G+G+I I I H h H I G+G+G+G+I I I H H = I I H h h h h + h h h I G+G+G+G+G+G+G+G+I G+G+G+G+G+G+G+I I I G+G+G+G+G+G+G+G+G+G+G+G+G+G+G+G+G+G+G+G+G+G+I H H H = + h I I h + h = H h h H G+G+G+G+G+I = H I H h I G+G+G+G+I I I I I G+G+G+G+I I I I 7.F+F+&.G+G+G+G+G+=.F+E+..=.=.` X.&.X.9.9.9.9.9.X.X.&.` 7.C+G+G+G+G+G+G+G+G+G+G+G+G+G+G+G+G+G+G+G+G+G+G+G+G+G+G+G+G+G+G+G+G+G+G+G+G+G+G+G+G+G+G+G+G+G+G+G+G+G+G+G+G+G+G+G+G+G+I I G+G+G+G+G+G+G+G+I H H H H H I G+G+I I I I I I G+G+G+G+G+I I I I I H H H G+G+G+G+G+I I H H = H I H = h h + h h h = H G+G+G+G+G+G+G+G+G+I G+G+G+G+G+G+I I I G+G+G+G+G+G+G+G+G+G+G+G+G+G+G+G+G+G+G+G+G+G+I H H H = + + I G+= * + H H = h h I G+G+"};
