/* XPM */
static const char * fs2_btn_quit_hover_xpm[] = {
"131 58 256 2",
"  	c #787074",
". 	c #251C22",
"+ 	c #554C54",
"@ 	c #322A36",
"# 	c #4A434E",
"$ 	c #3E3846",
"% 	c #0E1011",
"& 	c #0C1618",
"* 	c #0F1B1D",
"= 	c #0E1D1E",
"- 	c #414C4C",
"; 	c #495454",
"> 	c #555858",
", 	c #6A7271",
"' 	c #2A3835",
") 	c #5D9B84",
"! 	c #1B2B25",
"~ 	c #77807C",
"{ 	c #6FBE98",
"] 	c #7EBE9F",
"^ 	c #082014",
"/ 	c #030705",
"( 	c #5FB087",
"_ 	c #121E18",
": 	c #5B9477",
"< 	c #50665B",
"[ 	c #65716B",
"} 	c #59A27C",
"| 	c #4F8368",
"1 	c #588C70",
"2 	c #010D06",
"3 	c #51966F",
"4 	c #67A380",
"5 	c #30473A",
"6 	c #23332A",
"7 	c #73A689",
"8 	c #68927A",
"9 	c #081E11",
"0 	c #49775B",
"a 	c #93B4A0",
"b 	c #B9D5C4",
"c 	c #D0E4D8",
"d 	c #597965",
"e 	c #88A794",
"f 	c #D7F1E1",
"g 	c #000B04",
"h 	c #759A82",
"i 	c #A8C1B1",
"j 	c #000602",
"k 	c #30543C",
"l 	c #3D5F48",
"m 	c #52745D",
"n 	c #0F1511",
"o 	c #7FA48B",
"p 	c #354139",
"q 	c #071E0E",
"r 	c #071A0D",
"s 	c #6A8A74",
"t 	c #092110",
"u 	c #081D0E",
"v 	c #5A8667",
"w 	c #637F6B",
"x 	c #636A65",
"y 	c #081F0E",
"z 	c #0A2411",
"A 	c #53825F",
"B 	c #818C84",
"C 	c #020A04",
"D 	c #010502",
"E 	c #061B0B",
"F 	c #051509",
"G 	c #041107",
"H 	c #071D0C",
"I 	c #081E0D",
"J 	c #4B6C53",
"K 	c #9DB5A3",
"L 	c #8C998F",
"M 	c #000902",
"N 	c #071E0C",
"O 	c #06190A",
"P 	c #2D4833",
"Q 	c #546C59",
"R 	c #081D0C",
"S 	c #040E06",
"T 	c #020703",
"U 	c #44674B",
"V 	c #455548",
"W 	c #C8D2CA",
"X 	c #000601",
"Y 	c #070D08",
"Z 	c #567A5C",
"` 	c #455D49",
" .	c #0A1F0D",
"..	c #0B1F0E",
"+.	c #D2D9D3",
"@.	c #0A1B0C",
"#.	c #749678",
"$.	c #68946C",
"%.	c #527155",
"&.	c #B9C3BA",
"*.	c #1A281B",
"=.	c #4B704E",
"-.	c #98A799",
";.	c #A8B5A9",
">.	c #1B321C",
",.	c #68886A",
"'.	c #638464",
").	c #000400",
"!.	c #000200",
"~.	c #010401",
"{.	c #010301",
"].	c #020402",
"^.	c #060A06",
"/.	c #537953",
"(.	c #405440",
"_.	c #637C63",
":.	c #869586",
"<.	c #A4AFA4",
"[.	c #AEB8AE",
"}.	c #C0C9C0",
"|.	c #DEE2DE",
"1.	c #3A5539",
"2.	c #5C745B",
"3.	c #2B3B2A",
"4.	c #546D52",
"5.	c #5F7A5D",
"6.	c #0E170D",
"7.	c #2D412B",
"8.	c #354B32",
"9.	c #455B42",
"0.	c #B5BDB4",
"a.	c #50694C",
"b.	c #536550",
"c.	c #637560",
"d.	c #32472E",
"e.	c #0C110B",
"f.	c #5D6E5A",
"g.	c #95A093",
"h.	c #243221",
"i.	c #333C31",
"j.	c #6D7E69",
"k.	c #73856E",
"l.	c #5D7A54",
"m.	c #5A7353",
"n.	c #364332",
"o.	c #4E5E49",
"p.	c #7B8977",
"q.	c #A0AA9D",
"r.	c #445B3C",
"s.	c #2C3529",
"t.	c #131612",
"u.	c #283A21",
"v.	c #181D16",
"w.	c #151E11",
"x.	c #4C5E44",
"y.	c #5B6C54",
"z.	c #678A57",
"A.	c #58724B",
"B.	c #3F4E38",
"C.	c #3C4737",
"D.	c #6B7D62",
"E.	c #53614C",
"F.	c #0D0F0C",
"G.	c #6A7664",
"H.	c #5D6858",
"I.	c #8F9C89",
"J.	c #1B2415",
"K.	c #39492F",
"L.	c #3C4C32",
"M.	c #44543A",
"N.	c #596A4E",
"O.	c #4B5743",
"P.	c #526941",
"Q.	c #35442A",
"R.	c #4A5A3F",
"S.	c #516146",
"T.	c #5B6653",
"U.	c #345318",
"V.	c #1F3010",
"W.	c #181F12",
"X.	c #323F27",
"Y.	c #222A1B",
"Z.	c #425135",
"`.	c #2E3A23",
" +	c #28321E",
".+	c #2B3521",
"++	c #12160E",
"@+	c #49543D",
"#+	c #14190E",
"$+	c #282D22",
"%+	c #525C46",
"&+	c #57614B",
"*+	c #33392C",
"=+	c #547729",
"-+	c #819B5D",
";+	c #404B30",
">+	c #3B442D",
",+	c #677059",
"'+	c #3C4134",
")+	c #374027",
"!+	c #050603",
"~+	c #1D1F19",
"{+	c #7D9A1F",
"]+	c #10110C",
"^+	c #9CAC3A",
"/+	c #ADB472",
"(+	c #474935",
"_+	c #7B7C69",
":+	c #0A0A07",
"<+	c #070705",
"[+	c #212118",
"}+	c #0C0C09",
"|+	c #2D2B20",
"1+	c #191812",
"2+	c #262219",
"3+	c #1F1C15",
"4+	c #2B261D",
"5+	c #15120D",
"6+	c #17140F",
"7+	c #1E1A14",
"8+	c #251F17",
"9+	c #1B1814",
"0+	c #3E3326",
"a+	c #2A231A",
"b+	c #413629",
"c+	c #372E23",
"d+	c #191510",
"e+	c #66543F",
"f+	c #4C3E2F",
"g+	c #32291F",
"h+	c #45392B",
"i+	c #7F6951",
"j+	c #715E48",
"k+	c #393026",
"l+	c #564635",
"m+	c #5E4D3B",
"n+	c #201A14",
"o+	c #1B1611",
"p+	c #221C16",
"q+	c #110E0B",
"r+	c #1D1813",
"s+	c #13100D",
"t+	c #483E34",
"u+	c #221E1A",
"v+	c #2C1D0F",
"w+	c #261C13",
"x+	c #2B1F15",
"y+	c #170D06",
"z+	c #231810",
"A+	c #564C45",
"B+	c #0D0501",
"C+	c #231610",
"D+	c #716C6B",
"E+	c #090100",
"F+	c #040404",
"G+	c #000000",
"!.!.!.!.!.G+G+G+G+!.).X M g g g M ).).).!.!.!.!.!.!.!.).).).X j j ).!.G+!.G+G+G+G+G+!.!.!.G+G+G z z z z z z z z z F !.G+G+!.).X ).G+!.).).).!.!.).).!.!.!.!.!.!.!.!.G+G+G+G+G+G+G+G+G+G+G+G+!.!.!.!.!.!.!.!.!.).X M ).X X M X M M X {.!.!.!.X X X ).!.!.!.).).X g M X ",
"!.!.!.!.!.!.G+G+G+!.).X M g g g M M ).).G+{.).!.!.!.!.!.!.).j j j ).!.!.!.G+G+G+G+G+!.!.G+G+G z z z z z z z z z O !.G+G+G+G+!.!.G+!.G+!.!.!.!.!.).!.!.!.!.!.!.!.!.!.G+G+G+G+G+G+G+!.!.G+G+G+!.!.!.!.!.!.!.G+G+!.).).).).).X ).X X ).!.G+G+G+!.).!.!.!.!.!.!.).).).).!.",
").!.!.!.!.!.G+G+G+).).X M g 2 g M M ).!.!.!.X ).).!.).!.!.).j j X ).!.G+!.G+G+G+G+G+G+G+!.F z z z z z z z z z O !.G+G+G+G+G+G+G+G+!.!.G+!.!.!.!.).!.!.!.!.!.!.!.!.G+!.G+G+G+G+G+G+!.!.G+G+G+!.!.!.!.).).!.G+G+!.).).).).!.).X ).).X ).!.G+G+!.!.!.!.!.!.!.!.).).).).!.",
").!.!.!.!.!.!.G+!.).).X M g g g M X ).!.G+!.!.).X ).!.!.!.!.).).).!.G+G+G+G+G+G+G+G+G+D O z z z z z z z z z r D !.!.!.G+G+G+G+G+G+G+G+G+!.!.!.!.).!.!.!.!.!.!.).).G+G+!.G+G+G+G+G+!.!.G+G+!.!.G+!.).X X !.G+G+!.!.).!.!.!.G+{.).!.).X ).G+G+!.!.!.!.!.).X X X ).).!.!.",
"X ).).).!.!.!.!.!.).X X M g 2 g M X ).!.G+G+!.!.).).!.!.!.!.).).).!.G+G+G+G+G+G+G+G+C H z z t z z t z z z O D 5+p+8+p+2+A+,+0+g+k+x+x+z+g+c+C+a+g+a+c+g+A+c+4+0+k+8+8+4+a+5+!.G+G+G+!.G+!.).!.G+G+).X X !.G+G+!.!.!.!.G+G+!.G+!.!.!.).X ).!.!.!.!.!.).j M M X ).).!.!.",
"M ).X M ).!.G+!.!.).X M g 2 2 g M M X !.G+G+!.!.!.).!.!.!.!.).).).).C !.G+G+G+G+{.G t z t t t z t z z z O !+n+8+4+0+t+h+  D++ + x D+D+_+_+_+_+_+_+_+D+D+D+> # $ @ . u+8+p+8+p+F+G+G+!.G+).X ).G+G+!.).).!.G+G+!.!.!.G+G+G+G+G+G+!.!.).X X !.!.!.!.).).j M j X ).!.!.G+",
"g ).).M X !.G+!.!.).j M g 2 2 g g M X !.G+G+G+!.).!.!.!.!.!.!.!.~.F ^ S G+G+G+T r t t t t t t t t t z F {.d+b+c+c+#   B I.-+/+/+/+/+/+/+^+^+^+^+^+^+^+^+^+/+/+/+I.B D+# c+8+4+d+G+!.!.G+!.).X !.G+!.!.!.!.!.!.!.!.!.G+G+G+G+!.!.G+G+!.X X ).).).!.).).).X X X ).!.!.G+",
"g ).X M ).!.G+!.!.X X M g 2 2 g M X ).!.G+G+!.!.).).!.!.!.!.!.!.!.G ^ ^ / {.G y t t t t t t t t t t G !.G+:+c+g+c+# -+-+-+/+^+^+^+^+^+^+^+^+^+^+{+{+{+^+^+^+^+^+^+^+-+> '+a+a+r+G+!.!.G+!.).X !.G+G+!.!.!.!.!.!.G+G+G+G+G+G+G+G+!.G+!.).X ).!.!.).).).).).).).).!.!.!.",
"g ).X j ).!.!.!.!.).X M M g g M ).).!.!.G+!.!.X X ).!.G+!.<+d+6+6+8+|+*.v.J.J.J.Y.J.6.6.6.6.6.6.6.F.d+8+4+4+r+a+k+g+6 7.U.=+=+=+=+{+{+{+{+{+{+{+{+{+-+-+-+-+z.=+U.u.! s+d+a+g+f+g+8+8+d+}+:+:+:+:+:+<+:+5+1+5+6+6+6+d+a+8+6+6+d+<+G+G+!.).).!.!.).).).).).).).).).!.!.",
"j ).X X ).).!.!.!.).).).X X X ).).).!.!.!.).X g M ).!.!.7+c+c+g+b+m+h+g+4+a+g+t+b+p+5+5+s+q+q+5+d+r+b+m+f+4+4+4+0+l+b+v+w+9+% & = = ! ! >.>.>.>.>.V.V.V.w.n % % 5+y+y+p+a+4+f+0+l+f+m+b+r+d+5+q+q+s+5+5+p+b+t+g+a+4+g+h+m+b+g+c+c+7+!.G+!.!.!.!.).).!.!.).).).).X ).).",
").).).).).).).!.!.).).).!.!.).!.!.).).!.!.!.).X j ).q+c+f+c+g+g+h+l+l+f+k+a+b+b+a+2+p+7+o+d+o+2+g+l+m+t+l+4+4+c+f+h+4+4+:+}+:+B+B+E+E+B+B+E+B+y+E+E+B+B+:+q+5+o+p+8+2+3+o+5+g+l+e+l+t+m+l+g+2+o+d+o+7+p+2+a+b+b+a+k+f+l+l+h+g+g+c+f+c+q+!.).).).).).!.!.).).).X g X ).",
"!.!.).!.).).).!.!.).).!.!.!.!.!.!.).j ).!.!.).).:+0+l+0+e+k+4+b+c+2+2+4+p+5+n+d+5+5+7+7+1+s+r+7+7+a+8+o+a+a+7+7+o+p+c+a+o+p+a+g+4+k+3+7+8+g+a+n+r+r+p+7+n+8+2+8+r+6+p+4+6+s+o+7+a+a+o+8+a+7+7+r+s+1+7+7+5+5+d+n+5+p+4+2+2+c+b+4+k+e+0+l+0+:+X M M X ).).).).).M g j ).",
"!.!.!.!.).).!.!.!.!.).!.!.!.!.!.!.).X ).G+G+!+|+f+j+m+b+l+c+a+7+}+].{.{.].^.Y }+:+:+e.6.n 6.e.e.e.^.^.^./ D D / Y ^.^.Y e.e.C T T D ^.^.T T T C C ^./ ^.!+^.^.C e.e.Y ^.^.Y / D D / ^.^.^.e.e.e.6.n 6.e.:+:+}+Y ^.].{.{.].}+7+a+c+l+b+m+j+f+|+S g g M X X X ).X M ).!.",
"j D !.!.!.!.!.!.!.).).!.!.!.!.G+G+!.).!.!.q+l+m+m+i+f+0+c+[+e.:+^.^.}+:+}+]+#+W.W.W.W.>.h.h.Y.W.w.#+++w.w.w.J.W.*.*.h.>.*.*.J.J.w.J.J.w.W.W.v.Y.*.>.*.W.J.J.W.J.*.*.>.h.*.*.W.J.w.w.w.++#+w.W.Y.h.h.>.W.W.W.W.#+]+}+:+}+^.^.:+e.[+c+0+f+i+m+m+l+6.g g M j ).).).).!.!.",
"E F F G S S M j X ).).!.!.).D D T 2 G F |+0+0+l+e+e+h+4+]+^.:+:+}+e.++++W.J.Y.J.J.Y..+3.3.u.h.W.J. +3.u.u.7.d.7.P P P P P 3.7.d.u.u.h.u.Y.W.W.h.h.3.u.X. + +u.7.3.P P P P P 7.d.7.u.u.3. +J.W.h.u.3.3..+Y.J.J.Y.J.W.++++e.}+:+:+^.]+4+h+e+e+l+0+0+|+G g X ).!.!.!.!.!.",
"N q y q N H E E O O O F O O O E E N q (+e+k+c+f+l+0+5+/ !+^.]+#+#+J.Y.Y. +X.`.`.X.Q.K.Q.7.u.u.P 7.7.d.7.u.`.8.P 8.l U U 1.7.P d.u.u.7.d.3.P 7.u.u.d.d.L.Q.K.X.P 7.1.U U l 8.P 8.`.u.7.d.7.7.P u.u.7.Q.K.Q.X.`.`.X. +Y.Y.J.#+#+]+^.!+/ 5+0+l+f+c+k+e+t+g ).).).!.!.!.!.",
"H H N N H H N N N q N N q y N N N N N j+m+m+h+c+]+D !+:+#+Y.Y.W.Y..+ + +.+`.X.X.X.X.Q.8.8.Q.k k k 1.1.1.1.L.d.k k 0 | | l P k d.L.1.r.8.1.k k P Q.8.K.Q.X.X.Q.k P l | | 0 k k d.L.1.1.1.1.k k k Q.8.8.Q.X.X.X.X.`..+ + +.+Y.W.Y.Y.#+:+!+D ]+c+h+m+m+j+M X ).).).!.!.!.",
"H H H H H H H H H H H H H H H N N N H b+A+i+a+{.~.<+e.J.3.X.`.`. +X.`..+`.`.`.X..+Q.1.U U 1.J 2.2.r.=.a.b.Q (.(.U l 0 U U l (.9.J a.U U 1.2.m l 1.U U Z.X.`.d.(.l U U 0 l U (.(.4.a.U U 1.4.2.=.1.U U 1.Q..+X.`.`.`..+`.X. +`.`.X.3.J.e.<+~.{.a+i+A+b+C j j j j ).!.!.",
"H H H H H H H H H H H H H H H H H H H m+_+i+3+/ :+e.J. +X.L.L.)+>+K.Q.K.K.L.U 9.d.r.=.0 =.` J S.&+a._.y.y.,.f.b.v A r.U A m V c.2.x.R.U 8.;+1.U 9.0 0 a.L.8.U V m v =.U A v ` b._.x.R.a.1.@+M.U ` =.0 =.9.8.9.U L.K.K.Q.K.>+)+L.L.X. +J.e.:+/ 3+i+_+m+2 ).j M j ).!.!.",
"H H H H H H H H H H H H H H H H H H H e+i+i+a+Y W.Y. +)+X. +`.`..+Y. +X.Q.L.R.M.K.B.0 | 4.d 8 s p.I.g.p.j.k.k.G.s ,.9.U v %.T.,+b.o.S.D.4.l 0 1 2.d 1 Z B.K.R.&+2.8 Z b.,.v b.y.E.o.T.p.k._.,.8 s w 8 v E.(.r.x.L.Q.X. +Y..+`.`. +X.)+ +Y.W.Y a+i+i+e+2 ).!.D j !.!.!.",
"O E H N N N N N N q q q q q N N N N N j+i+j+|+w.Y.`.`.;+Z.Q.)+;+K.X.Q.`.K.M.M.B.n.*+J d y.s e -.q.<.<.q.q.g.:.B :.p.Q 4.5.f.f.G.G.c.o.x.P.2.,.8 k.k.#.Q C.(.x.o._.p.k.w k.j.f.c.j.k.k.:.g.q.K K -.:.L B f.H.E.%+@+K.`.Q.X.K.;+)+Q.Z.;+`.`.Y.w.|+j+i+j+C ).!.!.).!.G+G+",
"G T T S G G F F F F F F F F F F G G G e+j+j+c+J. +K.K.;+Z.L.L.K.L.Z.Q.>+>+>+L.>+>+L.o.H.k.I.K q.[.&.}.W }.&.&.[.-.I.p._.4._.:.g.I.B k.b.M.x.2.o I.g.:.j.E.@+E.k.p.:.I.I.B p.:.-.-.q.[.0.&.}.}.W }.0.[.<.I._+H.%+(+K.>+Q.Z.L.K.L.L.Z.;+K.K. +J.c+j+j+e+g ).G+G+G+G+G+G+",
"y O C G+G+G+G+G+G+G+G+G+G+G+G+G+G+G+!.m+i+i+|+J.)+Z.X.)+M.r.M.Z.M.K.X.`.X.;+K.)+M.@+@+c.B g.[.&.W W +.+.+.W W }.&.[.L k.j.p.-.<.;.q.I.G.o.2.k.g.-.;.g.p.G.y.T.:.g.<.;.<.-.g.<.[.0.}.W +.|.|.|.|.+.W W &.;.g.j.&+O.)+`.X.K.M.Z.M.r.M.)+X.Z.)+J.|+i+i+m+M ).G+G+G+G+G+!.",
"y y q F T G+G+G+G+G+G+!.!.G+G+G+G+G+!.l+j+j+a+J.r.M.L.>+R.R.R.Z.r.L.Q.)+>+;+>+K.M.4.2.p.-.L > - - - - - - - - - ; :.0.-.B :.;.- - ~ -.j.y.w p.q.~ - - <.B G.j.g.[.- - ~ 0.;.[.- - - ; ; ; ; ; ; ; ; - B }.q.p.H.O.;+)+Q.L.r.Z.R.R.R.>+L.M.r.J.a+j+j+l+j !.G+G+G+G+G+G+",
"y y y y u G j G+G+G+G+G+!.G+G+G+G+G+G+l+e+e+a+W.>+;+x.M.M.@+Z.Z.M.L.Q.;+;+;+M.B.%+T.j.:.<.' * * * * * * * * * * * * &.[.-.-.[.* * ~ ;.:.H.G.e [.~ * * 0.g.p.:.<.}.* * ~ }.0.0.* * * * * * * * * * * * ~ &.<.B c.x.Z.;+Q.L.M.Z.Z.@+M.M.x.;+>+W.a+e+e+l+X !.G+G+G+G+G+G+",
"N y q N y y r G D G+G+G+G+!.!.G+G+G+G+l+m+e+|+Y.>+P.S.r.;+B.M.r.K.Q.>+;+r.9.M.M.E.c.B -.;.* * < L L :.:.L L g.~ * * q.&.[.q.&.* * ~ 0.L G.c.-.&.~ * * }.<.:.I.[.W * * B W 0.[.:.g.q.<.[.* * , [.;.<.-.;.[.g.p.,+a.R.;+>+Q.K.r.M.B.;+r.S.P.>+Y.|+e+m+l+).).!.G+G+!.).).",
"N q y q N q y y E S D G+G+G+!.G+G+G+G+f+l+m+|+Y.>+;+Q.@+x.x.m.A.o.Z.Z.@+S.x.@+M.S.j.:.g.;.* * [ <.-.g.L L q.[.g.* * <.W 0.[.}.* * ~ &.L G.c.L &.~ * * W ;.I.g.0.+.* * B W [.q.-.;.&.+.|.* * B |.+.}.;.q.g.p.,+&+b.S.@+Z.Z.o.A.m.x.x.@+Q.;+>+Y.|+m+l+f+).).!.).!.).M M ",
"I N N N N q I I N y O S D G+G+!.G+G+G+h+l+m+4+h.R.D._+p.[.-.h ,.N.R.Z.Z.Z.1.K.r.b.G.B q.0.* * [ q.B k.G._.p.-.L * * <.W &.0.}.* * ~ }.-.k.j.g.}.B * * +.0.g.g.0.+.* * B +.[.L p.B q.&.+.* * B |.W ;.B j.j.c.b.M.M.M.Z.Z.R.N.,.h -.[.p._+D.R.h.4+m+l+h+X ).).).).).M M ",
"I N N N I I N I I I y q O S D G+G+G+G+h+l+l+|+n.y.,+D.f.o.l.z.=.8.r.Z.(+R.U r.2.2.k.:.<.&.* * [ g.:.c.T.b.w L L * * <.+.}.0.}.* * ~ &.-.k.G.g.W B * * +.&.q.q.&.+.* * B +.;.B 5.2.B <.W * * B |.}.g.j.y.2.y.2.9.a.R.(+Z.r.8.=.z.l.o.f.D.,+y.n.|+l+l+f+M ).).).).).M M ",
"N q N N N I N N I N I N q I r G D !.G+0+f+f+|+s.B.L.K.r.U /.A.P././.E.R.m.J 9.N.T.k.I.[.}.* * , ;.-.[ 6 f.#.-.L * * <.c W &.}.* * ~ }.;.L p.-.}.B * * +.0.-.-.&.c * * B c i :.v 0 k.<.W * * B |.}.g.,+x.E.R.N.9.J m.R.E././.P.A./.U r.K.L.B.s.|+f+f+0+g ).!.).!.).M X ",
"N N N N q q N q q N N I N I N y H F C g+f+h+3+h.9.b.m.,.,.v z.A.=.$.A %.Z A %.R.&+k.q.0.W * * ~ }.&.[ * p e K B * * <.c b [.&.* * ~ W &.<.-.[.W B * * +.0.g.g.0.+.* * B c ;.k.1 0 G.K W * * B |.&.g.j.c.x.M.R.%.A Z %.A $.=.A.z.v ,.,.m.b.9.h.3+h+f+g+g ).!.!.!.X g G ",
"N N N N N N N N N q N I N N I N q y H b+f+f+4+7.c._.'.b.'.'.$.$.=.$.} A Z | d @+@+j.-.;.}.* * ~ +.+.W ! * L &.:.* * q.b [.<.0.* * ~ +.W }.0.}.W B * * +.[.:.g.;.W * * B W q.k.v 0 f.-.W * * B +.0.I.f.2.x.>+M.d | Z A } $.=.$.$.'.'.b.'._.c.7.4+f+f+0+X !.G+!.j G r y ",
"I N N I N N N I N I N N N N N I q N N b+l+f+|+7.b._.c.2.8 w ,.o $.z.4 1 Z Q 5.b.f.:.I.q.&.! * * * * * * * * * * * * <.&.K q.i ! * * * * * * * * * * ! +.&.I.I.K }.* * B W q.#.v J 2.-.}.* * B c &.L H.2.s 4.E.5.Q Z 1 4 z.$.o ,.w 8 2.c._.b.7.|+f+l+0+!.{.C F I t t t ",
"I N N N N N N N N I N N N N N N I I N 0+f+f+4+s.9.O.E.4.f.E.'.$.'.$.$.,.T.G.&+T.,.o :.<.W B ' * * * * * * * * * ! x i -.g.g.;.~ ' * * * * * * * * ' B }.&.g.B K &.* * ~ 0.-.h 1 A w I.[.* * B c b i k.c.8 ,.T.&+G.T.,.$.$.'.$.'.E.f.4.E.O.9.s.4+f+f+k+G O y t t t t y ",
"N N I N I N N N I N N I N N I N N N I c+h+b+[+$+o.%+b.%.E.E.%+2.5.'.5.N.@+M.@+b.2._.k.B <.b f f +.W +.+.> * x W &.;.;.L k.p.I.i b W W W W c f c W }.0.;.I.:.k.I.<.0.}.}.-.:.,.| 1 2.p.<.0.+.f c i L c.2.2.2.b.@+M.@+N.5.'.5.2.%+E.E.%.b.%+o.$+[+b+h+c+t t y y y y y y ",
"H H H N N N I N N N N H N N N I I N N c+0+h+2+.+B.@+y.T.b.O.b.y.'.5.S.%+,+%+%+x.l.y.w :.:.K b W }.&.W }.g.* * [.i -.g.p.m ,.e i i 0.W W &.b W b i q.;.:.p.D.c.o e e <.<.:.s $.( 1 E.s K ;.}.c b K p.s d N.l.x.%+%+,+%+S.5.'.y.b.O.b.T.y.@+B..+2+h+0+c+y y y y y y y y ",
"H N N H H H N N u u N H H u I N N I N b+0+k+3+.+B.B.E.S.o.O.@+%+'.x.@+T.p.D.S.E.5.D.#.o h e e a -.-.;.[.i ; - [ K a h 8 | 4.d ] a <.[.[.<.K K a e e a B k.5.2.d k.7 e o h d 4.3 ( '.s I.-.K i K e h h p.D.5.E.S.D.p.T.@+x.'.%+@+O.o.S.E.B.B..+3+k+0+b+y  .y y y y y y ",
"H H u H N H H N H H H u H N H N N N I c+c+h+r+[+M.o.4.%.%.%+@+E.%+D.D._.#._.R.O.2.k.,.h o 7 h e h k.p.B g.a a I.:.] h 4 | B.a.} h :.:.B :.o e o o o h ,.k.y.o.4.E.8 7 8 ( b.x.A 3 5.c.j.p.e a e o o h w k.2.O.R._.#._.D.D.%+E.@+%+%.%.4.o.M.[+r+h+c+k+I y y y y y y y ",
"N H H N H H H I H H N N H H N H N N N c+h+h+r+Y.O.5.2.,.%.O.%+o.%+x.R.a.b._.f.y.x.w s h o s j.D.#.B p.D._.7 o p.#.{ 1 } } x.4.} 1 f.k.B o #.j.w #.o 8 s f.o.2.4.b.} 4 v ( %.S.3 3 U f.p.:.o k.p.h o h s w x.y.f._.b.a.R.x.%+o.%+O.%.,.2.5.O.Y.r+h+h+c+y y y y y y I y ",
"N H H H H H H H N H H H N H H H H N H g+k+c+1+*.a.,.5.#.4.E.S.Z.%+o.Q m.x.O.2.2.9.4.,.7 8 s _.m.'.D.o.@+f.7 8 D.$.{ 1 } ( =.4.: : o.@+T.j._.5.w s h h D.o.9.'.4.=.( } 1 { A a.v : b.B.o.j.,.5.j.s 8 7 ,.4.9.2.2.O.x.m.Q o.%+Z.S.E.4.#.5.,.a.*.1+c+k+g+q I q y y y y y ",
"H H H u H H H H H H N H N H H N u H H 2+a+p+d+[+r.m.#.h v a.@+(+S.%+_.c.b.(.O.9.m _.#.7 w d '.'.=.B.o.(.Q : 1 2.d ) 1 : : J /.: 1 o.9.9.B.Z '.,.d 8 7 ,.w J o./.J : : 1 ) m 4.| : 4.(.o.B.%.'.,.d w 7 #._.m 9.O.(.b.c._.%+S.(+@+a.v h #.m.r.[+d+p+a+2+N I y q q y q I ",
"H H H H H H H H H H H H H H H N H H H 7+p+n+[+Y.L.a.y.k.'.a.&+@+N.y.T.T.y.E.O.Q d 2.,.h s l.Z Z x.%+N.@+%.) : %.v 3 1 1 : 0 %.) : a.O.N.O.a.Z /.5.#.#.'.5.d b.%.0 : 1 1 3 | J : ) %.@+N.%+S.5.Z l.s h ,.2.d Q O.E.y.T.T.y.N.@+&+a.'.k.y.a.L.Y.[+n+p+7+I y q N N I q I ",
"N H H H H H H H H H H H H H H H H H H 1+o+7+[+$+)+A.m.k.h v y.f.f.y.E.O.@+o.k.c.d d ,.s D.'.Z d f.&+@+B.J | d %.1 1 0 | : A 4.d | o.B.O.E.2.d A '.j.s '.d _.j.4.A : | 0 1 1 %.d | J B.@+&+f.d Z '.D.s ,.d d c.k.o.@+O.E.y.f.f.y.v h k.m.A.)+$+[+7+o+1+N I N N I q N q ",
"O H N H H H H H H H H H H H H H H H H 3+p+7+2+$+B.k.k.D.#.v m.,.$.h d E._.s '.#.7 7 4 '.J %.d d m 9.9.a.%.0 2.m : ) 0 | ) v m._.0 m.U (.o.d d m J %.'.4 7 h ,.m.v ) | 0 ) : m 2.0 %.a.9.9.m d d %.J '.4 7 7 #.'.s _.E.d h $.,.m.v #.D.k.k.B.$+2+7+p+3+I N I N q N q I ",
"D S O H N H H H H H H H H H H H H H H g+p+n+|+$+C.p.D.S.D.,.,.,.'.4 8 c.,.o #.s ] { 7 Z U 0 ) w | U (.x.%+0 4.c.m 0 U U 0 Q E.J J %+` 9.0 1 8 1 1.n.l 0 1 v (.E.Q 0 U U 0 m c.4.0 %+x.(.U | w ) 0 U Z 7 { ] s #.o ,.c.8 4 '.,.,.,.D.S.D.p.C.$+|+n+p+g+N N N N N I q q ",
"G+!.D S O H N N H H H H H H H H H H H 4+c+h+2+v.$+'+x.Z.N.N._.5.o.b.Q O.y.,.#.$.7 { 7 v A : d Q d < ` (.B.(.C.B.p k U U l V C.n.B.C.(.V < w d 0 k 3.' 5 P i.3.C.V l U U k p B.C.(.B.(.` < d Q d : A v 7 { 7 $.#.,.y.O.Q b.o.5._.N.N.Z.x.'+$+v.2+h+c+4+I N N I I N N q ",
"!.!.G+G+{.2 F H q H H H H H H H H H H h+f+m+|+e.t.W. + +$+*+(.` n.s.i.*+'+M.(.(.l J J l l V p *+3.s.s.i.s.3.h.~+v.6 P k 5 $+$+s.h.$+*+s.i.i.s.s.6 ! *.! ! 6 6 $+$+5 k P 6 v.~+h.3.s.i.s.s.3.*+p V l l J J l (.(.M.'+*+i.s.n.` (.*+$+ + +W.t.e.|+m+f+h+I N N N N N N N ",
"!.!.!.G+G+G+{.C F E N N H H H H H H H h+b+f+4+].!.{./ T !+^.n n Y }+F.]+F.n n _ _ _ _ _ n ]+n t.n F.n n F.Y :+:+}+n % _ _ F.}+^.^.^.n v.v.e.Y :+:+Y e.e.F.n n }+F._ _ % n }+:+:+Y F.n n F.n t.n ]+n _ _ _ _ _ n n F.]+F.}+Y n n ^.!+T / {.!.].4+f+b+h+N N I N I N N I ",
"!.!.!.G+G+G+!.!.!.T G O N q N H H H H h+f+h+c+n+d+n+n+n+o+5+q+q+q+q+q+}+q+q+q+q+q+s+q+5+5+o+o+s+s+q+s+s+q+q+q+q+q+}+}+}+:+:+:+:+:+:+<+:+:+<+!+<+<+<+<+<+<+:+q+:+:+:+}+}+}+q+q+q+q+q+s+s+q+s+s+o+o+5+5+q+s+q+q+q+q+q+}+q+q+q+q+q+5+o+n+n+n+d+n+c+h+f+h+N N N I N N N N ",
"!.!.!.G+G+G+!.!.G+G+G+~.2 F E q N H H f+f+f+f+l+0+h+b+h+c+g+g+4+2+a+8+8+p+p+p+p+p+p+8+2+a+a+p+n+n+7+n+p+p+p+7+7+r+o+o+d+d+5+5+5+5+5+5+5+5+q+:+}+q+q+q+}+s+q+o+5+5+d+d+o+o+r+7+7+p+p+p+n+7+n+n+p+a+a+2+8+p+p+p+p+p+p+8+8+a+2+4+g+g+c+h+b+h+0+l+f+f+f+f+u N N N N N H N ",
"G+!.!.G+G+G+!.!.!.!.G+G+G+{.T G O H N b+h+h+l+f+0+h+c+h+k+g+a+a+2+2+p+2+p+n+8+8+4+p+n+o+r+o+d+o+o+o+r+n+7+o+o+5+6+6+6+5+5+5+s+q+q+q+q+s+s+s+q+:+}+}+q+q+q+q+5+s+5+5+5+6+6+6+5+o+o+7+n+r+o+o+o+d+o+r+o+n+p+4+8+8+n+p+2+p+2+2+a+a+g+k+h+c+h+0+f+l+h+h+b+I N N H N N N y ",
"!.!.!.G+G+G+!.!.!.!.!.G+!.!.G+!.~.C F g+0+b+b+c+g+b+0+c+g+2+2+a+a+8+3+r+7+r+2+8+2+r+r+6+d+o+6+6+d+6+o+o+o+6+5+5+5+5+5+]+q+s+s+q+q+q+s+s+q+5+5+q+}+:+}+q+q+q+}+s+s+q+]+5+5+5+5+5+6+1+1+o+6+d+6+6+o+d+6+r+r+2+8+2+r+7+r+3+8+a+a+2+2+g+c+0+b+g+c+b+b+0+g+N N N N N E F G ",
"!.!.!.!.G+G+!.!.!.!.!.G+G+!.!.!.G+G+G+/ Y F @. . .....I u u u u u u u R R R R R R R R R R R R R R R R ^.F+<+6.R R R R R R R R 1+<+<+:+:+F.q+q+:+:+:+}+F.<+F+Y R R R R R R R R R R R R R R R R R R R R R R R R R I R R I u 9 ^ 9 u I I .... . . ... . .N N E O F 2 X X ",
"!.!.!.!.G+G+!.!.!.!.!.!.!.G+!.!.!.!.!.G+G+!.D 2 F E H N N N H H H H H H H H H H H H H H H H H H H H H ^.!+:+F H H H H H H H H ~+<+:+}+s+6+1+s+s+q+s+F.t.}+].Y H H H H H H H H H H H H H H H H H H H H H H H H H H H H H H q ^ 9 H H N R H q q N I N E F G C M j X !.!.",
"!.!.!.!.G+G+!.!.!.!.!.!.!.!.G+!.!.!.!.!.G+G+G+G+!.D 2 G O r N q N H H H H H H H H H H H H H H H H H H ^.:+F.F H H H H H H H H v.:+}+5+1+7+1+6+9+9+7+1+t.t.F+Y H H H H H H H H H H H H H H H H H H H H H H H H H H H H H H H ^ 9 H H H N 9 ^ 9 O F G M ).).).X ).!.!.G+",
"!.G+G+!.G+G+!.!.!.G+!.!.!.!.G+G+!.!.!.!.G+G+G+G+G+G+!.G+{.T S F E H N N N H H H H H H H H H H H H H H Y }+}+6.H H H H H H H H ~+}+5+3+3+u+u+7+u+4+u+4+3+t.<+Y H H H H H H H H H H H H H H H H H H H H H H H H H H H H H H H ^ ^ u N q O O ^ 9 j !.).{.).).X ).).!.G+G+",
"!.!.!.!.G+G+!.!.!.!.G+!.!.!.!.!.G+!.!.!.G+G+G+G+G+!.!.!.!.G+!.).j C G F r H N q q N H H H H H H H H H }+q+6+w.H H H H H H H H Y.]+9+a+|+4+|+a+k+b+c+k+4+~+}+e.H H H H H H H H H H H H H H H H H H H H H H H H H H H N N q N 9 ^ r G C D D 9 ^ / !.).).).X M g M X ).!.",
"!.!.!.!.G+!.!.!.!.!.!.!.!.!.!.!.!.G+!.!.G+G+G+G+G+!.!.!.!.!.).!.!.!.!.!.~.C S F O E H N q N H H H H H F.5+7+w.H H H H H H H H [+d+3+|+h+h+t+t+(+l+t+t+'+$+F.e.H H H H H H H H H H H H H H H H H H H H H H H N N N H E O F S r ^ G G+G+G+G+F ^ F !.).).).M 2 2 2 g M X "};
