/* XPM */
static const char * fs2_btn_uninstall_hover_xpm[] = {
"131 58 256 2",
"  	c #787172",
". 	c #565254",
"+ 	c #251D23",
"@ 	c #4B454B",
"# 	c #332B37",
"$ 	c #101012",
"% 	c #0F1B1D",
"& 	c #111D1F",
"* 	c #131F21",
"= 	c #162224",
"- 	c #1E2A2C",
"; 	c #2C3739",
"> 	c #192526",
", 	c #1C2728",
"' 	c #263031",
") 	c #010303",
"! 	c #374141",
"~ 	c #424C4C",
"{ 	c #495353",
"] 	c #525B5A",
"^ 	c #586160",
"/ 	c #626B69",
"( 	c #697270",
"_ 	c #8B9491",
": 	c #163026",
"< 	c #7B8581",
"[ 	c #727B77",
"} 	c #010E08",
"| 	c #5EA384",
"1 	c #60957B",
"2 	c #010503",
"3 	c #030705",
"4 	c #86A696",
"5 	c #353D39",
"6 	c #969E9A",
"7 	c #04110A",
"8 	c #7CBD9A",
"9 	c #94C5AB",
"0 	c #A3D1B9",
"a 	c #9DB9AA",
"b 	c #73A58A",
"c 	c #588C6E",
"d 	c #B0B7B3",
"e 	c #0D2B19",
"f 	c #4C765D",
"g 	c #95B6A2",
"h 	c #020A05",
"i 	c #0F2F1B",
"j 	c #0B2013",
"k 	c #0E2D19",
"l 	c #0D1811",
"m 	c #7BAE8D",
"n 	c #AEC2B5",
"o 	c #010D05",
"p 	c #010703",
"q 	c #0D2B17",
"r 	c #6E9F7E",
"s 	c #121814",
"t 	c #0E110F",
"u 	c #B7D7C2",
"v 	c #E4EAE6",
"w 	c #D7DDD9",
"x 	c #31553C",
"y 	c #688D73",
"z 	c #5B7B65",
"A 	c #142519",
"B 	c #182A1D",
"C 	c #538361",
"D 	c #233528",
"E 	c #A4ABA6",
"F 	c #1E2D22",
"G 	c #416049",
"H 	c #3A5541",
"I 	c #010903",
"J 	c #416E4C",
"K 	c #A3BBA8",
"L 	c #CDDBD0",
"M 	c #010B03",
"N 	c #1F3423",
"O 	c #2E4833",
"P 	c #93B499",
"Q 	c #D3DDD5",
"R 	c #0A100B",
"S 	c #4D6C52",
"T 	c #5A6C5D",
"U 	c #A4C5A9",
"V 	c #A5B5A7",
"W 	c #C1D1C3",
"X 	c #2E3C2F",
"Y 	c #668468",
"Z 	c #8BA48D",
"` 	c #ADBCAE",
" .	c #283C29",
"..	c #2C4E2D",
"+.	c #709071",
"@.	c #010901",
"#.	c #010701",
"$.	c #010501",
"%.	c #030B03",
"&.	c #030903",
"*.	c #010301",
"=.	c #030703",
"-.	c #060D06",
";.	c #060A06",
">.	c #030503",
",.	c #3E633E",
"'.	c #5B775B",
").	c #475847",
"!.	c #BAC4BA",
"~.	c #DCE3DC",
"{.	c #E1E5E1",
"].	c #EEF1EE",
"^.	c #DBDEDB",
"/.	c #1C331B",
"(.	c #7C937B",
"_.	c #172816",
":.	c #4B6749",
"<.	c #A3B1A2",
"[.	c #141E13",
"}.	c #557052",
"|.	c #2C4329",
"1.	c #182017",
"2.	c #858D84",
"3.	c #B6BEB5",
"4.	c #CBD1CA",
"5.	c #3C5637",
"6.	c #0D120C",
"7.	c #465B42",
"8.	c #394836",
"9.	c #889784",
"0.	c #A0A89E",
"a.	c #D3D7D2",
"b.	c #364C2F",
"c.	c #263322",
"d.	c #ADB4AB",
"e.	c #283D21",
"f.	c #172313",
"g.	c #1F2B1B",
"h.	c #10160E",
"i.	c #0A0D09",
"j.	c #9DC191",
"k.	c #455440",
"l.	c #C7CDC5",
"m.	c #050A03",
"n.	c #6B7B65",
"o.	c #9BA697",
"p.	c #5C6C55",
"q.	c #76866F",
"r.	c #030701",
"s.	c #1D2C16",
"t.	c #3C4E33",
"u.	c #1D2519",
"v.	c #505E49",
"w.	c #96A290",
"x.	c #D0D4CE",
"y.	c #D8DCD6",
"z.	c #34452B",
"A.	c #465A3B",
"B.	c #182610",
"C.	c #4D6042",
"D.	c #55644C",
"E.	c #717E69",
"F.	c #C2C7BF",
"G.	c #1B2415",
"H.	c #2B3723",
"I.	c #425138",
"J.	c #617355",
"K.	c #282E24",
"L.	c #67755E",
"M.	c #626E5A",
"N.	c #919A8B",
"O.	c #AAB2A5",
"P.	c #B2B8AE",
"Q.	c #223018",
"R.	c #688652",
"S.	c #808A79",
"T.	c #27341D",
"U.	c #5A6750",
"V.	c #2F342B",
"W.	c #345418",
"X.	c #141A0F",
"Y.	c #181F12",
"Z.	c #242D1C",
"`.	c #4E712C",
" +	c #2F3C23",
".+	c #334027",
"++	c #030501",
"@+	c #3A452F",
"#+	c #4C5642",
"$+	c #0A0B09",
"%+	c #21241E",
"&+	c #4F5648",
"*+	c #444B3C",
"=+	c #6C8F21",
"-+	c #89A351",
";+	c #050603",
">+	c #10120B",
",+	c #414731",
"'+	c #191B14",
")+	c #1E1F1B",
"!+	c #A5B05C",
"~+	c #9DAC2F",
"{+	c #B4B97A",
"]+	c #030301",
"^+	c #070705",
"/+	c #1A1A17",
"(+	c #212017",
"_+	c #2E2C22",
":+	c #706F6A",
"<+	c #29271E",
"[+	c #7D7765",
"}+	c #262218",
"|+	c #171510",
"1+	c #2A251B",
"2+	c #13110D",
"3+	c #0A0907",
"4+	c #1E1A13",
"5+	c #726858",
"6+	c #0D0B08",
"7+	c #0F0D0A",
"8+	c #1F1B15",
"9+	c #5E564A",
"0+	c #120F0B",
"a+	c #322A1F",
"b+	c #251F17",
"c+	c #211C15",
"d+	c #2D251B",
"e+	c #362D22",
"f+	c #191510",
"g+	c #574E43",
"h+	c #78624A",
"i+	c #2E261D",
"j+	c #564737",
"k+	c #45392C",
"l+	c #4B3F31",
"m+	c #18110A",
"n+	c #271D13",
"o+	c #211A13",
"p+	c #2A221A",
"q+	c #62503D",
"r+	c #16120E",
"s+	c #272019",
"t+	c #1C1712",
"u+	c #3E3328",
"v+	c #826C55",
"w+	c #231D17",
"x+	c #6A5A49",
"y+	c #282420",
"z+	c #2D1D0F",
"A+	c #251B15",
"B+	c #0D0501",
"C+	c #291D19",
"D+	c #060202",
"E+	c #030101",
"F+	c #030303",
"G+	c #010101",
"*.$.$.*.*.*.$.#.#.#.#.@.@.@.@.I I I @.$.G+G+G+*.G+G+G+*.G+G+G+G+G+G+G+G+$.#.2 $.G+G+G+G+G+G+G+G+G+G+G+G+G+G+G+$.p 2 *.G+G+G+G+G+G+G+G+G+G+G+G+G+*.$.$.$.$.G+G+*.$.$.#.*.*.*.$.$.$.*.*.$.$.$.$.$.$.$.$.*.*.*.*.*.*.*.G+*.*.*.G+G+G+G+G+G+G+G+*.G+2 p p p 2 2 2 #.#.$.$.",
"G+*.$.G+G+G+G+G+G+G+*.*.*.*.*.$.$.#.*.G+G+G+G+G+*.G+*.*.G+G+G+G+G+G+G+G+*.#.2 $.*.G+G+G+G+G+G+G+G+G+G+G+G+G+*.#.p $.*.G+G+G+G+G+*.*.*.$.$.$.*.G+*.*.$.#.*.G+G+*.*.*.*.*.*.*.*.*.*.*.G+G+*.G+G+G+G+G+G+G+G+G+G+G+G+G+G+G+G+G+G+G+G+G+G+G+G+G+*.G+G+G+*.*.*.*.$.$.*.*.*.",
"G+G+G+G+G+G+G+G+G+G+G+G+G+G+G+G+G+G+G+G+G+G+G+G+G+G+G+*.*.*.G+G+G+G+G+G+*.$.p p *.G+G+G+G+G+G+G+G+G+G+G+G+G+$.2 p $.G+G+G+G+G+G+$.#.#.@.@.@.$.G+G+*.$.$.*.G+G+*.*.*.*.*.G+*.*.*.*.*.*.G+G+G+G+G+G+G+G+G+G+G+G+G+G+G+G+G+G+G+G+G+G+G+G+G+G+G+G+G+G+G+*.*.*.G+*.$.*.*.*.",
"G+G+G+G+G+G+G+G+G+G+G+G+G+G+G+G+G+G+G+G+G+G+G+*.$.*.G+*.*.$.G+G+G+G+G+*.*.$.p I $.G+G+G+G+G+G+G+G+G+G+G+G+G+*.2 I 2 G+G+G+G+G+G+$.@.@.@.@.@.$.G+G+G+*.$.2 *.*.$.$.$.*.*.*.*.*.*.*.*.G+*.G+G+G+*.*.*.*.*.*.*.G+G+G+G+G+G+G+*.*.G+G+G+G+G+G+G+G+*.$.*.$.#.#.#.2 p 2 $.$.",
"G+G+G+G+G+*.G+G+*.G+G+G+G+G+G+G+G+G+G+G+G+G+G+#.@.$.*.G+$.#.*.G+G+G+G+G+*.*.2 I p $.*.G+G+G+G+G+G+G+G+G+*.$.$.2 I 2 G+G+G+G+G+G+$.I @.@.@.@.#.G+G+G+*.p } I I o o p $.*.*.*.*.*.*.*.G+G+G+G+G+#.I I @.#.$.$.*.G+*.*.*.$.$.@.@.*.G+G+G+*.$.$.*.*.$.#.I I o } } } } } } ",
"G+G+G+G+G+*.*.G+G+*.*.*.*.*.G+G+G+G+G+G+G+G+G+$.#.$.G+G+*.#.*.G+G+G+G+G+G+*.$.p I p $.*.G+G+G+G+G+G+G+G+#.p $.$.I p *.G+G+G+G+*.$.#.@.@.@.@.#.*.G+*.*.p } M @.o h p *.*.*.G+G+G+G+G+G+7+p+d+4+o+s+c+w+y+@ y+i+C+A+t+m+d+A+0+m+m+r+f+p+9+,+|+2+7+7+3+M o o } 7 7 7 } } ",
"G+G+G+G+G+*.*.*.G+*.*.G+G+G+G+G+G+G+G+G+G+G+G+$.$.G+G+G+G+*.*.G+G+G+G+*.G+G+$.p p p p #.$.*.*.G+G+G+G+$.I I 2 #.p I *.G+G+G+G+*.#.#.#.@.@.@.#.G+G+G+*.#.I @.#.#.#.$.*.*.*.G+G+G+G+G+t+b+c+s+w++ # ! @ ] :+:+:+[+[+[+[+[+q.  :+  / . . :+  k+l+u+d+b+f+7 } } } } o o o ",
"G+G+G+G+G+*.*.*.$.*.*.*.G+G+G+G+G+G+G+G+G+G+G+G+G+G+G+G+G+G+G+G+G+G+G+*.*.G+G+$.#.p I I p $.*.G+G+G+*.#.I I p #.I h *.G+G+G+G+*.#.@.#.I I @.#.G+G+G+*.$.$.*.*.*.*.*.*.*.*.G+G+G+G+*.c+b+e+@ :+S.9.{+!+!+!+~+~+~+~+~+~+~+!+{+{+{+{+{+!+!+N.2.  @ e+e+u+'+p p $.2 #.$.#.",
"G+G+G+G+G+*.#.@.I p *.G+*.^+f+r+|+b+p+f+r+|+|+r+t+2+3+^+3+3+3+3+3+6+f+b+b+t+p+6+r+}+1+i+a+d+1+i+i+u+w+c+c+1+e+u+e+e+e+a+a+e+a+e+e+e+e+e+e+e+a+i+d+d+i+i+d+d+i+s+e+d+p+s+s+r+7+2+8+r+}+d+k+. -+-+~+!+!+~+~+~+~+~+~+~+~+~+~+~+~+~+~+-+-+!+-+-+(.@ e+a+e+$+*.*.*.G+G+G+G+",
"G+G+G+G+G+*.$.#.#.@.#.*.4+e+e+a+u+q+k+a+i+d+a+l+u+c+r+2+2+7+7+r+f+4+k+j+l+j+j+i+[+S.j+u+k+k+k+j+q+q+j+j+u+j+5+h+h+h+x+q+q+x+j+j+q+q+q+j+j+j+j+j+l+u+k+l+k+k+u+e+g+u+a+i+e+a+o+b+e+l+a+p+f+2+> e.W.`.R.-+-+-+-+=+=+=+=+=+=+=+=+=+=+`.`.`.W.|.' a+e+p+t+>.G+G+*.G+G+G+G+",
"G+G+G+G+G+G+G+*.G+G+7+e+l+e+a+a+k+j+j+l+e+p+u+k+p+s+w+4+t+f+t+s+a+l+q+l+j+q+j+k+j+5+q+j+j+j+q+q+g+v+x+q+j+5+v+x+x+h+h+q+q+q+q+j+q+q+q+q+q+q+q+j+l+l+k+j+l+u+u+u+u+u+u+e+s+s+s+p+p+u+l+i+p+c+0+m+r+$ t s [.B.Q.Q./././././.: : A % l t /+n+z+u+j+u+d+c+;+*.*.*.$.*.*.$.",
"G+G+G+G+G+G+G+G+^+u+j+u+9+e+i+k+e+}+}+<+w+r+8+f+2+r+4+4+'+2+4+4+4+p+b+t+1+1+4+4+t+c+_+p+t+w+1+a+e+k+s+b+i+u+a+s+w+b+p+w+s+p+i+d+s+p+p+p+p+1+p+s+4+t+c+b+4+t+t+4+4+4+t+f+t+f+r+r+0+0+4+r+t+8+r+0+3+6+6+B+B+D+D+B+B+B+B+m+B+B+B+B+6+7+m+t+c+b+}+k+l+e+p+^+*.$.2 p } h p ",
"*.G+G+G+G+G+;+a+l+x+q+u+j+e+p+4+i.) *.*.) ;.-.i.i.-.R 6.h.h.6.6.R ;.;.;.3 2 2 3 -.;.;.-.R R h p 2 2 ;.;.=.2 2 h h ;.3 ;.;+;.;.;.3 *.*.*.>.3 >.$.=.3 =.2 m.;.-.;.3 3 =.2 3 ;.;.3 3 3 2 >.2 *.2 &.;.-.i.R -.;.>.2 *.*.;+2 ;.>.3 3 ) ) *.2 h 2 G+^+p+b+t+;+*.$.#.I h h p ",
"*.*.G+G+G+7+j+j+j+v+l+u+e+(+6.i.;.;.i.i.i.>+X.Y.Y.Y.Y.F N c.g.Y.Y.X.h.[.[.[.1.f.B B N F B B G.G.[._.f.Y.Y.Y.1.g.g.F u.Y.G.G.Y.X.h.>+h.X.Y.f.g.g.G.Y.Y.f.G.G.G.Y.X.Y.f.f.G.g.G._.g.g.c.Y.[.f.B.Q.Q.u.G.s.G.Y.Y.G.Y.X.[.X.[.A [.h.6.i.R l j R ;+G+>.f+r+]+G+*.$.$.*.*.$.",
"*.*.G+]+d+u+u+j+q+q+k+1+0+;.i.3+i.6.h.h.Y.G.g.u.G.Z.H. . .e.T.f.s.T. .H.e.|.z.X O O O O O X X z.e.T.c.D Q.f.f.T.c. .H..+T.Z.T.T.T.T.Z.H.Q.Q.Z..+ +T.z.z.T.T.T.Z.T.T.T.T.Z. +z.z.z.5.5.T.s.T.T.T.Q.Q.s.T.s.G.Z. + +H.Z..+c.H.z.H.H.H.Z.u.A >+$+) ;+f+2+>.G+G+*.*.*.*.*.",
"G+G+G+l+q+e+e+k+j+u+2+3 ;+;.>+X.X.G.g.Z.c..+ + +.+z.b.z.|.H.H.O X |.b.|.T.e.O O O G G G H |.O O e.e.|.z. .O  .e. +z.@+t.z.@+.+z.@+.+.+b. +.+ + + + +.+ + +T.Z. + + +z.H.T.t.A.5.5.A.A..+T.e.s.Q.Q.Q././.s.B.B.Q.B.f.X.g.Q.Q.T.g.g.Q.s.u.X.R i.>.^+f+2+]+G+G+G+G+*.@.p ",
"*.G+G+x+q+q+k+e+>+2 ;+$+X.g.u.Y.g.H.T.T.H. +z.z..+.+.+b.b.z.x x x 5.5.5.t.t.O x x f C C G ..x z.t.5.,.b.H x x O @+b.b.z..+.+.+ +H.H.T. +.+T.H.t.A..+ +H.H.Q.T.T. +,+.+H..+,+t.z.b.5.5.5.|. +e.|...T.e.5.x ..e.T.Q./...e.T.T.e.e.e.t.T.G.A X.i.>.;.2+7+) G+G+G+*.$.#.#.",
"*.*.G+u+g+v+p+) $.^+i.G. ..+.+.+H..+.+ +z.@+@+b. +@+5.J J 5.J '.}.5.J :.S }.k.G J ,.f J J G H 7.S :.:.J 5.'.f G A.J J I..+ +.+ +.+ + +.+ +H..+b.A.C..+.+Z. +z..+t.@+.+A.I.A.C.b.z.z.b..+.+ +|.b.b.e.|.b.J J 5...e.5.C ,.t.@+b.z.5.5.t.|.|.u.6.>.i.r+0+]+G+G+*.G+*.*.*.",
"*.*.*.q+S.h+8+3 i.6.u.H.@+k.A.I.I.I.t.I.#+v.'.}.I.C.S f J 7.G I.t.5.:.7.v.Y T S c C :.S c f ).'.p.7.C.:.b.I.k.S :.C C }.5.5.:.}.A.v.k.I.I.,+z.I.I.I.I.t.@+A.p.I.I.A.C.A.A.C.:.A.I.A.7.@+.+e.e.|.z.t.:.:.7.S J ,.b.b.:.A.7.C.A.b.z.b.:.:.c.[.h.;+;.0+0+]+*.*.*.*.*.G+*.",
"*.*.*.q+v+v+p+i.Y.s.H.,+I.*+#+#+*+@+@+#+D.M.n.p.v.7.f z }.f C J G J.E.v.v.p.L.M.y y }.z y z D.U.v.#+D.E.}.G f c '.Y y '.#+7.p.n.M.M.U.&+*+*+*+*+*+D.M.M.L.q.q.M.D.D.D.A.A.A.b.t.A.:.}.I.@+.+ +t.A.D.U.p.U.:.C :.b.J }.}.D.U.D.A.t.t.A.A.H.Y.[.;.i.r+2+2 $.$.$.$.$.$.#.",
"*.*.*.x+v+h+_+[.Z. +z.v.L.L.E.E.L.U.D.D.n.S.S.n.D.*+T Y M.Y y z }.D.v.v.M.L.L.n.q.(.E.q.(.n.U.U.p.M.v.D.J.'.y +.E.E.(.T #+M.q.2.N.2.2.S.q.n.L.M.n.S.9.N.w.0.O.<.N.q.n.J.C.I.A.C.U.n.n.U.k.t.t.#+M.E.E.n.p.J.'.'.,.S +.Z S.q.L.C.5..+|.t.I.H.1.i.3+r+0+h M I I I I @.@.",
"G+G+G+q+h+h+e+u.T.t.#+M.q.9.N.N.2.q.L.E.S.9.9.S.L.M.n.E.(.(.+.U.C.7.M.q.S.S.Z 2.(.9.N.9.(.< 2.9.S.S.S.M.D.U.L.9.9.9.S.n.L.S.N.E P.3.3.d.<.w.9.9.N.<.P.!.l.l.x.4.3.O.o.S.L.p.J.E.S.9.9.q.p.#+v.L.S.w.o.N.q.L.D.:.c r 9.V <.<.N.+.C ,.|. +A.@+g.i.6+t+f+h.X.%+K.V._+V.,+",
"G+G+G+q+h+h+a+u..+A.k.M.9.0.d.O.o.2.q.S.N.0.o.N.S.E.E.9.o.o.Z S.n.L.S.N.w.w.o.o.w.o.0.0.o.N.o.0.<.O.0.9.E.q.(.w.N.o.2.q.2.o.d.l.x.a.x.4.F.3.d.O.P.!.4.^.v v v {.y.l.P.o.(.9.9.o.O.d.d.w.9.n.+.Z 0.P.!.O.N.q.U.@+A.+.9.P.F.W V Z m C t.|..+H.Y.i.)+k+e+t+%+u+g+g+9+x+5+",
"G+G+G+j+x+h+1+G.A.C.U.E.o.P.! { 0.w.S.N.0.( ; [ w.N.6 { { E d.6 9.S.N./ ! _ O.<.o.^ ! _ d.O.` ( ! E F.d.w.w.w.< ! < 0.o.0.P.3.( ! ~ ~ ~ ~ ! ^ O.F.] ~ ~ { { { { ~ ~ ^ o.w.o.` O.{ ~ 3.F.0.2.9.<.3.( ! _ <.9.U.I.C (.o.F.^ ~ <.U 8 c 5.b.b. .1.i.|+l+u+|+%+_+l+j+9+5+5+",
"G+G+G+j+q+q+1+Y.@+A.L.S.0.3.& 5 E o.N.0.P./ & [ O.0.d.~ = / l.n 0.6 O.^ = 6 !.3.E { , 6 F.!.F./ & { l.4.d d.!.2.= [ 3.O.d.F.6 - % & % % & % , [ l.' % % & * & % & & ! 0.O.P.x._ = & 6 x.P.o.N.d.F.] = 6 d.2.U.S r 9.d.4.{ , E u P r :.b. . .D R f+u+a+r+/+_+l+g+x+5+5+",
"G+G+G+j+q+q+_+Z.,+J.E.9.o.3.% ; E 0.o.d.F./ % [ 3.P.F.{ % > 2.4.3.d !./ % 0.F.!.d { > 0.x.l.a./ % % ( w x.F.4._ % [ l.3.!.l.[ % { [ ( ( ( ] & ] 3.( / ( [ % = / [ ( < d.!.4.^.] * * ~ a.l.<.0.3.l.{ * 6 !.w.M.I.p.9.3.y.~ = E !.Z n.I.b. .N A i.|+j+u+|+/+V.l+9+9+9+5+",
"G+G+G+l+j+q+_+g.@+A.D.S.O.F.% ! P.O.O.!.l.( % < F.!.4.{ % % ' 0.l.l.4.( * E 4.l.!.] , E a.a.~.( % % % _ {.a.y.6 & < 4.F.!.F.( = E ].].v {.3.] 2.d.!.x.{.v , ; a.].^.l.F.4.{.d ' / { % d a.P.0.3.x.] > 6 !.o.L.:.y w.F.^.{ , d.F.o.n.I.z.N N 1.;.0+i+u+r+%+_+9+5+x+g+9+",
"G+G+G+k+j+q+<+c.C.q.N.O.w ~.% ! 3.P.O.!.4.( % < l.F.l.{ , ; % ~ !.w ^.[ * E x.a.l.] - E ^.w {.( * ! % ' d {.{.0.& < x.!.!.F.( * 6 ^.^.^.y.!.3.4.Q y.^.].]., ; ^.].y.F.F.y.].[ % !._ & [ y.F.P.F.x.] = 6 !.w.E.C.E.w.l.~.{ , d l.o.n.C.8.g.g.h.3 K.*+i+r+)+k+x+5+g+9+9+",
"G+G+G+k+j+j+_+@+J.E.2.w.d.l.% ! P.P.d.F.x.( % 2.x.l.4.~ ! 6 ; % ^ a.{.[ * d w y.4.] - d.{.~.v / = 0.] % 5 4.v E & 2.y.F.!.F.[ % ~ ( ( ( ( / [ ` ` P.a.].]., ; w ].y.F.4.{.^.~ 5 v x.- 5 x.l.3.F.x.] = 0.F.K q.#+n.<.4.{.{ , d l.w.L.I.t.Z.'+6.;.)+l+e+r+y+l+9+g+j+j+j+",
"G+G+G+u+l+l+_+H.I.k.U.(.V W % ! !.F.3.F.a.( % 2.4.l.4.~ ; ^.6 - & < v < & 3.{.~.x.^ - d v {.v / & 4.4.; % ^ {.d.* 2.^.l.!.F._ ' & * * * * * - < ` <.l.{.v , ; w ].y.4.a.v E * < ].].{ % 0.x.!.l.x.] = 6 !.<.E.D.q.` 4.v { , d 4.o.L.*+I.H.'+t ;.|+u+u+6+y+l+l+g+9+g+x+",
"G+G+*.a+k+k+c+Z.7.T q.P !.L % ! F.L W 4.Q ( % < l.F.a.~ ; a.{.< & - 0.< * 3.v ~.x.^ - d v ~.v / % F.].E > % 2.E = 2.{.x.F.F.F._ / / ( ( [ ] % T n !.Q v ]., ; w v y.4.y.~./ % _ x.y.[ % / a.l.4.x.] = 6 F.<.S.L.9.P.x.v { , d x.P.9.M.&+*+V.)+6.r+u+u+)+/+%+e+*+9+5+[+",
"G+*.$.u+l+k+<+X L.Y (.S.` 4.% ! F.Q L Q w ( % < F.F.x.~ ; F.v w ^ % ; { > !.v {.4.] - d.~.^.{./ % d ].].2.% - ] > 2.~.Q F.l.y.~.4.w ^.{.{.d.= T ` n 4.v ]., ; y.].y.l.a.F.! % ; ! ! ; % - !.x.a.y.] = 0.4.P.w.9.N.O.x.v { , d ^.l.O.2./ ] *+V./+|+e+e+%+V.)+u+9+5+9+5+",
"G+$.2 u+j+l+_+X D.Y q.(.n W % ~ {.~.{.{.v < % < l.4.4.~ ; F.v ~.F.! % > , !.].{.4.] - d.~.w ~./ % d ].].^.^ % > = 2.~.Q a.4.6 < ].].].].].~., ^ ` n F.v v , ; y.].y.a.^.6 * % * % % * % % _ y.^.^.] > !.^.x.!.0.o.d.4.{.{ , x.v y.F.E 0.< T *+%+}+l+a+/+5 5 @ *+9+[+[+",
"*.$.$.e+l+l+<+H.7.v.p.q.o.P.% ' 2._ _ _ _ { % < W W l.~ ; F.{.w Q E ' % - !.].{.4.] - E Q Q ~./ % d ].v v l.~ % = _ ~.a.Q l.] = < 6 6 6 6 < * ] N.0.3.y.{., ; a.{.a.a.x.^ * ( _ < 2.2./ % ! ^.~.~.^ * [ _ _ 2.< [ 0.4.~.] = < 6 _ 2.< < _ < ^ K.y+l+a+/+5 5 :+2.M.5+[+",
"G+*.*.a+k+k+(+K.v.v.p.Y S.0.' % = = = = = & > 2.` d.3.! - n ~.~.W x._ = % 3.v w F.{ & 6 4.l.4.] % 0.{.^.y.{.d ' % < a.l.!.!.( % = = = = = * % ^ S.9.<.4.y.% - l.y.4.x.E * ~ y.x.F.W L F.' & d.~.~.{ % * = = = = = ( F.x.{ % = = = = = = [ _ T X /+a+d+2+)+V.*+] :+M.:+",
"G+G+G+a+u+k+<+c.I.k.p.M.q.9.( - > > > > > > ] o.o.N.V ~ ; K u u n !.w / - n {.L ` ] ' 6 !.!.W / > 6 L L l.w v _ , < 4.d O.` _ ; > , , , > > ' E.E.S.w.P.F.' 5 F.l.3.l.[ > 2.y.l.P.3.W l./ , < ~.y.^ , , , , , > , ( P.3.] > > > > > , > < N.^ ' /+a+i+$+i.2+/+%+y+V.! ",
"G+G+G+u+u+e+8+H.t.I.D.D.M.E.9.O.W F.F.l.a.F.<.N.9.9.<.n ` ` a P Z <.!.4.L Q u ` V n n n n <.V u u !.!.3.` !.4.L L l.W <.w.w.0.3.x.a.4.F.!.` 2.n.M.p.q.w.d.F.F.!.P.0.d.F.4.l.l.3.o.<.` W l.l.F.F.F.4.x.x.a.a.Q W !.O.w.o.<.3.F.l.4.4.4.!.6 E.&+)+t+k+e+6.2 &.i.R j A B ",
"G+G+G+e+e+k+t+u.k.v.}.'.'.M.:+9.w.` 3.3.!.<.S.E.q.9.9.g a g 4 4 (.(.w.<.` U g 9.2.9 g 9 g 2.9.P P o.w.N.w.a n !.!.n a Z 9.q.q.N.` !.d.` o.S.E.U.p.z (.(.N.0.o.w.N.2.w.d.P.P.O.o.S.S.0.O.O.O.<.0.o.0.E P.3.3.!.<.w.Z (.E.Z <.o.K K 0.` <.[ ~ V.s |+u+k+7 M I @.j i i i ",
"G+$.*.e+k+k+t+%+7.z '.Y }.v.p.n.E.S.S.(.(.9.q.n.D.Y (.4 P 9.q.E.r 9.9.(.< m b E.y 8 b 8 8 q.S.m b E.(.9.Z Z 9.Z g a 4 9.n.p.E.S.9.(.S.E.E.M.p.D.v.Y +.q.(.9.S.S.n.5+2.N.o.w.4 m q.w.0.9.N.o.o.w.9.E.q.9.N.9.w.9.q.(.+.L.M.q.q.m r :+9.9.T K.%+s 2+l+k+o @.#.M q i i i ",
"G+#.$.a+u+e+t+u.:.Y '.+.}.D.D.#+p.M.n.E.p.U.L.'.7.p.+.m r y Y '.Y n.U.v./ b y '.c 8 1 b 8 z n.r r p.v.p.q.Y q.(.9.m m E.D.v.Y M.p.M.Y T p.D.#+U.v.'.+.n.+.q.M.L.q.(.(.q.(.(.b m n.L.q.w.9.S.S.(.L.D.D.L.U.U.n.J.L.}.:.I.*+D.p.m r &+U.E.] X B s 0+k+a+$.*.G+7 i i i i ",
"G+$.*.b+p+w+|+u.A.}.r r C :.#+*+D.D.Y L.D.k.).7.'.z +.m Y z Y z }.I.:.k.T 1 c }.z | c 1 1 f '.1 y D.).7.t.C Y +.z r m Y Y S C.).v.T n.n.D.v.,+v.:.Y r +.'.}.#+J.Y (.n.q.n.Y +.r Y w.V V w.N.n 9.J.J.p.J.A.C.C.D.C.5.J e.Z.A.J.'.S z.t.L.). .N l 7+a+8+G+G+*.j i k k k ",
"G+$.*.t+w+o+%+%+@+:.p.q.Y S D.#+U.p.U.U.p.D.#+S '.'.Y r +.'.'.'.C.v.U.#+}.| 1 S C c c c 1 f }.| 1 :.#+U.#+D.z '.'.+.+.Y '.z D.&+D.J.U.M.p.v.,+D.S +.L.}.:.A.E.q.q.U.E.(.+.(.r | 8 9.M.#+p.M.E.q.F.w.D.C.:.'.C.S 5.,.J |.Z.5.5.|.A.H.8.C.k.X F t 6+p+c+#.*.7 e k k k k ",
"G+*.G+|+t+4+(+K..+}.J.q.b C p.M.J.p.D.#+k.&+q.L.z z Y y n.Y '.z p.D.k.I.S c z }.c c f C 1 C }.z C :.I.#+v.'.z C Y Y y Y z z E.n.k.#+#+p.U.k.v.D.C +.U.:.A.,+L.J.q.M.q.(.P j.8 0 Z C.@+t.t.H. +z.,+,+I.t.:.}.D.J ,.5.t.T.c.b.|.H.c.Y.1.Z.z.X %+i.6+w+|+$.$.j i k k k k ",
"G+*.G+4+c+4+%+K.*+q.E.Y (.Y J.Y +.r z D.z y Y +.b b r z S S z z '.7.7.S }.f '.'.1 | f C | C }.z f }.:.k.v.z z f S }.Y r b r Y '.y v.).z z 7.v.k.S Y U.D.D.#+U.U.T / L.(.U Z Z U P 9.n.v.I.C.U.I.z.5.A.A.J.J.:.| ,..+J b.Z.H.T.T.g.h.6.[.F F '+$+3+8+r+G+h e k k k k k ",
"G+G+G+d+c+o+<+Z.8.S.n.C.n.Y +.y Y r 1 L.Y m +.y 8 8 b '.:.f 1 c C G H C.&+f }.L.f f G J f T D.S S v.:.7.f c 1 c H O H f c z H H S k.).f G 8.8.8.k.@+K.*+U.,+*+@+~ / E.(.Y E.E.q.P K (.M.U.n.n.}.}.z '.I.I.C.A.}.T.s.,.,.T.g.f./.g.[.h.R 6.t s i.3+f+r+G+l i k k k k k ",
"G+G+G+d+e+k+}+1.K.@+C.I.U.U.Y z v.D.T #+p.Y +.+.b 8 b Y C 1 z T z S ).k.I.k.8.*+5 x J J G ).8.8.I.8.k.).S z z f x  .X O O X  .c.X X 8.5 K.V.X V.K.u.X.1.%+K.1.1.K.).*+@+H 8.8.).v.'.M.q.9.a 4 9.F.d v.Q.e..+z.e.Q.|.,.b.H.g.G.N N B G.h.-.6.s ;.3+c+t+&.q k k k k k k ",
"G+G+G+u+l+j+<+6.X.f.T.c.K.X H G @+V.5 V.@+k.H H H S S H G ).5 X X V.V.X V. .K.u.1.D O x O K.K.H.F K.X V.5 X V.V.D F B F F D D F u.)+%+%+'+u.u.s 6.6.6.i.$+h.6.i.h.%+F F 5 k.z < _ 4 _ 6 _ Y p.#+&+&+%+_./.Z.g.f.X.s.N u.u.u.f.[.1.R R 6.h.h.R ) 0+d+c+l k k k k k k k ",
"G+G+G+u+k+l+<+) G+) 3 =.m.;.t l i.i.6.t t t l s [.1.1.[.l t t s t 6.$ s R i.$+$+i.l t % [.t i.;.;.;.h.'+'+R i.$+$+R R R R l s t $+^+^+;+3 $+i.;+) G+G+*.) >.>.*.>.;+) ) G+3 t $ )+%+%+K.1.>+>+m.$.$.>.3 ;.^+;.;.>.3 ^+^+;.6.i.;.;.;.$+i.;.^+;+0+4+c+4+q k e e e k k e ",
"G+G+G+k+k+k+e+o+f+o+o+c+t+r+0+7+7+0+7+7+7+7+7+7+0+0+0+r+r+t+f+2+2+0+2+0+0+0+0+0+7+6+6+6+3+3+6+3+3+3+^+3+3+^+;+^+^+^+^+^+^+3+0+;+6+3+G+G+;+;+^+3+*.^+>.>.^+;+;+^+^+3+6+6+6+3+^+^+;+]+D+]+;+^+3+7+7+6+3+6+6+6+7+0+2+t+f+2+r+0+2+7+0+2+2+2+2+0+f+a+d+t+w+e e e e e e k e ",
"G+G+G+k+l+l+l+l+u+k+u+k+e+e+a+i+s+d+b+b+w+c+c+w+c+w+b+s+p+p+c+o+o+4+8+c+c+w+4+4+t+t+t+f+f+r+2+r+r+r+2+2+2+7+3+6+7+0+0+7+2+0+t+0+r+t+^+G+^+$+6+0+^+2+6+3+3+3+6+6+6+0+|+f+f+4+f+r+2+0+|+0+6+r+t+b+8+r+2+r+r+r+t+4+1+p+d+s+p+4+w+4+t+t+t+r+r+t+c+a+p+b+e+N e e e e e e e ",
"G+G+G+u+k+k+j+l+u+k+e+k+u+a+p+p+s+s+w+s+w+o+b+b+d+c+o+t+t+t+f+t+t+f+t+c+4+t+f+r+r+|+r+r+2+r+2+0+0+0+0+2+0+2+0+6+6+6+7+0+0+0+r+7+6+r+0+F+^+6+6+6+6+6+6+3+3+3+3+$+7+6+2+|+f+4+c+4+4+4+4+f+r+t+b+p+i+c+r+w+d+|+4+r+9+l+d+i+p+b+4+b+a+b+b+b+t+4+f+t+w+e+u+,+e e e e e e e ",
"G+G+G+i+u+u+u+e+a+u+u+a+i+s+s+p+p+b+4+t+4+t+b+w+b+t+t+r+r+f+r+r+r+r+f+t+f+r+2+2+2+2+2+0+7+0+0+7+6+7+0+0+7+2+2+6+3+3+6+6+6+7+6+2+7+6+6+6+6+3+3+3+6+3+3+7+6+6+6+6+8+t+0+|+f+4+4+o+4+4+s+s+4+0+s+w+b+w+4+b+i+t+i+a+i+k+e+k+l+a+s+s+i+d+i+}+w+p+r+f+_+k+g+5+N e e e e e e ",
"G+G+G+]+]+>.>.>.>.>.>.]+*.*.) ]+]+*.*.*.*.*.*.*.E+E+E+E+G+*.$.$.G+G+#.I p $.$.p I p p #.#.#.@.$.G+G+G+*.G+G+$.$.*.*.*.*.*.*.G+*.*.*.*.*.G+G+G+G+G+G+G+G+*.G+G+*.p M #.#.I $.*.*.*.*.*.*.*.G+]+]+$.$.p p >.$.>.;+]+>.]+;+-.m.>.*.) ]+=.o h G+^+2+y+j+g+9+D i A A j A F ",
"G+G+G+G+G+G+G+*.G+G+G+G+G+G+G+G+G+G+G+G+G+G+G+G+G+G+G+G+G+*.$.$.G+G+#.@.$.*.$.#.$.*.*.*.$.@.#.$.G+G+G+G+G+G+G+*.*.*.G+G+G+*.*.*.*.$.@.#.G+G+G+G+G+G+G+G+G+G+G+G+#.M I #.$.*.G+G+G+G+G+G+G+G+G+G+G+G+$.$.*.G+G+G+G+G+G+*.@.@.*.G+G+G+$.M #.*.G+3 2+%+<+u+l+u+t+_+u+_+l+",
"G+G+G+G+G+G+G+*.*.G+G+*.*.*.*.*.*.*.*.*.G+*.G+G+G+G+G+G+G+*.$.$.G+G+#.I $.$.$.$.*.*.G+G+$.#.#.$.G+G+G+G+G+G+G+G+*.$.*.G+*.*.$.$.$.#.I @.*.G+G+*.$.*.G+G+G+G+G+G+*.#.#.$.G+G+G+G+G+G+G+G+G+G+G+G+G+#.p $.*.G+G+G+G+G+G+*.@.@.G+G+G+G+*.$.*.G+G+j q q j 2+i+y+0+|+y+y+e+",
"G+G+G+G+G+G+G+*.*.G+G+*.*.*.*.*.*.*.*.*.G+*.G+G+G+G+G+G+G+*.$.$.G+G+#.I #.*.$.*.*.G+G+G+*.#.#.$.G+G+G+G+G+G+G+G+*.p p *.*.$.@.$.$.@.@.@.*.G+*.$.#.*.G+G+G+G+G+G+G+G+G+G+G+G+G+G+G+G+G+G+G+G+G+G+G+#.#.$.*.G+G+G+G+G+G+*.@.@.G+2 } G+G+G+G+G+o q e e q j j 1.h.s l s 1.",
"*.G+G+G+G+G+*.*.G+G+G+G+G+G+G+G+G+G+G+G+G+G+G+G+G+G+G+G+G+*.$.*.G+G+$.#.*.*.*.*.*.G+G+G+*.$.#.*.G+G+G+G+G+G+G+G+$.I M p *.$.#.$.$.@.@.@.*.G+*.$.$.*.G+G+G+G+G+G+G+G+G+G+G+G+G+G+G+G+G+G+G+G+G+G+G+G+*.$.*.G+G+G+G+G+G+*.@.@.*.l j 7 2 G+G+$.j e q q q e q q e q e e e ",
"G+G+*.G+G+G+G+G+G+G+G+G+G+G+G+G+G+G+G+G+G+G+G+G+G+G+G+G+G+G+*.$.G+G+*.*.G+*.*.*.*.G+G+G+G+*.$.*.G+G+G+G+G+G+G+*.p p #.$.*.*.$.$.$.#.@.#.G+G+G+*.*.*.G+G+G+G+G+G+G+G+G+*.G+G+G+G+G+*.$.#.#.$.$.$.*.G+*.*.*.G+G+G+G+G+G+*.@.#.*.7 j j j 7 G+7 q e q q q q q q q e q q q "};
