/* XPM */
static const char * fs2_btn_volition_xpm[] = {
"90 108 256 2",
"  	c #F3F4F4",
". 	c #F2F3F3",
"+ 	c #E1E2E2",
"@ 	c #BCBDBD",
"# 	c #C1C4C3",
"$ 	c #010D08",
"% 	c #030F0A",
"& 	c #05180F",
"* 	c #081F14",
"= 	c #000E07",
"- 	c #000C06",
"; 	c #010F08",
"> 	c #030D08",
", 	c #071D12",
"' 	c #092316",
") 	c #05130C",
"! 	c #0E2419",
"~ 	c #363837",
"{ 	c #414342",
"] 	c #7A7C7B",
"^ 	c #F1F3F2",
"/ 	c #E3E5E4",
"( 	c #DBDDDC",
"_ 	c #D6D8D7",
": 	c #04110A",
"< 	c #06190F",
"[ 	c #082114",
"} 	c #071C11",
"| 	c #081F13",
"1 	c #06170E",
"2 	c #092215",
"3 	c #081D12",
"4 	c #05120B",
"5 	c #06150D",
"6 	c #0D2016",
"7 	c #222F28",
"8 	c #000904",
"9 	c #05170D",
"0 	c #061A0F",
"a 	c #082013",
"b 	c #071B10",
"c 	c #081E12",
"d 	c #1F3328",
"e 	c #021008",
"f 	c #030F08",
"g 	c #05150C",
"h 	c #041009",
"i 	c #081D11",
"j 	c #040B07",
"k 	c #09150E",
"l 	c #1B2B22",
"m 	c #5B625E",
"n 	c #010B05",
"o 	c #071E10",
"p 	c #081F11",
"q 	c #06170D",
"r 	c #020704",
"s 	c #0F301C",
"t 	c #0D1C13",
"u 	c #09130D",
"v 	c #131D17",
"w 	c #181D1A",
"x 	c #525C56",
"y 	c #999E9B",
"z 	c #020A05",
"A 	c #030B06",
"B 	c #0E2D1A",
"C 	c #06130B",
"D 	c #0A1A10",
"E 	c #8E9691",
"F 	c #A9B1AC",
"G 	c #000E05",
"H 	c #000B04",
"I 	c #092212",
"J 	c #0C2916",
"K 	c #0D2C18",
"L 	c #0D2B18",
"M 	c #0E2D19",
"N 	c #0D2A17",
"O 	c #0A2012",
"P 	c #0F2E1A",
"Q 	c #11321D",
"R 	c #0E2215",
"S 	c #0E1912",
"T 	c #17221B",
"U 	c #26372C",
"V 	c #536158",
"W 	c #000C04",
"X 	c #000602",
"Y 	c #0E2E19",
"Z 	c #0D2515",
"` 	c #0D1610",
" .	c #76827A",
"..	c #7F8280",
"+.	c #9DA09E",
"@.	c #CED1CF",
"#.	c #000A03",
"$.	c #020F06",
"%.	c #031007",
"&.	c #071E0E",
"*.	c #030D06",
"=.	c #05150A",
"-.	c #071D0E",
";.	c #06190C",
">.	c #0A2412",
",.	c #0A2312",
"'.	c #081C0E",
").	c #040E07",
"!.	c #0C2915",
"~.	c #0B2513",
"{.	c #0D2414",
"].	c #0F2516",
"^.	c #182F1F",
"/.	c #35453A",
"(.	c #5D6A61",
"_.	c #6F7C73",
":.	c #041208",
"<.	c #020904",
"[.	c #092411",
"}.	c #092110",
"|.	c #0A2311",
"1.	c #0C2714",
"2.	c #091A0E",
"3.	c #0D2213",
"4.	c #122A19",
"5.	c #102516",
"6.	c #152D1C",
"7.	c #213928",
"8.	c #1E3324",
"9.	c #171E19",
"0.	c #3E4F43",
"a.	c #445549",
"b.	c #646B66",
"c.	c #848B86",
"d.	c #A3AAA5",
"e.	c #BAC1BC",
"f.	c #AEB5B0",
"g.	c #C1C8C3",
"h.	c #020D05",
"i.	c #092310",
"j.	c #081F0E",
"k.	c #071A0C",
"l.	c #0A2411",
"m.	c #112817",
"n.	c #2C3F31",
"o.	c #69746C",
"p.	c #87928A",
"q.	c #000C03",
"r.	c #010903",
"s.	c #010502",
"t.	c #07200D",
"u.	c #071D0C",
"v.	c #08200E",
"w.	c #09220F",
"x.	c #09210F",
"y.	c #081D0D",
"z.	c #0B2010",
"A.	c #070B08",
"B.	c #1A221C",
"C.	c #4E524F",
"D.	c #C3C7C4",
"E.	c #B5B9B6",
"F.	c #000902",
"G.	c #071E0C",
"H.	c #06180A",
"I.	c #081F0D",
"J.	c #071C0B",
"K.	c #434844",
"L.	c #9FA4A0",
"M.	c #C7CCC8",
"N.	c #000601",
"O.	c #030F05",
"P.	c #0D130E",
"Q.	c #0F1510",
"R.	c #070E08",
"S.	c #0A110B",
"T.	c #000901",
"U.	c #020B03",
"V.	c #000A01",
"W.	c #000400",
"X.	c #000200",
"Y.	c #010301",
"Z.	c #030703",
"`.	c #030503",
" +	c #050805",
".+	c #070B07",
"++	c #050705",
"@+	c #161D16",
"#+	c #0A0D0A",
"$+	c #070907",
"%+	c #0D100D",
"&+	c #0F120F",
"*+	c #121512",
"=+	c #060706",
"-+	c #181B18",
";+	c #090A09",
">+	c #151715",
",+	c #171917",
"'+	c #0D0E0D",
")+	c #0F100F",
"!+	c #2D2F2D",
"~+	c #1E1F1E",
"{+	c #232423",
"]+	c #292A29",
"^+	c #313231",
"/+	c #3C3D3C",
"(+	c #949694",
"_+	c #525352",
":+	c #4B4C4B",
"<+	c #474847",
"[+	c #D0D2D0",
"}+	c #C0C2C0",
"|+	c #737473",
"1+	c #6C6D6C",
"2+	c #626362",
"3+	c #5A5B5A",
"4+	c #F9FAF9",
"5+	c #F3F4F3",
"6+	c #F1F2F1",
"7+	c #EFF0EF",
"8+	c #EDEEED",
"9+	c #E6E7E6",
"0+	c #D9DAD9",
"a+	c #CBCCCB",
"b+	c #A4A5A4",
"c+	c #8B8C8B",
"d+	c #FFFFFF",
"e+	c #FDFDFD",
"f+	c #FAFAFA",
"g+	c #F8F8F8",
"h+	c #F7F7F7",
"i+	c #F6F6F6",
"j+	c #F4F4F4",
"k+	c #F1F1F1",
"l+	c #ECECEC",
"m+	c #EAEAEA",
"n+	c #E9E9E9",
"o+	c #E4E4E4",
"p+	c #E3E3E3",
"q+	c #DFDFDF",
"r+	c #DDDDDD",
"s+	c #D4D4D4",
"t+	c #CFCFCF",
"u+	c #C9C9C9",
"v+	c #C6C6C6",
"w+	c #C3C3C3",
"x+	c #B2B2B2",
"y+	c #ABABAB",
"z+	c #1B1B1B",
"A+	c #181818",
"B+	c #111111",
"C+	c #0F0F0F",
"D+	c #0C0C0C",
"E+	c #050505",
"F+	c #030303",
"G+	c #000000",
"G+G+G+G+G+G+X.W.F.#.F.W.X.W.W.W.W.N.T.N.X.s.A p ,.I [ [ a a | | | | | | | | | a O [ I ,.>.~.I ).Y.X.Z Q s s s s s B r W.T.N.G+G+G+G+X.G+X.X.X.N.T.N.T.T.T.T.V.V.T.N.W.X.X.X.X.W.T.W.",
"G+G+G+G+G+G+G+G+G+G+Y.s.X U.h.%.% 4 9 b } 3 c | | | | | | | a a a [ I I I >.>.>.~.~.~.~.~.~.~.k.X.G+O s s P P s P P j X.F.T.X.X.W.W.W.W.X.G+G+X.X.N.T.T.T.H H H F.X.X.X.X.X.G+X.X.X.",
"G+G+G+X.s.r A > % 4 5 < } | [ [ [ [ [ [ * c } < i I I I ,.>.>.~.~.~.>.>.~.~.~.~.~.~.~.~.~.~.>.~.:.G+'.s P P P P P s C X.#.F.W.W.W.W.W.W.W.G+G+G+G+W.N.N.N.N.N.N.W.X.X.X.X.X.X.G+G+X.",
": g 1 < } c a 2 ' 2 * | | | , 0 q 4 h %.$.n r.s.%.l.~.>.~.~.~.>.>.~.>.~.~.~.>.>.~.>.>.>.~.~.~.~.j.X g P B P P B B s i X.#.#.W.X.W.W.W.W.W.X.G+G+X.G+G+G+G+G+X.G+G+X.X.X.X.X.G+X.G+G+",
"2 ' 2 * c , b & 5 4 4 0 1 W H #.W.G+G+N.T.W.W.X.N.k.~.~.>.~.>.>.>.>.>.>.~.~.~.>.~.~.~.~.>.>.~.>.~.=.*.K B M B P B s Z N.T.H W.W.W.W.W.W.X.X.X.W.W.X.G+G+G+X.X.G+G+X.X.X.X.X.G+G+G+G+",
") : % A r r Y.G+G+G+z * , #.T.T.W.G+X.N.N.W.W.W.W.*.,.~.>.>.~.~.~.~.>.>.>.>.~.~.>.>.~.>.>.~.~.>.~.}.).Z Y M B M B Y L z T.T.W.X.X.X.W.W.X.G+X.N.W.G+G+X.X.X.X.X.X.X.W.W.W.N.W.W.W.X.",
"G+G+G+G+G+G+G+G+G+X.<., c h.T.T.W.G+W.N.N.W.W.W.N.W.H.~.>.~.>.>.>.~.>.~.>.~.>.>.~.>.>.~.>.~.>.>.>.~.'.p B K K M M M K h T.T.X.X.X.X.X.X.G+X.X.X.X.X.X.X.X.X.X.X.X.X.W.W.H W #.T.V.N.",
"G+X.X.G+G+X.G+G+G+X.X b | $.T.T.W.G+X.W.N.W.W.N.N.W.<.I >.>.>.~.>.~.>.>.>.>.~.~.>.>.>.~.>.>.>.~.>.>.>.I K L K K K K K k.F.#.X.X.X.X.X.X.G+G+X.X.X.X.G+G+X.X.X.X.X.X.X.W.W W #.T.#.N.",
"G+X.X.X.G+G+X.G+G+G+W.< [ e N.T.W.G+G+W.T.N.W.W.W.W.X.C ~.>.>.~.>.~.>.>.>.>.>.>.>.>.>.>.>.>.>.>.>.~.>.~.N L L L L L M ~.W F.W.X.G+X.X.X.G+G+W.N.N.W.G+G+G+G+G+G+G+G+X.X.N.T.N.N.N.X.",
"X.X.X.X.X.G+G+X.G+G+X.5 2 =.T.T.W.G+G+W.F.T.W.W.W.W.X.r j.~.[.>.l.>.>.>.>.>.>.>.>.>.>.>.>.>.>.>.>.>.~.~.N L L L L L K J :.N.X.X.G+X.X.X.G+X.W.W.N.W.G+G+G+G+G+G+G+G+G+X.X.W.X.W.X.X.",
"W.X.X.X.X.X.G+G+G+G+G+) 2 9 T.V.W.G+G+W.N.N.W.W.W.W.X.W.:.[.>.[.>.[.>.>.,.>.>.>.>.>.>.>.>.>.>.>.>.>.>.~.!.L L L L L L K ;.T.X.X.X.X.G+X.G+X.X.G+G+X.G+G+G+G+G+G+G+G+G+G+X.W.W.W.W.X.",
"W.X.G+G+G+G+X.G+G+X.X.: * < #.T.W.G+X.W.N.W.X.W.N.W.X.X.T.k.>.>.[.>.[.[.>.>.[.>.>.>.>.>.[.>.>.|.>.>.>.>.1.N N L L L L K }.#.X.X.X.X.X.X.X.G+G+G+G+X.G+G+G+G+G+G+G+G+G+G+W.W.W.W.W.X.",
"N.X.G+G+G+G+G+X.G+G+X.).* 0 r.W.G+G+X.W.T.W.X.W.W.W.X.X.W.<.p [.[.[.[.[.|.>.>.[.[.[.[.>.>.>.[.>.>.>.>.>.~.N N N N N N L !.h.X.X.X.W.W.X.G+X.G+G+G+X.G+G+G+G+G+G+G+G+G+X.W.W.X.W.W.X.",
"N.X.G+G+G+G+G+G+G+G+X.n d+f+f+f+f+f+f+f+f+f+f+f+f+f+f+f+f+f+f+f+e+d+e+f+f+f+f+e+e+f+f+f+d+f+f+f+f+f+f+f+f+f+f+f+f+f+f+f+f+f+f+f+f+f+f+f+f+f+f+f+e+e+d+A+G+G+G+G+G+X.X.X.X.W.X.X.G+G+",
"N.X.G+G+G+G+G+G+X.X.X.s.e+d+d+d+d+d+d+d+d+d+d+d+d+d+d+d+d+d+e+. 9+a+. d+d+d+d+_ e.e+d+d+_ . d+d+d+d+d+d+d+d+d+d+d+d+d+d+d+d+d+d+d+d+d+d+d+d+d+f+g+d+d+>+X.X.X.X.X.X.G+G+G+X.G+X.G+G+",
"W.X.G+G+G+G+G+G+X.X.X.X.e+d+d+d+d+d+d+d+d+d+d+d+d+d+d+d+d+d+(+S Z Z c.d+d+d+d+b.i.l+d+d+0.e.d+d+d+d+d+d+f+_.V 4+d+d+d+d+d+d+d+d+d+d+d+d+d+d+d+u+] +.d+9.#.F.N.W.X.X.G+G+G+G+G+W.W.G+",
"W.X.G+G+G+G+G+G+X.X.G+G+e+d+d+8+e+d+d+d+e+d+d+d+d+f+7+k+d+d+n+y+b.>. .d+d+d+d+D.p.f+5+a.>.b.e.e.F 0+d+d+d+p.o.4+d+d+d+4+5+h+d+d+d+d+e+d+4+l+. f++ p+d+T = = W F.W.G+G+G+G+X.X.N.N.G+",
"W.X.G+G+G+G+G+G+G+G+X.G+e+f+C.)+:+y+e+c+3+|+b+d+y+{ `.$+2+8+d+d+d+7.a.d+d+/ f.D.d+d+m+4.i.i.i.i.i. .d+d+7+j+d+d+d+4+p.7.!.7.E i+o+b.1+..^+R.u c+d+d+d+T = ; = N.X.G+G+G+X.X.X.W.W.G+",
"X.X.G+G+G+X.G+G+G+G+X.X.e+f+] X.G+b.d+^+G+F+c+3+X.E+b.1+E+A+}+d+d+n./.d+d+d.6.>.^.e.d+[+8.|.p.+.L.@.d+9+7.6.0.d+d+V 1.4.b.n.J m h+*+N.X /+b.B.R.l+d+d+9.q.- W N.X.X.X.X.X.X.X.W.X.G+",
"X.X.G+G+G+G+G+G+G+G+N.T.e+d+d+] F+t+d+] E+u+_ X.A+}+d+d+(+G+3+d+d+!+U d+d+d+_ 0.}.F d+d+/.8.e+d+d+d+d+f+L.i.U d+0+J /.0+f+7+c.^.( c+W.m f+d+@ B+n+d+d+@+V.H F.W.X.X.X.X.X.X.X.X.X.X.",
"X.G+G+G+G+G+G+G+G+X.T.T.e+d+d+n+Y.C.d+^+{ d+@ G+..d+d+d+g+`.]+d+d+!+w d+d+d+d+ .i.e.d+d+_.U i+d+d+d+d+d+f+n.0.d+_.~.(.d+d+d+d+6.E v+Y.(+d+d+7+~+l+d+d+@+T.N.W.X.G+X.X.X.X.X.X.G+X.X.",
"X.G+G+G+G+G+G+G+G+X.N.W.e+d+d+d+]+D+:+C+_ d+0+G+^+d+d+d+y+G+]+d+d+/+/+d+d+d+d+p.i.g.d+d+ .n.e+d+d+d+d+d+d+_.a.d+y ~.0.d+d+d+o.1. .a+Y.b+d+d+h+{+j+d+d+@+W.X.X.G+G+G+X.X.X.X.X.X.X.X.",
"G+G+G+G+G+G+G+G+G+G+W.W.e+d+d+d+b+X.G+{ d+d+g+:+G+<+1+3+'+=+c.n+w+{+~+y+D.[+( y }.o.E.j+_.6._.F c.a.x 7+p+n.n.}+h+n.~.b.p.o.~.^.@ b.W._+7+. |+E+1+f+d+T.W.X.X.X.G+G+G+G+G+X.X.X.X.W.",
"G+G+G+G+G+G+G+G+G+G+X.G+e+d+d+d+d+m $+x+d+d+d+d+..X.X.;+1+t+. {+E+$+z+~+2+b.8.6.Z m.n.q+f.m.}.}.}.}.c. .6.}.l.Z 0.M.(.1.>.~.(.( ( 6.S &+@ a+A.;+)+s+d+W.X.X.X.G+X.G+G+G+G+X.X.X.X.W.",
"G+G+G+G+G+G+G+G+G+G+X.G+e+d+d+d+d+d+( d+d+d+d+d+d+( b+n+d+d+d+s++.s+h+i+e+4+_ e.[+8+i+d+d+r+E.e.y D.d+4+f.+.F L.M.d+d+. k+8+d+d+d+0+7+j+d+d++ k+k+d+d+G+G+X.W.X.G+X.G+G+G+X.G+G+X.X.",
"G+G+G+G+X.X.G+G+G+G+X.X.e+d+d+d+d+d+d+d+d+d+d+d+d+d+d+d+d+d+d+d+d+d+d+d+d+d+d+d+d+d+d+d+d+d+d+d+d+d+d+d+d+d+d+d+d+d+d+d+d+d+d+d+d+d+d+d+d+d+d+d+d+d+d+G+G+X.X.W.X.X.X.X.X.X.G+G+X.X.",
"G+G+G+G+X.X.X.G+G+G+G+G+d+{+'+'+'+'+'+C+C+%+%+%+%+C+)+B+;+X.Y.Y.Y.F+F+F+F+F+++2.3.3.3.3.3.{.3.R R Z Z {.].].].].5.5.5.m.m.4.4.4.4.4.4.4.S D+'+%+'+%+d+X.X.X.X.X.W.X.X.X.X.X.G+G+X.X.",
"G+G+X.X.X.X.X.X.X.G+G+G+d+A+G+G+G+G+G+G+G+G+X.G+G+X.G+G+G+G+G+G+G+G+G+G+G+G+G+s.y.}.}.}.x.}.}.}.x.}.x.}.x.w.x.}.x.}.}.}.[.i.I [.[.I I >.p r.W.N.W.W.d+W.W.W.W.W.X.W.X.X.X.X.G+G+X.X.",
"G+G+X.X.X.X.X.X.X.X.X.X.d+,+G+G+G+G+G+G+G+G+G+X.G+G+X.G+G+G+G+G+G+G+G+G+G+G+X.G+h.j.}.}.}.x.x.x.x.x.}.}.x.x.x.}.}.}.}.}.}.i.[.i.i.[.i.[.[.;.W.W.W.W.d+W.N.X N.W.X.X.X.X.G+r 1 z X.X.",
"G+G+X.X.X.X.X.>+d+d+d+d+d+d+d+d+d+d+d+d+d+d+d+d+d+d+d+d+e+{ G+G+G+G+G+G+G+G+X.X.X.:.x.x.}.x.x.x.}.x.x.x.x.}.}.}.x.a.d+d+d+d+d+d+d+d+d+d+d+d+d+d+d+d+d+d+d+d+d+!+W.W.W.W.W.& ' < Y.G+",
"G+G+G+X.X.X.X.Z.p+d+d+d+d+d+d+d+d+d+d+d+d+d+d+d+d+d+d+d+d+k+=+G+G+G+G+G+G+X.X.X.X.Y.=.i.x.x.x.x.x.}.}.x.x.x.x.x.}.(+d+d+d+d+d+d+d+d+d+d+d+d+d+d+d+d+d+d+d+d+d+{+N.N.N.F.g [ c h.W.X.",
"X.X.X.X.X.X.X.X.1+d+d+d+d+d+d+d+d+d+d+d+d+d+d+d+d+d+d+d+d+d+~ G+G+G+G+G+X.X.X.X.X.G+X k.w.x.x.x.x.x.x.x.x.}.x.x.5.. d+d+d+d+d+d+d+d+d+d+d+d+d+d+d+d+d+d+d+d+y+N.W.N.N.e | [ :.X.X.G+",
"N.W.X.X.X.X.X.X.{+d+d+d+d+d+d+d+d+d+d+d+d+d+d+d+d+d+d+d+d+d+a+G+G+G+G+G+X.X.X.X.X.W.X.U.-.}.x.x.x.x.x.x.x.x.x.x.b.d+d+d+d+d+d+d+d+d+d+d+d+d+d+d+d+d+d+d+d+d+!+G+G+X.r.} [ 9 N.G+G+X.",
"T.T.W.X.X.X.X.X.Y.+ d+d+d+d+d+d+d+d+d+d+d+d+d+d+d+d+d+d+d+d+j+'+G+G+G+G+G+X.X.W.W.W.W.W.*.x.w.}.}.x.x.}.x.}.x.|.+ d+d+d+d+d+d+d+d+d+d+d+d+d+d+d+d+d+d+d+d+. ;+G+G+X.) 2 b X G+X.G+G+",
"T.N.N.X.X.X.X.X.G+{ d+d+d+d+d+d+d+d+d+d+d+d+d+d+d+d+d+d+d+d+d+2+X.G+G+G+G+X.X.W.W.N.N.W.X.%.}.}.x.x.x.x.x.}.}.^.e+d+d+d+d+d+d+d+d+d+d+d+d+d+d+d+d+d+d+d+d+c.X.X.G+> * | A G+X.G+X.G+",
"T.N.X.X.G+G+G+X.G+'+4+d+d+d+d+d+d+d+d+d+d+d+d+d+d+d+d+d+d+d+d+o+F+G+G+G+G+X.X.W.N.N.W.W.G+X.=.x.}.x.x.}.x.}.x.x d+d+d+d+d+d+d+d+d+d+d+d+d+d+d+d+d+d+d+d+d+]+W.X.r i [ : G+X.X.X.X.X.",
"W.X.X.G+G+X.X.G+G+G+_ d+d+d+d+d+d+d+d+d+d+d+d+d+d+d+d+d+d+d+d+d+A+G+G+G+G+X.X.W.W.W.W.X.X.G+Y.H.w.x.x.x.x.x.{.n+d+d+d+d+d+d+d+d+d+d+d+d+d+d+d+d+d+d+d+d+p+%.N.Y.1 2 & Y.G+X.X.G+G+G+",
"G+G+G+G+G+X.G+G+X.X.K.d+d+d+d+d+d+d+d+d+d+d+d+d+d+d+d+d+d+d+d+d+v+G+G+G+G+X.X.W.W.W.X.X.X.X.G+s.;.w.x.x.x.x.U d+d+d+d+d+d+d+d+d+d+d+d+d+d+d+d+d+d+d+d+d+(.j.$.: [ c <.G+X.G+G+X.X.G+",
"G+G+G+X.X.G+X.X.X.W.$+n+d+d+d+d+d+d+d+d+d+d+d+d+d+d+d+d+d+d+d+d+h+D+G+G+X.X.X.W.W.W.W.X.X.X.X.G+r '.w.x.x.x.(.d+d+d+d+d+d+d+d+d+d+d+d+d+d+d+d+d+d+d+d+d+d x.}.| * f X.X.X.G+G+X.X.G+",
"G+G+G+G+X.X.X.X.X.W.X.u+d+d+d+d+d+d+d+d+d+d+d+d+d+d+d+d+d+d+d+d+d+/+X.G+G+X.X.X.W.X.X.X.X.X.G+G+G+z -.w.x.z.p+d+d+d+d+d+d+d+d+d+d+d+d+d+d+d+d+d+d+d+d++ z.x.| * i r G+X.X.G+G+X.X.G+",
"G+G+G+G+G+X.X.X.W.N.X.]+d+d+d+d+d+d+d+d+d+d+d+d+d+d+d+d+d+d+d+d+w+z+G+X.G+X.X.X.X.X.X.X.X.G+G+G+G+G+A j.}.z...d+d+d+d+d+d+d+d+d+d+d+d+d+d+d+d+d+d+d+d+x.v.| | | }.'.A G+G+G+G+X.X.G+",
"G+X.X.X.X.W.W.X.W.F.W.&+d+d+d+d+d+d+d+d+d+d+d+d+d+d+d+d+d+d+d+y+)+G+G+G+X.G+G+X.X.X.X.X.G+G+G+X.X.X.G+*.j.x.z.o.d+d+d+d+d+d+d+d+d+d+d+d+d+d+d+d+d+d+d+I.p | | }.j.x.j.:.s.X.X.X.X.X.",
"G+X.X.X.X.W.W.W.W.N.W.;+e+d+d+d+d+d+d+d+d+d+d+d+d+d+d+d+d+d+E.F+G+G+G+G+G+X.G+G+X.X.X.X.X.X.G+X.X.X.X.X.*.x.x.x.b+d+d+d+d+d+d+d+d+d+d+d+d+d+d+d+d+d+d+j.| | p I.I.j.v.v.u.O.N.X.X.X.",
"G+G+X.X.X.W.W.X.X F.X.#+e+d+d+d+d+d+d+d+d+d+d+d+d+d+d+d+d+d+<+G+G+G+G+G+G+G+X.G+X.X.G+X.X.X.X.X.X.X.X.X.X.).j.x.U f+d+d+d+d+d+d+d+d+d+d+d+d+d+d+d+f+f+p | p I.I.I.I.I.I.t.I.H.h.W.G+",
"X.X.X.X.X.W.W.W.N.H W.D+g++ d+d+d+d+d+d+d+d+d+d+d+d+d+d+d+d+~+G+G+G+G+G+G+G+G+X.G+G+X.X.G+G+G+G+G+X.X.X.G+X.h x.{.q+d+d+d+d+d+d+d+d+d+d+d+d+d+d+d+o+k+| | &.y.y.&.&.&.y.y.y.j.y.=.r ",
"X.X.X.X.X.W.W.W.N.#.W.C+. 1+d+d+d+d+d+d+d+d+d+d+d+d+d+d+d+e+!+X.X.X.X.X.G+G+G+G+X.G+G+X.G+G+G+G+G+G+G+G+G+G+X.%.5.@.d+d+d+d+d+d+d+d+d+d+d+d+d+d+d+ .k+| p G.G.y.y.G.G.G.y.y.G.y.j.J.",
"X.X.X.X.X.W.X.W.W.N.X.&+. {+8+d+d+d+d+d+d+d+d+d+d+d+d+d+d+e+]+W.W.W.X.X.G+G+G+G+G+X.G+G+X.G+G+G+G+G+G+G+G+G+G+X.` [+d+d+d+d+d+d+d+d+d+d+d+d+d+d+e+a.k+| x.v.y.G.G.G.G.G.y.G.G.G.y.I.",
"X.X.W.W.X.W.W.W.X.X.X.)+j+,+t+d+d+d+d+d+d+d+d+d+d+d+d+d+d+d+>+X.X.X.G+X.X.X.G+G+G+G+X.X.G+X.G+G+G+G+G+G+G+X.X.G+;+_ d+d+d+d+d+d+d+d+d+d+d+d+d+d+n+U ^ x.x.x.v.j.G.G.G.G.G.G.G.G.G.o ",
"X.F.#.T.W.W.W.W.X.X.X.C+j+,+/+d+d+d+d+d+d+d+d+d+d+d+d+d+d+d+A+X.X.X.G+G+X.G+G+G+G+G+X.X.G+X.X.G+G+G+X.X.X.X.X.X.$+s+d+d+d+d+d+d+d+d+d+d+d+d+d+d+..d . v.v.x.x.x.I.G.G.G.G.G.G.G.G.| ",
"N.W W H W.W.W.W.X.X.X.)+j+,+#+j+d+d+d+d+d+d+d+d+d+d+d+d+d+g+B+W.X.X.X.G+G+X.G+G+X.W.N.N.X.G+G+X.G+X.X.X.X.X.X.X.s.b+d+d+d+d+d+d+d+d+d+d+d+d+d+e+U 8.^ j.j.v.v.v.x.x.j.G.u.u.u.u.o * ",
"X W W W N.W.W.W.X.X.X.)+j+-+X.v+d+d+d+d+d+d+d+d+d+d+d+d+d+x+s.X.X.X.X.G+G+G+G+G+X.W.N.W.X.X.G+G+X.G+G+G+G+G+X.X.X.1+d+d+d+d+d+d+d+d+d+d+d+d+d+q+| 8.^ x.v.x.x.x.j.j.x.x.v.&.u.-.| | ",
"N.G = = 8 N.N.W.X.X.X.)+j+-+W.~+e+d+d+d+d+d+d+d+d+d+d+d+d+/+X.X.X.X.X.G+G+G+X.X.X.X.X.X.G+G+X.G+G+X.G+G+G+G+G+X.X.!+d+d+d+d+d+d+d+d+d+d+d+d+d+V j.8.^ I.v.j.j.x.v.j.x.v.j.j.I.o * p ",
"X = ; e H 8 8 X W.X.X.)+j+-+N.z o+d+d+d+d+d+d+d+d+d+d+d+h+D+G+G+G+G+G+G+G+X.X.X.X.X.X.X.G+G+G+X.X.G+X.G+G+G+G+X.X.#+7+d+d+d+d+d+d+d+d+d+d+d+d+l I.8.^ j.v.I.j.v.v.j.j.j.v.v.x.| | j.",
"N.W ; e 8 F.F.X W.X.X.)+j+w H W 1+d+d+d+d+d+d+d+d+d+d+d+x+G+G+G+G+G+G+G+X.X.X.X.X.X.X.X.G+X.X.G+X.G+G+X.G+X.X.X.X.W.b.d+d+d+d+d+d+d+d+d+d+d+0+z.I.8.^ j.j.j.v.I.v.j.I.v.v.j.| | p v.",
"Y.#.q.H N.N.X X W.X.X.C+j+-+X X !+d+d+d+d+d+d+d+d+d+d+d+w+%+W.$+>+!+1+b+L.] m /+>+$+N.W.Y.E+>+^+3+|++.y+] /+,+$+X.$+c.d+d+d+d+d+d+d+d+d+d+d+/.I.I.8.^ j.j.I.j.j.I.j.v.I.I.p * | j.I.",
"X.T.T.N.X.X.W.W.W.X.X.C+j+A+X.X.=+n+d+d+d+d+d+d+d+d+d+d+d+v+(+a+8+d+d+d+d+d+d+d+k+o+b.N./+o+8+d+d+d+d+d+d+d+k+s+(+@ d+d+d+d+d+d+d+d+d+d+d+j+3.j.j.8.^ j.I.I.j.I.j.j.I.j.j.| * p I.j.",
"X.N.N.W.X.X.X.W.W.X.G+)+j+-+N.N.W.<+d+d+d+d+d+d+d+d+d+d+d+d+d+d+d+d+d+d+d+d+d+d+d+d+^+T.-+e+d+d+d+d+d+d+d+d+d+d+d+d+d+d+d+d+d+d+d+d+d+d+d+s+I.G.&.8.^ I.j.&.I.G.j.j.I.j.p * | j.j.y.",
"G+X.X.G+G+G+X.W.W.X.G+C+j+w H H 8 *+f+d+d+d+d+d+d+d+d+d+d+d+d+d+d+d+d+d+d+d+d+d+d+s+Z.W.Y.}+d+d+d+d+d+d+d+d+d+d+d+d+d+d+d+d+d+d+d+d+d+d+d+/.I.j.&.8.^ &.y.I.j.I.&.&.y.j.| | j.I.j.&.",
"G+G+G+G+G+G+X.W.W.X.G+C+j+-+X X N.s.q+d+d+d+d+d+d+d+d+d+d+d+d+d+d+d+d+d+d+d+d+d+f+1+W.W.X._+h+d+d+d+d+d+d+d+d+d+d+d+d+d+d+d+d+d+d+d+d+d+o+).J.v.y.8.^ &.G.I.G.G.G.I.I.p | c I.j.y.j.",
"G+G+G+G+G+G+X.W.W.X.G+)+j+-+W.W.X.X._+d+d+d+d+d+d+d+d+d+x+~ { t+d+d+d+d+d+x+2+~ {+Z.N.N.X.X.z+!+3+L.f+d+d+d+d+n+<+!+] d+d+d+d+d+d+d+d+d+b.W.U.H.I.8.^ &.G.&.&.G.y.I.j.| | j.G.&.y.I.",
"G+G+G+G+G+G+X.W.W.X.G+)+j+-+W.W.X.X.%+8+d+d+d+d+d+d+d+d+{ W.W..+<+|+2+<+{+=+G+X.X.W.T.N.X.G+G+G+G+`.{+:+3+|+C.*+X.X.>+h+d+d+d+d+d+d+d+d+]+W.W.N.=.8.^ G.G.G.y.y.y.&.| * p y.&.G.I.G.",
"G+G+X.G+G+X.X.W.W.X.G+)+j+-+W.W.X.X.X.t+d+d+d+d+d+d+d+e+/+G+X.X.X.G+G+G+G+G+G+G+X.W.N.W.X.G+G+G+G+G+G+G+X.X.X.W.W.X.z+. d+d+d+d+d+d+d+q+s.W.W.X.W.B.^ t.&.G.y.G.G.o * | &.G.&.y.y.G.",
"X.X.X.X.X.X.X.W.W.X.G+C+j+-+W.W.X.X.W.!+d+d+d+d+d+d+d+d+m G+X.G+G+G+G+G+G+G+G+G+G+X.X.X.G+G+G+G+G+G+G+G+G+G+X.X.X.W.{+e+d+d+d+d+d+d+d+/+W.W.W.W.W.,+6+H.I.y.G.G.&.| | o y.G.&.&.y.G.",
"G+W.N.W.X.X.X.W.W.X.G+C+j+-+W.W.W.W.W.#+k+d+d+d+d+d+d+d+_ ++X.X.X.G+G+G+G+X.G+G+G+G+G+G+G+G+G+G+G+G+G+G+G+X.X.r W.Y.b+d+d+d+d+d+d+d+4+&+W.W.W.W.W.,+k+X =.G.G.G.p * , &.y.G.&.G.y.G.",
"G+X.W.N.X.X.X.W.W.X.G+)+j+-+W.W.W.W.W.W.m d+d+d+d+d+d+d+d+C.W.X.X.X.X.X.G+X.X.G+G+G+X.X.G+G+G+G+G+G+G+G+X.G+<.} 1 ~ d+d+d+d+d+d+d+d+0+s.W.W.W.W.W.,+k+G+X.*.J.j.| | o G.G.G.y.y.G.G.",
"X.X.X.X.W.X.W.W.W.X.G+)+j+-+W.W.W.W.W.W.,+e+d+d+d+d+d+d+d+h+>+X.X.X.X.X.G+G+X.G+G+G+G+G+G+G+G+G+G+G+G+G+G+G+A | ! # d+d+d+d+d+d+d+d+/+W.W.W.W.W.W.,+k+X.G+G+<.} * p G.y.y.y.G.G.G.G.",
"G+X.W.X.W.W.W.W.W.X.G+)+j+-+W.W.X.X.X.X.s.o+d+d+d+d+d+d+d+d+c+X.X.G+X.X.X.X.G+B+F+G+G+G+G+G+Y.{+X.G+G+G+G+X.X.r _.d+d+d+d+d+d+d+d+l+=+X.X.W.W.W.W.,+k+X.G+G+z | | -.I.y.y.y.G.G.G.G.",
"G+X.W.X.X.W.W.W.W.X.X.)+j+-+W.W.W.X.X.X.W.1+d+d+d+d+d+d+d+d+d+/+X.X.G+X.X.X.G+2+!+E+G+G+G+F+]+b+=+G+G+X.X.X.X.>+g+d+d+d+d+d+d+d+d+t+W.W.W.W.W.W.W.-+k+X.G+X.< [ 4 z H.G.G.G.G.y.G.G.",
"G+X.X.X.G+G+Y.N.W.X.X.)+j+-+W.W.W.X.X.W.W.*+. d+d+d+d+d+d+d+d+o+D+X.G+G+X.X.G+D+(+u+1+]+_+w+x+~+G+G+G+X.X.W. +@ d+d+d+d+d+d+d+d+d+]+N.N.N.W.W.W.W.-+k+X.G+% [ } s.G+s.%.u.I.y.G.y.G.",
"G+G+G+G+G+G+X.N.X W.X.)+j+-+W.W.N.X N.N.N.W.t+d+d+d+d+d+d+d+d+d+C.W.X.G+G+X.X.G+Y.|+e+d+d+(+D+W.W.W.W.W.W.N.K.d+d+d+d+d+d+d+d+d+k+A.W.N.W.W.W.W.W.,+k+G+s.b 2 ).G+G+G+X.<.H.G.G.y.G.",
"G+G+G+G+G+G+X.W.X N.W.&+j+T 8 8 H - = = G 8 ~ d+d+d+d+d+d+d+d+d+p+S.X.G+X.G+X.X.X.G+%+7 l f N.T.T.F.T.T.8 H (+d+d+d+d+d+d+d+d+d+u+: X.W.N.W.W.W.W.-+k+G+4 2 < Y.G+G+G+G+G+Y.%.J.y.G.",
"X.G+G+G+X.X.X.X.W.W.N.Q.j+T 8 8 - = $ ; $ 8 P.g+d+d+d+d+d+d+d+d+d+~ X.G+X.X.X.W.W.X.X 0 [ [ 9 r.N.#.F.F.H k 6+d+d+d+d+d+d+d+d+e+T n X W.X 8 8 8 F.w k+r | * A G+G+G+G+G+G+G+G+<.=.G.",
"W.W.X.W.W.W.X.W.W.W.X.&+j+w X N.N.8 n - - 8 N.w+d+d+d+d+d+d+d+d+d+..X.X.X.W.X.G+`.%+;+`.S l ! b A W.X.W.W.~ d+d+d+d+d+d+d+d+d+( n 8 8 X X F.8 8 8 -+k+1 2 1 G+G+G+X.X.X.X.X.X.X.W.%.",
"W.W.X.W.W.W.X.X.W.X.X.&+j+w W.W.N.F.N.N.N.F.F.w d+d+d+d+d+d+d+d+d+p+'+X.N.T.*+2+y+e+8+x+0+d+}+ .d 4 Y.G+F+@ d+d+d+d+d+d+d+d+d+3+#.N.N.N.X W.N.8 X ,+6+a | r G+G+X.X.W.W.W.W.W.X.W.N.",
"X.X.X.G+X.X.X.X.W.W.X.)+j+w X W.F.H F.W.W.N.8 j m+d+d+d+d+d+d+d+d+d+3+G+F.#./+m _+3+c.x+(+_+_+m V Z < r ~+d+d+d+d+d+d+d+d+d+d+{+F.W.X F.8 X W.N.X w ^ 2 4 G+G+X.W.X.X.W.N.N.W.G+W.T.",
"G+G+G+G+G+G+G+X.W.W.X.)+j+w 8 F.n = H N.N.W.N.H a+d+d+d+d+d+d+d+d+d+u+F+X.X.X.X.++G+G+X.X.X.E+G+> } 2 3 o.d+d+d+d+d+d+d+d+d+r+r F.F.8 8 8 8 8 F.N.l . } s.G+G+W.W.X.G+X.W.W.W.X.W.T.",
"G+G+G+G+G+G+G+X.W.W.X.&+j+-+X #.- = H N.W.X.N.W 9.h+d+d+d+d+d+d+d+d+d+]+G+G+G+X._+w++.(+b+_ 2+N.W.z 1 6.+ d+d+d+d+d+d+d+d+d+~ N.N.X X X 8 #.8 X r.8.^ f G+X.W.T.N.X.G+G+G+X.X.X.W.T.",
"G+G+G+G+G+G+G+X.W.W.X.&+j+-+W.N.- G F.W.W.X.F.W H s+d+d+d+d+d+d+d+d+d++.N.N.N.W.Y.!+c+b+c+{ U.#.#.T.h.(+d+d+d+d+d+d+d+d+d+g+%+F.X W.W.W.N.N.N.W.) d ^ Y.X.W.T.T.T.X.G+G+G+X.X.X.W.T.",
"G+G+G+G+G+G+G+X.W.W.X.&+j+-+W.W.n ; 8 X.W.N.#.H #.:+d+d+d+d+d+d+d+d+d+d+C.#.V.T.W.X.G+G+G+N.#.#.H H 7 d+d+d+d+d+d+d+d+d+d+_ F.- H W.W.N.N.N.W.A | d 6+G+X.W.T.T.T.N.W.X.G+X.X.X.W.T.",
"G+G+G+G+G+G+G+X.W.W.W.&+j+-+X N.H ; 8 W.N.#.#.#.#.v e+d+d+d+d+d+d+d+d+d+n+` T.N.W.X.G+G+W.F.H H H t D.d+d+d+d+d+d+d+d+d+d+~ 8 % $ N.X F.8 F.8 & 2 l k+G+X.W.T.T.T.T.N.X.G+G+X.X.W.T.",
"G+G+G+G+G+G+G+X.W.W.W.&+j+-+W.X G W T.X.W.T.F.#.H #.( d+d+d+d+d+d+d+d+d+d+( ]+W.X.X.G+G+X.#.H F.v # d+d+d+d+d+d+d+d+d+d+9+Z.X 8 8 N.N.X X N.e * c B.k+X.G+X.N.T.T.T.N.X.X.G+X.X.W.N.",
"X.X.G+G+G+G+X.X.X.W.W.&+j+-+W.N.- W W.X.X.W.N.N.F.N.3+d+d+d+d+d+d+d+d+d+d+d+m+3+D+X.X.X.X.W.Q.<+r+d+d+d+d+d+d+d+d+d+d+d+u+A W.W.W.W.W.W.W.X b [ : ,+k+X.G+G+X.W.W.W.W.X.X.X.X.X.W.W.",
"X.G+X.X.X.X.G+X.W.X.X.&+j+-+W.W.8 #.Y.G+W.X.X.X.X.X.;+8+d+d+d+d+d+d+d+d+d+d+d+d+m+1+C.2+3+|+q+d+d+d+d+d+d+d+d+d+d+d+d+d+U | : N.W.N.X X W.: [ , 8 -+k+X.X.G+G+G+G+G+X.X.W.X.X.X.W.X.",
"X.X.X.X.X.G+G+X.W.X.X.&+j+-+W.W.N.T.W.X.X.X.X.X.X.X.X.u+d+d+d+d+d+d+d+d+d+d+d+d+d+d+d+d+d+d+d+d+d+d+d+d+d+d+d+d+d+d+d+n+D [ [ < *.X X X n , [ :.N.w k+X.X.X.X.G+G+X.X.X.X.X.X.X.W.W.",
"W.W.W.W.X.G+X.X.X.X.X.&+j+-+X.W.W.W.X.X.X.X.X.X.X.X.X.~ d+d+d+d+d+d+d+d+d+d+d+d+d+d+d+d+d+d+d+d+d+d+d+d+d+d+d+d+d+d+d+:+N.f , 2 , h N.W.5 2 < X N.-+k+X.X.W.W.X.G+X.W.W.X.X.X.W.N.N.",
"N.N.N.W.X.G+G+X.W.W.W.&+j+-+X.X.X.X.X.X.X.X.G+X.X.X.X.D+i+d+d+d+d+d+d+d+d+d+d+d+d+d+d+d+d+d+d+d+d+d+d+d+d+d+d+d+d+d+f+P.N.N.h.0 * * q %.| | $.N.N.-+k+W.W.W.W.W.W.W.W.N.W.X.W.W.N.T.",
"T.T.T.N.X.G+G+X.W.W.W.&+j+-+W.W.W.X.X.X.W.W.X.X.X.W.X.X.}+d+d+d+d+d+d+d+d+d+d+d+d+d+d+d+d+d+d+d+d+d+d+d+d+d+d+d+d+d+r+n H H #.n g | * | [ & 8 H H T k+N.W.W.W.W.N.T.W.W.W.N.N.N.T.T.",
"T.T.T.N.X.G+G+X.W.W.W.&+j+-+W.W.W.X.X.W.W.W.X.X.W.W.X.X.~+d+d+d+d+d+d+d+d+d+d+d+d+d+d+d+d+d+d+d+d+d+d+d+d+d+d+d+d+d+x = - = $ - - :.} * a < % - - T 6+T.W.W.W.W.W.N.N.W.W.T.T.T.N.T.",
"T.N.N.W.X.G+G+X.W.W.W.&+j+-+W.W.W.X.X.W.W.W.X.X.W.X.X.W.Z.n+d+d+d+d+d+d+d+d+d+d+d+d+d+d+d+d+d+d+d+d+d+d+d+d+d+d+d+8+u H H 8 n 8 8 n b * a [ } e 8 9.6+N.W.X.X.W.W.W.W.W.W.W.W.W.W.W.",
"X.X.X.G+G+G+G+X.W.X.W.&+j+-+W.W.W.X.X.W.W.W.X.X.W.X.G+X.W.m d+d+d+d+d+d+d+d+d+d+d+d+d+d+d+d+d+d+d+d+d+d+d+d+d+d+d+u+X X X X N.X N.:.[ b h b [ | ) w k+W.X.X.G+X.X.X.X.X.X.G+G+X.X.X.",
"G+G+G+G+G+G+G+X.X.X.X.&+. W.X.W.W.X.X.X.X.W.X.X.W.W.X.G+X.X.k+d+d+d+d+d+d+d+d+d+d+d+d+d+d+d+d+d+d+d+d+d+d+d+d+d+e+X.W.W.W.W.W.W.r., [ h X.X g * [ < 6+X.W.X.X.G+G+G+G+G+G+G+G+G+G+G+",
"X.X.X.X.X.X.X.X.X.X.X.'+g+W.X.X.W.X.X.X.X.X.X.X.X.X.X.X.G+X.o+d+d+d+d+d+d+d+d+d+d+d+d+d+d+d+d+d+d+d+d+d+d+d+d+d+g+<.X.W.W.W.W.W.) 2 < N.W.X.X.> , 2   h W.X.X.G+G+G+G+G+G+G+X.G+G+X.",
"W.N.N.N.W.N.N.W.X.X.X.;+e+d+d+d+d+d+e+e+e+e+e+e+e+e+e+e+e+d+d+d+d+d+d+d+d+d+d+d+d+d+d+d+d+d+d+d+d+d+d+d+d+d+d+d+d+e+4+4+4+4+4+4+4+4+4+g+g+g+g+g+g+h+e+[ 1 X G+G+G+G+G+G+G+G+G+X.G+G+",
"W.W.N.T.T.T.T.W.X.X.X.#+g+d+d+d+d+d+d+d+d+d+d+d+d+d+d+d+d+d+d+d+d+d+d+d+d+d+d+d+d+d+d+d+d+d+d+d+d+d+d+d+d+d+d+d+d+d+d+d+d+d+d+d+d+d+d+d+d+d+d+d+d+d+d+| | r G+G+G+G+G+G+G+G+G+G+G+G+",
"T.W.W.T.T.T.T.W.X.X.X.;+f+d+d+d+d+d+d+d+d+d+d+d+d+d+d+d+d+d+d+d+d+d+d+d+d+d+d+d+d+d+d+d+d+d+d+d+d+d+d+d+d+d+d+d+d+d+d+d+d+d+d+d+d+d+d+d+d+d+d+d+d+d+d+n *.X.X.X.X.X.G+X.X.X.X.X.X.X.",
"T.T.W.W.N.T.W.X.X.X.X.X.$+.+$+$+$+$+$+$+$+$+$+$+$+$+$+$+$+$+++!+d+d+d+d+d+d+d+d+d+d+d+d+d+d+d+d+d+d+d+d+d+d+d+v+j A.u 6 ! 6 6 ! D .+A.R.R..+.+A.R.R.).N.W.W.W.W.W.W.W.W.W.W.W.W.W.N.",
"W.N.W.X.X.W.W.X.X.X.X.W.W.W.W.W.X.X.X.X.X.X.X.X.X.X.X.X.X.X.X.`.l+d+d+d+d+d+d+d+d+d+d+d+d+d+d+d+d+d+d+d+d+d+i+Q.X N.X.X 1 a | , h.N.T.T.T.T.T.T.T.V.#.F.N.N.N.N.N.T.T.T.T.T.T.T.T.T.",
"X.W.W.W.X.G+X.X.W.W.X.W.W.N.N.W.W.X.X.X.X.X.X.X.X.X.X.X.X.X.X.X.s+d+d+d+d+d+d+d+d+d+d+d+d+d+d+d+d+d+d+d+d+d+[+8 8 X W.G+r , * a 0 $.#.H H H H H #.- - F.N.N.N.N.N.N.T.N.N.N.N.N.N.N.",
"W.W.W.W.W.X.G+W.W.W.W.W.N.N.N.W.W.X.X.X.W.W.X.X.X.X.X.X.X.X.X.W.~+j+f+f+f+f+f+f+f+f+f+f+f+f+f+f+f+f+f+f+f+f+{ 8 8 8 W.X.) [ } } [ | 9 $ $ $ $ - - $ - #.N.W.W.W.W.W.W.W.W.W.W.W.W.W.",
"X.W.X.W.W.W.X.X.N.N.W.W.W.N.W.W.W.X.X.X.X.X.X.X.X.X.X.X.X.X.X.X.W.+ 7+d+d+d+d+d+d+d+d+d+d+d+d+d+d+d+d+d+d+m+).8 8 8 W.z | a e $ b a a 1 e n - - n - H 8 X W.X.W.W.W.W.W.X.X.X.X.X.X.",
"X.X.X.X.X.W.W.X.W.N.W.W.W.N.W.W.X.X.X.X.X.X.X.X.W.W.W.W.W.W.X.W.W.W.h * | n X.W.W.X.X.W.X.X.W.W.W.W.N.N.X 8 8 8 8 8 X 1 2 1 8 8 n g a 2 ) 8 8 8 n n 8 8 F.W.X.W.N.W.X.X.X.X.X.X.X.X.",
"W.X.X.X.X.W.W.W.W.X.W.W.W.N.N.W.W.X.X.X.X.X.W.T.T.F.F.F.F.F.T.T.F.$.c * 9 8 N.N.T.N.N.N.T.F.H W F.W.N.N.X 8 8 8 8 N.> * , z N.8 8 X h 9 X X 8 X 8 8 8 8 W.X.G+X.N.W.X.G+G+X.X.W.W.W.",
"W.X.G+G+G+X.X.W.W.X.X.Y.W.X N.W.W.X.X.X.X.X.N.F.#.#.#.#.#.#.#.8 W 0 [ b ; G #.N.T.T.T.T.F.H G = - X W.N.X F.8 F.N.X b 2 : X.W.N.N.N.W.W.X.W.N.N.F.F.F.X W.G+G+X.N.N.W.X.G+G+X.X.W.N.",
"X.X.G+G+G+X.X.X.W.W.X.X.N.N.W.W.X.X.X.X.X.X.X.W.F.F.F.T.F.F.F.T.g * , ; H H #.T.W.N.T.T.T.#.- ; - X W.N.X X X N.X.: 2 b s.X.W.W.W.W.X.G+X.X.X.N.X X X N.W.G+G+X.N.N.W.X.G+G+X.W.N.#.",
"G+G+G+G+G+G+G+X.W.W.W.X.X.W.W.W.X.X.X.X.X.X.X.X.W.W.W.W.W.W.W.$.| * : W.N.N.W.W.X.X.X.W.W.N.#.= - N.N.N.N.N.W.X.r , [ > G+X.X.X.X.X.X.G+G+G+X.X.X 8 X N.W.G+G+X.N.N.W.X.G+G+X.W.X 8 ",
"G+G+G+G+G+G+G+X.W.N.W.W.X.W.W.W.X.X.X.X.X.X.X.X.X.X.X.X.W.X.X b 2 5 W.W.X.X.W.X.X.X.G+G+X.X.N.#.8 N.W.N.X X N.W.: 2 < X.G+X.X.X.X.X.X.G+G+G+G+G+X.N.8 X X.X.G+W.X X W.X.G+X.X.W.W.W.",
"G+G+G+G+G+G+G+X.W.W.W.W.W.W.W.W.X.X.X.X.X.X.X.X.X.X.X.X.X.X.5 2 b X X.W.X.X.X.X.X.X.X.G+X.X.X.N.W.W.W.W.N.X X W.s.4 z G+X.X.W.W.W.X.X.X.G+G+G+X.G+X.N.N.W.X.X.W.X X W.X.G+G+X.X.W.W.",
"G+X.X.G+G+G+G+X.W.W.X.W.W.W.W.X.X.X.X.X.X.X.X.X.X.X.X.X.G+> a | A G+X.X.X.X.X.X.X.X.X.X.X.W.W.W.W.W.W.N.N.N.W.X.X.X.X.X.X.X.W.W.X.W.X.X.G+X.X.G+G+X.X.X.X.X.X.W.N.W.X.G+G+G+G+X.X.X."};
