/* XPM */
static const char * fs2_btn_quit_xpm[] = {
"131 58 256 2",
"  	c #151B21",
". 	c #121518",
"+ 	c #212A31",
"@ 	c #2D3F49",
"# 	c #40565F",
"$ 	c #4E626A",
"% 	c #2C4C56",
"& 	c #46666C",
"* 	c #426C70",
"= 	c #4E7376",
"- 	c #5B7476",
"; 	c #336265",
"> 	c #688081",
", 	c #5D9B82",
"' 	c #67BB97",
") 	c #0B1A13",
"! 	c #7EBEA1",
"~ 	c #78A791",
"{ 	c #578E74",
"] 	c #030705",
"^ 	c #5BB186",
"/ 	c #528B6E",
"( 	c #121E18",
"_ 	c #6CA789",
": 	c #5B9576",
"< 	c #081E12",
"[ 	c #56A077",
"} 	c #4A7C61",
"| 	c #54846A",
"1 	c #6F9982",
"2 	c #010D06",
"3 	c #51966E",
"4 	c #4D8564",
"5 	c #76C195",
"6 	c #6D726F",
"7 	c #82D4A1",
"8 	c #77A388",
"9 	c #000B04",
"0 	c #071E0F",
"a 	c #4A9364",
"b 	c #33553F",
"c 	c #67A37C",
"d 	c #76B48C",
"e 	c #688D75",
"f 	c #5A7965",
"g 	c #000602",
"h 	c #092412",
"i 	c #6EB787",
"j 	c #497558",
"k 	c #77B68C",
"l 	c #74B088",
"m 	c #5D8D6D",
"n 	c #071A0D",
"o 	c #5F846A",
"p 	c #506958",
"q 	c #092110",
"r 	c #3D694A",
"s 	c #223427",
"t 	c #558162",
"u 	c #669975",
"v 	c #7FBD90",
"w 	c #3C5744",
"x 	c #425748",
"y 	c #081F0E",
"z 	c #425D49",
"A 	c #52735B",
"B 	c #020A04",
"C 	c #010502",
"D 	c #061B0B",
"E 	c #051509",
"F 	c #041107",
"G 	c #071D0C",
"H 	c #081E0D",
"I 	c #2E5337",
"J 	c #335A3C",
"K 	c #538C60",
"L 	c #1C2D20",
"M 	c #446B4D",
"N 	c #111512",
"O 	c #606461",
"P 	c #000902",
"Q 	c #071E0C",
"R 	c #06190A",
"S 	c #2D4833",
"T 	c #547B5C",
"U 	c #4C6D53",
"V 	c #081D0C",
"W 	c #040E06",
"X 	c #020703",
"Y 	c #45644B",
"Z 	c #729779",
"` 	c #000601",
" .	c #070D08",
"..	c #54805B",
"+.	c #556D59",
"@.	c #0A1F0D",
"#.	c #0B1F0E",
"$.	c #5D8463",
"%.	c #7EAC85",
"&.	c #0A1B0C",
"*.	c #66946C",
"=.	c #4B694E",
"-.	c #527255",
";.	c #364938",
">.	c #374138",
",.	c #517954",
"'.	c #436245",
").	c #2F3B30",
"!.	c #4E7150",
"~.	c #68886A",
"{.	c #A1B2A2",
"].	c #000400",
"^.	c #000200",
"/.	c #010301",
"(.	c #020402",
"_.	c #040704",
":.	c #060A06",
"<.	c #3D593D",
"[.	c #648364",
"}.	c #425542",
"|.	c #5B755B",
"1.	c #516551",
"2.	c #375236",
"3.	c #618C5F",
"4.	c #354B34",
"5.	c #3C543B",
"6.	c #4B634A",
"7.	c #3F533E",
"8.	c #5F795E",
"9.	c #546D52",
"0.	c #0E170D",
"a.	c #2D412B",
"b.	c #445B42",
"c.	c #3C4E3A",
"d.	c #5C705A",
"e.	c #4B6847",
"f.	c #32482E",
"g.	c #0D120C",
"h.	c #2C3D29",
"i.	c #5A7854",
"j.	c #41563D",
"k.	c #354632",
"l.	c #516A4C",
"m.	c #5A7354",
"n.	c #3C5236",
"o.	c #3A4D35",
"p.	c #719268",
"q.	c #3A4A36",
"r.	c #687B63",
"s.	c #2C342A",
"t.	c #445B3D",
"u.	c #4B6045",
"v.	c #72866C",
"w.	c #7B8B76",
"x.	c #283922",
"y.	c #394E32",
"z.	c #56714D",
"A.	c #4E5D49",
"B.	c #253220",
"C.	c #52624C",
"D.	c #151E11",
"E.	c #181F15",
"F.	c #42553A",
"G.	c #405139",
"H.	c #4B5C44",
"I.	c #5B6C54",
"J.	c #363D33",
"K.	c #394931",
"L.	c #3E4F36",
"M.	c #11150F",
"N.	c #0D0F0C",
"O.	c #1C2517",
"P.	c #688757",
"Q.	c #45523E",
"R.	c #3D4638",
"S.	c #4D673D",
"T.	c #3E4B36",
"U.	c #58694E",
"V.	c #47563D",
"W.	c #4B5743",
"X.	c #3A4A2E",
"Y.	c #35432B",
"Z.	c #46573A",
"`.	c #4A5A3F",
" +	c #516146",
".+	c #2D3A23",
"++	c #3E4D32",
"@+	c #181F12",
"#+	c #28331E",
"$+	c #323F27",
"%+	c #2B3522",
"&+	c #222A1B",
"*+	c #425035",
"=+	c #596E43",
"-+	c #3E4A31",
";+	c #3A4331",
">+	c #515C46",
",+	c #14190E",
"'+	c #3A452D",
")+	c #4A553D",
"!+	c #56604B",
"~+	c #475239",
"{+	c #5C6452",
"]+	c #313A25",
"^+	c #414C30",
"/+	c #444D36",
"(+	c #353B2C",
"_+	c #374027",
":+	c #292D22",
"<+	c #0A0A07",
"[+	c #070705",
"}+	c #0C0C09",
"|+	c #21211A",
"1+	c #181813",
"2+	c #1E1E18",
"3+	c #6B6B61",
"4+	c #2D2B20",
"5+	c #11100B",
"6+	c #232017",
"7+	c #26231A",
"8+	c #1F1C15",
"9+	c #2B261D",
"0+	c #17140F",
"a+	c #181510",
"b+	c #1E1A14",
"c+	c #15120E",
"d+	c #4C4235",
"e+	c #15100A",
"f+	c #3E3326",
"g+	c #2A231A",
"h+	c #1D1812",
"i+	c #423729",
"j+	c #372E23",
"k+	c #564F46",
"l+	c #251E16",
"m+	c #4B3D2E",
"n+	c #46392B",
"o+	c #272018",
"p+	c #32291F",
"q+	c #665440",
"r+	c #725E48",
"s+	c #806A52",
"t+	c #8E8071",
"u+	c #221B14",
"v+	c #564635",
"w+	c #5E4D3B",
"x+	c #201A14",
"y+	c #1B1611",
"z+	c #221C16",
"A+	c #110E0B",
"B+	c #13100D",
"C+	c #1C1814",
"D+	c #0C0703",
"E+	c #090301",
"F+	c #040404",
"G+	c #000000",
"^.^.^.^.^.G+G+G+G+^.].` P 9 9 9 P ].].].^.^.^.^.^.^.^.].].].` g g ].^.G+^.G+G+G+G+G+^.^.^.G+G+F h h h h h h h h h E ^.G+G+^.].` ].G+^.].].].^.^.].].^.^.^.^.^.^.^.^.G+G+G+G+G+G+G+G+G+G+G+G+^.^.^.^.^.^.^.^.^.].` P ].` ` P ` P P ` /.^.^.^.` ` ` ].^.^.^.].].` 9 P ` ",
"^.^.^.^.^.^.G+G+G+^.].` P 9 9 9 P P ].].G+/.].^.^.^.^.^.^.].g g g ].^.^.^.G+G+G+G+G+^.^.G+G+F h h h h h h h h h R ^.G+G+G+G+^.^.G+^.G+^.^.^.^.^.].^.^.^.^.^.^.^.^.^.G+G+G+G+G+G+G+^.^.G+G+G+^.^.^.^.^.^.^.G+G+^.].].].].].` ].` ` ].^.G+G+G+^.].^.^.^.^.^.^.].].].].^.",
"].^.^.^.^.^.G+G+G+].].` P 9 2 9 P P ].^.^.^.` ].].^.].^.^.].g g ` ].^.G+^.G+G+G+G+G+G+G+^.E h h h h h h h h h R ^.G+G+G+G+G+G+G+G+^.^.G+^.^.^.^.].^.^.^.^.^.^.^.^.G+^.G+G+G+G+G+G+^.^.G+G+G+^.^.^.^.].].^.G+G+^.].].].].^.].` ].].` ].^.G+G+^.^.^.^.^.^.^.^.].].].].^.",
"].^.^.^.^.^.^.G+^.].].` P 9 9 9 P ` ].^.G+^.^.].` ].^.^.^.^.].].].^.G+G+G+G+G+G+G+G+G+C R h h h q q h q h h n C ^.^.^.G+G+G+G+G+G+G+G+G+^.^.^.^.].^.^.^.^.^.^.].].G+G+^.G+G+G+G+G+^.^.G+G+^.^.G+^.].` ` ^.G+G+^.^.].^.^.^.G+/.].^.].` ].G+G+^.^.^.^.^.].` ` ` ].].^.^.",
"` ].].].^.^.^.^.^.].` ` P 9 2 9 P ` ].^.G+G+^.^.].].^.^.^.^.].].].^.G+G+G+G+G+G+G+G+B G h q q q q q q q h R C A+c+a+h+z+{+t+f+l+z+u+x+y+p+n+l+g+j+j+n+i+3+n+p+9+p+o+o+p+9+y+^.G+G+G+^.G+^.].^.G+G+].` ` ^.G+G+^.^.^.^.G+G+^.G+^.^.^.].` ].^.^.^.^.^.].g P P ` ].].^.^.",
"P ].` P ].^.G+^.^.].` P 9 2 2 9 P P ` ^.G+G+^.^.^.].^.^.^.^.].].].].B ^.G+G+G+G+/.F q q q q q q q q q h R <+b+l+g+i+d+d+t+t+q+k+O 3+3+3+6 3+O O 3+3+O 3+3+{+k+k+n+p+9+g+z+l+l+G+G+G+^.G+].` ].G+G+^.].].^.G+G+^.^.^.G+G+G+G+G+G+^.^.].` ` ^.^.^.^.].].g P g ` ].^.^.G+",
"9 ].].P ` ^.G+^.^.].g P 9 2 2 9 9 P ` ^.G+G+G+^.].^.^.^.^.^.^.^./.E h W G+G+G+X n q q q q q q q q q q E /.g+i+j+j+r+t+w.6 - - > > > > > = * * * * * * * & - > > 6 6 3+k+j+l+o+G+G+^.^.G+^.].` ^.G+^.^.^.^.^.^.^.^.^.G+G+G+G+^.^.G+G+^.` ` ].].].^.].].].` ` ` ].^.^.G+",
"9 ].` P ].^.G+^.^.` ` P 9 2 2 9 P ` ].^.G+G+^.^.].].^.^.^.^.^.^.^.F < < ] /.F y q q q q q q q q q q F ^.G+B+j+p+j+k+O $ & - & & & ; ; ; ; ; ; ; ; ; ; ; ; * = = & & $ k+d+g+g+^.G+^.^.G+^.].` ^.G+G+^.^.^.^.^.^.G+G+G+G+G+G+G+G+^.G+^.].` ].^.^.].].].].].].].].^.^.^.",
"9 ].` g ].^.^.^.^.].` P P 9 9 P ].].^.^.G+^.^.` ` ].^.G+^.[+a+0+a+o+4+O.E.O.O.O.&+E.0.0.0.0.0.0.0.N.a+l+l+y+h+g+j+j+4++ + @ @ % @ % % % % % % % % # & $ $ $ # @ + +   B+a+g+p+g+h+l+l+a+}+<+<+<+<+<+[+<+B+1+c+0+0+0+a+g+o+0+0+a+[+G+G+^.].].^.^.].].].].].].].].].^.^.",
"g ].` ` ].].^.^.^.].].].` ` ` ].].].^.^.^.].` 9 P ].^.^.b+j+j+p+i+w+n+p+9+g+p+m+f+z+c+c+B+A+A+c+a+h+i+w+m+i+z+9+f+v+i+o+l+C+5+B+. .                   . . . c+c+a+e+e+z+g+9+m+v+v+m+w+i+h+a+c+A+A+B+c+c+z+f+m+p+g+9+p+n+w+i+p+j+j+b+^.G+^.^.^.^.].].^.^.].].].].` ].].",
"].].].].].].].^.^.].].].^.^.].^.^.].].^.^.^.].` g ].5+j+m+j+p+p+n+v+v+m+j+g+i+i+g+o+z+b+y+a+y+o+p+d+w+d+v+v+g+j+m+n+o+o+z+h+e+A+}+D+D+E+E+e+D+E+D+D+E+E+D+D+D+}+<+A+c+8+y+c+o+v+q+v+d+w+d+p+o+y+a+y+b+z+o+g+i+i+g+j+m+v+v+n+p+p+j+m+j+A+^.].].].].].^.^.].].].` 9 ` ].",
"^.^.].^.].].].^.^.].].^.^.^.^.^.^.].g ].^.^.].].<+f+v+f+q+j+9+i+j+7+7+9+z+c+x+a+c+c+b+b+1+B+C+b+b+7+l+y+g+g+b+b+h+z+j+g+y+z+g+p+9+j+u+b+o+p+g+x+h+h+z+b+u+l+7+6+h+0+z+9+a+5+y+b+g+g+y+l+7+b+b+C+B+1+b+b+c+c+a+x+c+z+9+7+7+j+i+9+j+q+f+v+f+<+` P P ` ].].].].].P 9 g ].",
"^.^.^.^.].].^.^.^.^.].^.^.^.^.^.^.].` ].G+G+_.4+d+r+w+i+v+j+g+b+}+(././.(.:. .}+<+<+N.g.M.0.g.g.g.:.:.:.] C C ]  .:.:. .N. .B X X C :.:.X X X B B :._.:._.:.:.B  .N. .:.:. .] C C ] :.:.:.g.g.g.0.M.g.N.<+<+}+ .:.(././.(.}+b+g+j+v+i+w+r+d+4+W 9 9 P ` ` ` ].` P ].^.",
"g C ^.^.^.^.^.^.^.].].^.^.^.^.G+G+^.].^.^.5+v+w+w+s+d+f+j+6+g.<+:.:.}+<+}+g.,+@+@+@+@+L s B.&+@+D.,+M.D.D.D.E.E.O.L s L L O.O.O.D.O.E.D.@+@+E.&+&+L O.@+@+O.@+O.O.L L s L O.E.E.D.D.D.M.,+D.@+&+B.s L @+@+@+@+,+g.}+<+}+:.:.<+g.6+j+f+d+s+w+w+v+0.9 9 P g ].].].].^.^.",
"D E E F W W P g ` ].].^.^.].C C X 2 F E 4+f+f+v+q+q+n+9+5+:.<+<+}+g.M.M.@+O.&+O.O.&+%+h.h.x.B.@+O.#+h.x.x.h.f.a.S S S S S h.a.f.x.x.B.x.&+@+@+B.B.h.x.$+#+#+x.a.h.S S S S S a.f.h.x.x.h.#+O.@+B.x.h.h.%+&+O.O.&+O.@+M.M.g.}+<+<+:.5+9+n+q+q+v+f+f+4+F 9 ` ].^.^.^.^.^.",
"Q y y y Q G D D R R R E R R R D D Q y d+w+j+j+m+v+f+c+] _.:.5+,+,+E.&+&+#+]+.+.+$+Y.K.Y.h.x.x.S a.a.f.a.x..+4.S k.z '.Y 5.a.S f.x.x.a.f.h.S a.x..+Y.f.++Y.'+$+S a.5.Y '.z k.S 4..+x.a.f.a.a.S x.x.h.Y.K.Y.$+.+.+]+#+&+&+E.,+,+5+:._.] c+f+v+m+j+j+w+m+9 ].].].^.^.^.^.",
"G G Q Q G G Q Q Q y Q Q y y Q Q Q Q Q r+w+w+n+j+5+C _.<+,+&+&+@+&+%+#+#+%+.+$+$+$+$+Y.4.4.Y.I b b 2.n.<.2.K.f.I I j 4 4 z S I Y.o.5.<.y.5.b b S Y.4.K.Y.$+$+Y.I S z 4 4 j I I f.K.2.<.n.2.b b I Y.4.4.Y.$+$+$+$+.+%+#+#+%+&+@+&+&+,+<+_.C 5+j+n+w+w+r+P ` ].].].^.^.^.",
"G G G G G G G G G G G G G G G Q Q Q G i+k+s+g+/./.[+}+O.h.$+.+]+#+$+]+%+.+.+.+$+#+Y.5.r r n.M |.9.2.r Y 6.9.7.w M r j r r Y 7.}.1.=.Y r <.|.A '.n.r r L.$+.+f.7.Y r r j r M w 7.9.6.Y r 2.9.|.M n.r r 5.Y.#+$+.+.+.+%+]+$+#+]+.+$+h.O.}+[+/./.g+s+k+i+B g g g g ].^.^.",
"G G G G G G G G G G G G G G G G G G G w+t+s+8+] <+g.O.#+$+-+++_+'+K.Y.'+K.y.Y '.k.t.M j M w Y *+*+2.e.F.b.8.1.z t ..<.M K A }.d.I.j.t.e.K.^+n.Y <.!.j e.y.y.Y }.A K M <...t z 1.8.b.F.e.2.*+*+Y w M j M t.k.'.Y y.K.'+Y.K.'+_+++-+$+#+O.g.<+] 8+s+t+w+2 ].g P g ].^.^.",
"G G G G G G G G G G G G G G G G G G G q+s+s+7+ .@+O.#+_+$+#+.+.+%+&+#+]+Y.T.`.F.K.L.j } =.=.} M '.m.r./+o.F. +H.T t <.Y | U H. +G.T.)+r.l.b.j } '.=.} =.K.K.t.H.U | Y <.t T H. +F.o./+r.m.'.M } =.=.} j L.K.F.`.T.Y.]+#+&+%+.+.+#+$+_+#+O.@+ .7+s+s+q+2 ].^.C g ^.^.^.",
"R D G Q Q Q Q Q Q H H H H H Q Q Q Q Q r+s+r+4+D.&+.+.+^+*+Y._+-+X.$+Y..+K.Q.~+G.k.]+Y p F.=.t T l.S.++Y.++L.o.F.l.9.w 6.m.u.L.q.L.T.$+*+S.-.T T u.b.A }.]+c.j.L.u.m.6.w 9.l.F.o.L.++Y.++S.l.T t =.F.p Y ]+k.G.~+Q.K..+Y.$+X.-+_+Y.*+^+.+.+&+D.4+r+s+r+B ].^.^.].^.G+G+",
"F X X W F F E E E E E E E E E E F F F q+r+r+j+O.#+X.X.^+G.y.X.'+++n.Y.'+'+'+T.;+Y.'+F.7.'.l.!.L.y.a.k.j.L.F.-.6.<.t.e.u.<.b.1.=.L.G.}.f.f.y.F.,.e.b.Q.T.'+;+G.1.b.<.u.e.t.<.6.-.F.L.j.k.a.y.L.!.l.'.7.F.'+Y.;+T.'+'+'+Y.n.++'+X.y.G.^+X.X.#+O.j+r+r+q+9 ].G+G+G+G+G+G+",
"y R B G+G+G+G+G+G+G+G+G+G+G+G+G+G+G+^.w+r+s+4+O._+n.$+_+Z.t.Z.*+F.X.$+]+]+++;+(+*+X.h.K.n.o.'.<.j.k.c.5.5.c.u.6.7.5.;.c.5.}.6.b.5.5.<.q.k.b.b.e.k.<.a.h.++G.;+6.}.5.c.;.5.7.6.u.c.5.5.c.k.j.<.'.o.n.K.h.X.*+(+;+++]+]+$+X.F.*+Z.t.Z._+$+n._+O.4+s+r+w+P ].G+G+G+G+G+^.",
"y y H E X G+G+G+G+G+G+^.^.G+G+G+G+G+^.v+r+r+g+O.Z.Z.++_+`.`.`./+t.++Y._+'+++'+X.*+b.b 4.Y Y m u u u u u u u u u *.-.z b.o.-+b.u u ,.a.a.4.'.5.n.T c u z V.-+-+b.-+u u t 5.o.F.u u u u u u u u u u c u T b.*+X.'+++'+_+Y.++t./+`.`.`._+++Z.Z.O.g+r+r+v+g ^.G+G+G+G+G+G+",
"y y y y H F g G+G+G+G+G+^.G+G+G+G+G+G+v+q+q+g+@+'+^+u.~+Z.V.*+*+Z.++Y.-+^+++G.L.)+~+c.5.'.c k k k k k k k k k k k k Y z 5.n.n.k k T ;.;.Y.}.j 7.t k k 7.V.Z.G.n.n.k k o }.o.n.k k k k k k k k k k k k t ~+)+L.G.++^+-+Y.++Z.*+*+V.Z.~+u.^+'+@+g+q+q+v+` ^.G+G+G+G+G+G+",
"Q y H Q y y n F C G+G+G+G+^.^.G+G+G+G+v+w+q+4+&+'+=+ +t.-+L.Z.Z.K.Y.'+-+Z.b.Z.G.V.`.Y =.'.k k u Y =.Y =.U -.U T k k U b.b.'+L.k k t ;.;.4.o.Y b.$.k k H.`.F.G.L.'+k k t '.o.K.U -.U =.Y k k u T -.,.t U `.V.G.Z.b.Z.-+'+Y.K.Z.Z.L.-+t. +=+'+&+4+q+w+v+].].^.G+G+^.].].",
"Q H y H Q H y y D W C G+G+G+^.G+G+G+G+m+v+w+4+&+'+-+Y.)+H.u.m.z. +*+*+~+ +u.~+/+G.u. +c.5.k k T k.4.;.7.c.b.5.U k k t M w c.5.k k t c.;.q.k.q.G.$.k k C.j.++~+5.c.k k m z c.5.5.b.c.7.;.k k T G.b.5.c. +u.G./+~+u. +~+*+*+ +z.m.u.H.)+Y.-+'+&+4+w+v+m+].].^.].^.].P P ",
"H Q Q Q Q H H H Q y R W C G+G+^.G+G+G+n+v+w+9+B.`.r.v.w.{.{.Z ~.U.`.*+*+G.n.K.Z.t.j.L.c.b.k k $.t.n.c.o.5.4.4.U k k ,.'.z x 5.k k t k.q.5.j.H.V.$.k k L.H.t.F.5.x k k $.Y z w 4.4.5.o.c.k k $.b.b.b.c.L.j.t.Z.K.n.G.*+*+`.U.~.Z {.{.w.v.r.`.B.9+w+v+n+` ].].].].].P P ",
"H Q Q Q H H Q H H H y y R W C G+G+G+G+n+v+v+4+;+I.3+r.I.A.i.P.!.2.t./+/+`.e.t.m.C.e.t.V.V.k k T K.n.f.Y.4.<.<.A k k t j U x '.k k T h.k.K.;+c.U o k k t.l.U.l.'.x k k *.j Y z <.<.4.Y.f.k k T 6.1.V.V.t.e.C.m.t.e.`./+/+t.2.!.P.i.A.I.r.3+I.;+4+v+v+m+P ].].].].].P P ",
"Q H Q Q Q H Q Q H Q H Q y H n F C ^.G+f+m+m+4+s.L.K.X.<.Y ,.=+S.,.,.C.`.m.U b.U.V. +`.>+l.k k t 7.}.T c ,.r j $.k k : : / A A k k $.<.}.7.c.7.H.m k k `.H.H.l.A A k k c : A A j r '.t.w k k t H.1.l.>+`. +V.U.b.U m.`.C.,.,.S.=+,.Y <.X.K.L.s.4+m+m+f+9 ].^.].^.].P ` ",
"Q Q Q Q H H Q H H Q Q H Q H Q y G E B p+m+n+8+B.b.1.m.~.m 3.P.z.!.*...-.T t U V.~+H.|.I.U k k $.}.Y m k u r 4 -.k k c c | '.Y k k $.r Y z 7.b.Q.$.k k d.)+)+u.Y '.k k c , U b.4 r n.'.M k k $.7.G.U I.|.H.~+V.U t T -...*.!.z.P.3.m ~.m.1.b.B.8+n+m+p+9 ].^.^.^.` 9 F ",
"Q Q Q Q Q Q Q Q Q H Q H Q Q H Q H y G i+d+m+9+a.8.r.[.C.[.$.p.*.=.*.[ t T | t Q.'+ +|.H.u.k k o Y ,.t l k 4 } -.k k [ K u.b.'.k k ..r ..,.z z b t k k |.~+-+6.'.b.k k c !.b.b.} M y.r t k k o w 7.u.H.|. +'+Q.t | T t [ *.=.*.p.$.[.C.[.r.8.a.9+m+d+f+` ^.G+^.g F n y ",
"H Q Q H Q Q Q H Q H Q Q Q Q Q H H Q Q i+v+m+:+h.1.r.r.|.e o p.%.*.3.c m |.+.8.C.9.e d.W.6.l k k k k k k k k k k k k K ..-.=.j l k k k k k k k k k k l [.~. +9.j =.k k u T =.U } M 5.U =.k k : / U 6.W.d.e 9.C.8.+.|.m c 3.*.%.p.o e |.r.r.1.h.:+m+v+f+^./.B E H q q q ",
"H Q Q Q Q Q Q Q Q H Q Q Q Q Q Q H H Q f+d+m+9+%+b.H.C.9.d.C.[.*.$.*.*.~.{+r.!+{+~.Z |.r.~ _ d k k k k k k k k k l m M '.=.i.$.u l k k k k k k k k d ~.o Z f C.$.i.k k m e.-.$.4 } =.6.}.k k _ _ , ~ r.|.Z ~.{+!+r.{+~.*.*.$.*.[.C.d.9.C.H.b.%+9+m+d+f+F R y q q q q y ",
"Q Q H Q H Q Q Q H Q Q H Q Q H Q Q Q H j+i+i+6+:+A.>+U.9.C.!+>+|.8.[.8.I.V.~+~+1.|.|.d.{+f [ 7 7 ..F.=.u.u k c z.e.5.|.6.<.l.!./ { H.=.6.G.u 7 5 { 8.!+8.|.8.6.!.l.<.6.|.5.e.z.} { Y u.=.F...7 7 [ f {+d.|.|.1.~+~+V.I.8.[.8.|.>+!+C.9.U.>+A.:+6+i+i+j+q q y y y y y y ",
"G G G Q Q Q H Q Q Q Q G Q Q Q H H Q Q j+f+i+7+%+T.Q.I.I.U.W.U.I.[.8. +!+d.>+>+u.i.U.f ~.+.u i v [.U.e U -.k k m r J 1.'.J j m ^ T `.$.~.6.Z v i $.+.e +.U.z.6.m j J '.1.J r t ^ / `.U e U.[.v i u +.~.f U.i.u.>+>+d.!+ +8.[.I.U.W.U.I.I.Q.T.%+7+i+f+j+y y y y y y y y ",
"G Q Q G G G Q Q H H Q G G H H Q Q H Q i+f+j+8+%+T.L.C. +6.W.Q.>+[.u.)+{+w.r. +C.8.r.w.1 ~.e e e 8.8.[.f $.i _ o M } j } } Y =.^ [ [.o ~.8.8.u u e ~.8 r.r.m.9.=.Y } } j } M Y 3 ^ $.f [.8.8.e e e ~.1 w.r.8.C. +r.w.{+)+u.[.>+Q.W.6. +C.L.T.%+8+j+f+i+y @.y y y y y y ",
"G G H G Q G G Q G G G H G Q G Q Q Q H j+j+n+h+|+Q.A.9.-.!.>+)+!+>+r.r.r.Z [.`.W.|.v.o 1 8 1 e 1 ~.I.9.I.|.3 4 `.w [ 4 3 4 T.u.a 4 d.m.9.8.e 1 1 1 1 u [.v.U.H.u.T.4 3 4 [ w `.4 3 |.I.9.I.~.1 e 1 8 1 o v.|.W.`.[.Z r.r.r.>+!+)+>+!.-.9.A.Q.|+h+n+j+j+H y y y y y y y ",
"Q G G Q G G G H G G Q Q G G Q G Q Q Q j+n+n+C+&+W.8.|.~.-.W.>+A.>+H.`.l.l.r.d.I.u.r.e 1 8 e r.8.e w.v.I.Y 3 3  +!.^ } [ [ u.9.[ 4 A.8.v.Z e 8.r.Z ~ e e d.6.|.9.u.[ [ } ^ !. +3 3 Y I.v.w.e 8.r.e 8 1 e r.u.I.d.r.l.l.`.H.>+A.>+W.-.~.|.8.W.&+C+n+n+j+y y y y y y H y ",
"Q G G G G G G G Q G G G Q G G G G Q G p+f+j+1+O.l.~.8.Z 9.C. +/+>+A.p d.H.H.d.|.b.9.~._ e e r.m.[.r.A./+1., | l.t ' / [ ^ !.9.: : W./+C.r.8.8.[.e 1 1 r.6.H.[.9.!.^ [ / ' t l.| , 1./+A.r.[.m.r.e e _ ~.9.b.|.d.H.H.d.p A.>+/+ +C.9.Z 8.~.l.O.1+j+f+p+y H H y y y y y ",
"G G G H G G G G G G Q G Q G G Q H G G o+g+l+a+O.t.m.Z 1 $.e.)+/+ +>+r.8.1.}.W.b.A 8.Z ~ o f [.$.!.L.6.Q.9.{ | !.} , / : { U i.{ m A.b.b.o...o ~.f e ~ ~.o U 6.i.U { : / , } !.| { 9.Q.6.L.!.$.[.f o ~ Z 8.A b.W.}.1.8.r.>+ +/+)+e.$.1 Z m.t.O.a+l+g+7+Q H y H H y H H ",
"G G G G G G G G G G G G G G G Q G G G b+z+x+|+&+-+l.I.v.o l.!+)+U.I.{+{+I.!+W.p f |.~.1 e i.|.|.u.>+U.V.-., : U | 3 { / : } -., { 6.W.U.W.l.8.i.8.Z Z [.8.f p -.} : / { 3 | U : , -.V.U.>+u.|.|.i.e 1 ~.|.f p W.!+I.{+{+I.U.)+!+l.o v.I.l.-+&+|+x+z+b+H y H Q Q H H H ",
"Q G G G G G G G G G G G G G G G G G G y+y+b+2+:+_+z.m.v.8 $.I.d.d.I.!+W.)+A.v.8.f f ~.e r.3.T f d.!+V.G.U | f -.m { j 4 : t 9.| } 6.T.W.!+|.f ..[.[.e o f f r.9.t : 4 j { m -.f | U G.V.!+d.f T 3.r.e ~.f f 8.v.A.)+W.!+I.d.d.I.$.8 v.m.z._+:+2+b+y+1+Q H Q Q H H Q H ",
"R G Q G G G G G G G G G G G G G G G G 8+z+b+7+:+c.v.v.[.Z o m.~.p.1 f C.f ~.[.Z 8 _ c $.U U f f A b.b.l.-.} d.A : , j 4 , | d.8.} m.Y }.u.f f T U -.o c _ 1 ~.d.| , 4 j , : A d.} -.l.b.b.A f f U U $.c _ 8 Z [.~.f C.f 1 p.~.m.o Z [.v.v.c.:+7+b+z+8+H Q H Q H Q H H ",
"C W R G Q G G G G G G G G G G G G G G p+z+x+4+:+R.w.r. +r.v.~.~.[.1 u 8.~.%.Z e ! ' _ T Y j , o 4 Y <.u.>+j 9.8.A } Y r j +.C.U U >+u.b.j { e | b k.w j { | w C.+.j r Y } A 8.9.j >+u.<.Y 4 o , j Y T _ ' ! e Z %.~.8.u 1 [.~.~.v.r. +r.w.R.:+4+x+z+p+Q Q Q Q Q H H H ",
"G+^.C W R G Q Q G G G G G G G G G G G 9+j+n+7+E.:+;+u.*+U.U.[.8.A.1.+.W.I.~.p.*.8 5 _ o t : f +.f p z 7.L.j.q.c.>.b r r z x R.k.c.q.}.x p o f j b h.).S S ).h.R.x z r r b >.c.q.j.L.7.z p f +.f : t o _ 5 8 *.p.~.I.W.+.1.A.8.[.U.U.*+u.;+:+E.7+n+j+9+H Q Q H H Q Q H ",
"^.^.G+G+/.2 E G H G G G G G G G G G G i+m+w+4+N.M.E.B.B.B.h.w z ;+s.J.(+;+Q.7.w w U U w z x >.).).s.s.).s.s.B.|+E.s S b ;.:+:+s.B.:+).s.J.).s.s.s L L L L s s :+:+;.b S s E.|+B.s.s.).s.s.).).>.x z w U U w w 7.Q.;+(+J.s.;+z w h.B.B.B.E.M.N.4+w+m+i+H Q Q Q Q Q Q Q ",
"^.^.^.G+G+G+/.B E D Q Q G G G G G G G i+i+d+9+(.^./._.X _.:.g.N  .}+N.g.N.M.N ( ( ( ( ( N N.M.N g.N.N N N. .<+<+}+) g.( ( N.}+:.:.:.M.1+E.N. .<+<+ .g.N.N.N N }+N.( ( g.) }+<+<+ .N.N N N.g.N M.N.N ( ( ( ( ( N M.N.g.N.}+ .N g.:._.X _./.^.(.9+d+i+i+Q Q H Q H Q Q H ",
"^.^.^.G+G+G+^.^.^.X F R Q H Q G G G G n+m+n+j+x+a+x+x+u+y+c+5+A+A+5+A+}+A+A+A+A+5+B+A+c+c+y+y+B+B+5+B+e+5+5+A+5+A+}+}+}+<+<+<+<+<+<+[+<+<+[+F+[+[+[+[+[+[+<+A+<+<+<+}+}+}+A+5+A+5+5+e+B+5+B+B+y+y+c+c+A+B+5+A+A+A+A+}+A+5+A+A+5+c+y+u+x+x+a+x+j+n+m+n+Q Q Q H Q Q Q Q ",
"^.^.^.G+G+G+^.^.G+G+G+/.2 E D H Q G G m+m+m+d+v+f+n+i+n+j+p+p+9+o+g+l+l+z+z+z+l+z+z+l+o+g+g+z+x+x+b+x+z+z+z+b+b+h+y+y+y+a+c+c+c+c+c+B+c+B+A+<+}+A+5+5+}+B+5+h+c+c+a+y+y+y+h+b+b+z+z+z+x+b+x+x+z+g+g+o+l+z+z+l+z+z+z+l+l+g+o+9+p+p+j+n+i+n+f+v+d+m+m+m+H Q Q Q Q Q G Q ",
"G+^.^.G+G+G+^.^.^.^.G+G+G+/.X F R G Q i+n+n+v+m+f+i+j+i+f+p+g+g+o+o+z+o+z+x+l+l+9+z+x+h+h+h+y+h+h+y+h+u+b+y+y+c+0+0+0+c+B+c+B+5+A+5+5+B+B+B+A+<+}+}+A+A+5+A+c+B+c+B+c+0+0+0+c+y+y+b+u+h+y+h+h+y+h+h+h+x+z+9+l+l+x+z+o+z+o+o+g+g+p+f+i+j+i+f+m+v+n+n+i+H Q Q G Q Q Q y ",
"^.^.^.G+G+G+^.^.^.^.^.G+^.^.G+^./.B E p+f+i+i+j+p+i+f+j+p+7+7+g+g+o+8+h+b+h+o+6+o+h+h+0+a+y+a+a+a+a+y+y+y+0+c+c+c+c+c+5+5+B+5+A+A+5+B+B+A+c+c+A+}+<+}+A+A+A+}+5+B+5+5+c+c+c+c+c+0+y+1+y+a+a+a+a+y+a+0+h+h+o+6+o+h+b+h+8+o+g+g+7+7+p+j+f+i+p+j+i+i+f+p+Q Q Q Q Q D E F ",
"^.^.^.^.G+G+^.^.^.^.^.G+G+^.^.^.G+G+G+_. .E &.@.@.#.#.H H H H H H H H V V V V V V V V V V V V V V V V :.F+[+0.V V V V V V V V 1+[+[+<+<+N.5+A+<+<+<+}+N.[+F+ .V V V V V V V V V V V V V V V V V V V V V V V V V H V V H H < < < H H H #.#.@.@.@.#.@.@.Q Q D R E 2 ` ` ",
"^.^.^.^.G+G+^.^.^.^.^.^.^.G+^.^.^.^.^.G+G+^.C 2 E D G Q Q Q G G G G G G G G G G G G G G G G G G G G G :.F+<+E G G G G G G G G 2+[+<+}+B+a+1+B+B+A+B+N.1+}+(. .G G G G G G G G G G G G G G G G G G G G G G G G G G G G G G 0 < < G G Q V G 0 0 Q H Q D E F B P g ` ^.^.",
"^.^.^.^.G+G+^.^.^.^.^.^.^.^.G+^.^.^.^.^.G+G+G+G+^.C 2 F R n Q H Q G G G G G G G G G G G G G G G G G G :.<+N.E G G G G G G G G E.<+}+c+1+b+1+0+C+C+b+1+N N F+ .G G G G G G G G G G G G G G G G G G G G G G G G G G G G G G G < < G G G Q 0 < 0 R E F P ].].].` ].^.^.G+",
"^.G+G+^.G+G+^.^.^.G+^.^.^.^.G+G+^.^.^.^.G+G+G+G+G+G+^.G+/.X W E D G Q Q Q G G G G G G G G G G G G G G  .}+}+0.G G G G G G G G 2+}+c+2+8+2+|+b+6+9+|+9+2+N [+ .G G G G G G G G G G G G G G G G G G G G G G G G G G G G G G G < < H Q H R R < < g ^.]./.].].` ].].^.G+G+",
"^.^.^.^.G+G+^.^.^.^.G+^.^.^.^.^.G+^.^.^.G+G+G+G+G+^.^.^.^.G+^.].g B F E n G Q H H Q G G G G G G G G G }+5+a+D.G G G G G G G G &+5+C+7+4+9+4+7+j+i+j+j+9+2+}+g.G G G G G G G G G G G G G G G G G G G G G G G G G G G Q Q H Q < < n F B C C < < ] ^.].].].` P 9 P ` ].^.",
"^.^.^.^.G+^.^.^.^.^.^.^.^.^.^.^.^.G+^.^.G+G+G+G+G+^.^.^.^.^.].^.^.^.^.^./.B W E R D G Q H Q G G G G G N.c+b+D.G G G G G G G G |+a+8+4+n+n+d+d+d+d+d+d+>.:+N.g.G G G G G G G G G G G G G G G G G G G G G G G Q Q Q G D R E W n h F G+G+G+G+E h E ^.].].].P 2 2 2 9 P ` "};
