/* XPM */
static const char * fs2_btn_play_click_xpm[] = {
"131 58 256 2",
"  	c #555254",
". 	c #5A5A5D",
"+ 	c #BEDEF6",
"@ 	c #62686A",
"# 	c #A6BCBF",
"$ 	c #7E8E90",
"% 	c #D7F4F6",
"& 	c #DFFEFF",
"* 	c #010303",
"= 	c #D9FFFF",
"- 	c #E3FFFF",
"; 	c #E6FFFF",
"> 	c #EBFFFF",
", 	c #F6FFFF",
"' 	c #E5FBF9",
") 	c #D1E8E4",
"! 	c #B8D2CB",
"~ 	c #C6D9D4",
"{ 	c #020705",
"] 	c #02120A",
"^ 	c #030F09",
"/ 	c #010503",
"( 	c #5B9A7A",
"_ 	c #05180E",
": 	c #081D12",
"< 	c #0A2416",
"[ 	c #194D32",
"} 	c #1B5135",
"| 	c #5DB285",
"1 	c #578D71",
"2 	c #010A05",
"3 	c #19492F",
"4 	c #67A482",
"5 	c #010D06",
"6 	c #05150C",
"7 	c #153F27",
"8 	c #174129",
"9 	c #19462C",
"0 	c #4E8365",
"a 	c #173A25",
"b 	c #49785C",
"c 	c #76AE8D",
"d 	c #15281C",
"e 	c #539C6E",
"f 	c #6C947B",
"g 	c #5A7966",
"h 	c #9BBDA8",
"i 	c #142D1D",
"j 	c #355641",
"k 	c #131E17",
"l 	c #010703",
"m 	c #52745D",
"n 	c #111713",
"o 	c #4B9161",
"p 	c #2D5339",
"q 	c #223528",
"r 	c #688C73",
"s 	c #354239",
"t 	c #93A699",
"u 	c #426B4D",
"v 	c #010903",
"w 	c #4D865A",
"x 	c #2C4833",
"y 	c #3D6246",
"z 	c #5C8666",
"A 	c #435D49",
"B 	c #799A81",
"C 	c #4D6C54",
"D 	c #010B03",
"E 	c #345D3C",
"F 	c #1D3221",
"G 	c #45634B",
"H 	c #405A45",
"I 	c #030904",
"J 	c #3F6E47",
"K 	c #567E5D",
"L 	c #48754F",
"M 	c #273B2A",
"N 	c #2E3B30",
"O 	c #374A39",
"P 	c #1E2B1F",
"Q 	c #68946B",
"R 	c #537155",
"S 	c #678669",
"T 	c #4A594B",
"U 	c #586E59",
"V 	c #537954",
"W 	c #4C6D4D",
"X 	c #010B01",
"Y 	c #010901",
"Z 	c #010701",
"` 	c #010501",
" .	c #010301",
"..	c #030703",
"+.	c #060D06",
"@.	c #060A06",
"#.	c #030503",
"$.	c #3E653E",
"%.	c #0B110B",
"&.	c #3D5A3D",
"*.	c #456345",
"=.	c #3C543C",
"-.	c #415741",
";.	c #4C644C",
">.	c #0E110E",
",.	c #365B35",
"'.	c #2F412E",
").	c #192718",
"!.	c #2D3E2C",
"~.	c #364735",
"{.	c #617A5F",
"].	c #455344",
"^.	c #5E745C",
"/.	c #385135",
"(.	c #455C42",
"_.	c #73916F",
":.	c #41513F",
"<.	c #32472F",
"[.	c #364B33",
"}.	c #788B75",
"|.	c #4C6946",
"1.	c #3A4F36",
"2.	c #3E4E3B",
"3.	c #576B53",
"4.	c #6A7A67",
"5.	c #3D5836",
"6.	c #253122",
"7.	c #66845E",
"8.	c #536A4D",
"9.	c #3A4A36",
"0.	c #2D4227",
"a.	c #374F30",
"b.	c #56714E",
"c.	c #1D241B",
"d.	c #445D3C",
"e.	c #4C6344",
"f.	c #5F7B55",
"g.	c #0A0D09",
"h.	c #4E5F48",
"i.	c #2B3428",
"j.	c #2A4022",
"k.	c #283A21",
"l.	c #5C7254",
"m.	c #3A4E31",
"n.	c #3E5435",
"o.	c #425739",
"p.	c #161D13",
"q.	c #72846A",
"r.	c #050903",
"s.	c #324628",
"t.	c #364A2C",
"u.	c #32422A",
"v.	c #415239",
"w.	c #46573E",
"x.	c #4C5D44",
"y.	c #35422E",
"z.	c #435A36",
"A.	c #11160E",
"B.	c #37472E",
"C.	c #3A4931",
"D.	c #3F4F36",
"E.	c #54624C",
"F.	c #4C643D",
"G.	c #4A5C3E",
"H.	c #46523E",
"I.	c #4B5743",
"J.	c #232E1B",
"K.	c #3E4F32",
"L.	c #566D46",
"M.	c #46573A",
"N.	c #404C37",
"O.	c #202919",
"P.	c #3B4B2E",
"Q.	c #5C6C4F",
"R.	c #141A0F",
"S.	c #2E3B23",
"T.	c #192013",
"U.	c #37462A",
"V.	c #334127",
"W.	c #1C2316",
"X.	c #495A39",
"Y.	c #435235",
"Z.	c #030501",
"`.	c #29341E",
" +	c #425331",
".+	c #2C3721",
"++	c #313D25",
"@+	c #36422A",
"#+	c #3E4A32",
"$+	c #536244",
"%+	c #060705",
"&+	c #667259",
"*+	c #0A0B09",
"=+	c #343D2A",
"-+	c #465139",
";+	c #586549",
">+	c #525B48",
",+	c #3B452E",
"'+	c #282C23",
")+	c #5B6450",
"!+	c #505A41",
"~+	c #4B543D",
"{+	c #3C4331",
"]+	c #495534",
"^+	c #404636",
"/+	c #414B2F",
"(+	c #363E25",
"_+	c #384027",
":+	c #383A34",
"<+	c #10120B",
"[+	c #383C2D",
"}+	c #464A38",
"|+	c #32342B",
"1+	c #191B11",
"2+	c #030301",
"3+	c #050503",
"4+	c #0A0A07",
"5+	c #12120D",
"6+	c #24241E",
"7+	c #1F1F1A",
"8+	c #C1C1BA",
"9+	c #171610",
"0+	c #928E7F",
"a+	c #2E2B21",
"b+	c #322F26",
"c+	c #1D1B16",
"d+	c #0F0D0A",
"e+	c #433F39",
"f+	c #120F0B",
"g+	c #251F17",
"h+	c #5A5145",
"i+	c #1E1913",
"j+	c #322A20",
"k+	c #3B342B",
"l+	c #282119",
"m+	c #574837",
"n+	c #4C3F30",
"o+	c #3E3327",
"p+	c #2E261D",
"q+	c #45392C",
"r+	c #2A231B",
"s+	c #7A6854",
"t+	c #62503D",
"u+	c #372D23",
"v+	c #16120E",
"w+	c #1C1712",
"x+	c #221C16",
"y+	c #191511",
"z+	c #6A5A49",
"A+	c #0D0B09",
"B+	c #4B4643",
"C+	c #050302",
"D+	c #090706",
"E+	c #030101",
"F+	c #030303",
"G+	c #010101",
"2 5 ] ] ] 6 6 6 ] ] ] < [ } [ [ [ [ [ [ [ [ 3 3 3 3 3 3 3 3 3 3 3 3 3 3 3 3 3 8 : D ] : < < : 6 6 _ : : : _ ] { { { 2 2 2 2 2 2 2 2 2 2 { l 2 5 5 5 v l l D D v / `  . .G+ .Z `  . . .G+ .` `  . .` * / l l l l / / / l l l l { 2 2 5 ^ ^ ^ ^ ^ ] 6 ] 5 l l / / / l l ",
"l l v 2 2 2 2 l l l 6 7 [ [ [ 3 3 3 3 3 3 3 3 3 3 3 3 3 3 3 3 3 3 3 3 3 3 3 9 : 2 5 l 5 _ < < : ] ] 6 6 6 ^ l / / / / / / / / / / / l l * * / v v v l / / ` Z `  . .G+G+G+G+ . . . . . . .` `  . . . . .` ` ` / / * * / * * / / / / / { { v 5 D v ] ] v * * *  . . . .",
"* * * * * * / * * l a [ 3 3 3 3 3 3 3 3 3 3 3 3 3 3 3 3 3 3 3 3 3 3 3 3 3 9 :  . .*  . .* 6 < < _ 5 2 5 5 l  . . . . . . . .`  . . .` ` `  . .` ` `  . . . . . . . . .G+G+G+ .G+G+G+G+G+ . .G+ . .` ` G+G+ . . . . . . .` ` ` ` `  .* / 2 D v `  .D 5 l G+G+G+G+G+G+G+",
"G+ . .G+G+ . .G+* < 3 3 9 3 9 9 9 3 3 3 3 3 3 3 3 3 3 9 9 9 9 9 9 9 9 3 9 : G+G+G+G+G+G+G+G+^ : < : 5 / l  .G+G+G+G+G+G+G+ . .G+G+G+ . . .G+G+G+ . .G+ . . . .G+ . .G+G+G+G+G+G+G+G+G+G+ . . .G+ . . .G+G+G+G+G+G+ . .` l l ` ` l l l D 5 5 /  . .5 5 l G+G+G+G+G+G+G+",
"G+G+G+G+G+G+G+A+T.q M '.)+4.-+{+C.9.2.:.E.&+4.4.^.)+)+!+4.~+^+{+{+[+|+k+u+v+G+G+G+G+ . .`  . .2 : < : ^  .G+G+G+G+G+G+G+G+G+G+G+G+G+G+G+G+G+G+G+G+G+G+G+G+G+G+G+G+G+G+G+G+G+G+G+G+G+G+G+G+`  .G+G+G+G+G+G+G+G+G+ .G+` l v /  . .Y v v D D v `  .` ^ ] l G+G+G+G+G+G+G+",
"G+ . .G+G+3+x+j+o+n+t+t+0+0+0+t h 8+8+8+~ ~ ) ) ~ 8+8+8+8+0+0+s+h+n+o+u+j+j+x+G+G+Z v v D v Y Y ^ : < : ]  .G+G+G+ .G+G+G+G+G+G+G+G+G+G+G+G+G+G+G+G+G+G+G+G+G+G+G+G+G+G+G+G+G+G+G+G+G+G+G+`  .G+G+G+G+G+G+G+G+G+G+G+ .v D l G+G+G+ .` l Z  . .` Z ] 6 l G+G+G+G+G+G+G+",
"G+ . .G+G+y+n+q+q+s+h 8+~ % - > , , , , , , , , > ; ; & & & - ' ) 8+t s+q+j+r+G+ .Y D D D D D X v 5 _ : < 6 * G+G+Z Z  .G+G+G+G+G+G+G+G+G+ . .G+G+G+G+G+G+G+G+G+G+G+G+G+G+G+G+G+G+G+G+G+G+ .G+G+G+G+G+G+G+G+G+G+G+ .` v 5 v  .G+G+G+ . . . .` Z l ] 6 l G+G+G+G+G+G+G+",
"G+ . .G+G+A+q+o+o+q.% & = - = = = = = & > , , , ; & = = = = = & = = ; t B+u+j+w+c+9+<+9+r+r+r+p+b+r+a+b+b+|+b+p+p+p+j+u+j+j+j+j+j+j+j+j+j+j+u+u+u+o+j+l+x+x+x+k+p+p+r+p+j+r+r+l+v+A+l+w+g+g+y+A+4+4+4+D+D+D+D+5+w+9+9+9+9+1+r+g+9+v+y+%+ . .Z v 2 ] 6 l G+G+G+G+G+G+G+",
"G+ .G+G+G+%.r+u+q+n+. $ # + + % % = = & > , , > ; - - ; & & % + # t @ b+g+u+o+m+k+r+x+j+u+p+j+o+h+u+o+q+q+n+q+o+n+m+m+m+m+m+t+t+t+m+m+z+t+t+z+s+s+s+s+m+o+m+m+t+t+m+q+q+q+o+m+0+s+p+m+m+n+m+q+i+y+v+d+d+5+v+v+x+k+n+p+r+p+j+q+t+o+j+u+u+c+` ` v 2 ^ ] l G+G+G+G+G+G+G+",
"G+G+G+G+/ i p+u+n+t+m+u+q+B+  @ }.$ t # # ! # # # h t $ $ }.@ B+k+l+i+j+u+o+m+q+p+p+r+r+l+u+o+o+o+o+o+o+n+m+q+n+n+m+t+t+t+t+t+t+t+m+t+t+t+t+z+z+z+z+s+s+m+t+z+s+h+t+t+m+m+m+t+s+m+q+m+t+m+n+t+n+j+l+w+y+w+i+x+l+l+q+o+l+u+n+m+m+q+j+j+u+n+u+d+` 2 ^ ^ l  . .G+G+G+G+G+",
"G+G+ .G+< 9 u+q+m+m+k+k+k+k+b+b+b+k+e+B+. @ @ .   B+:+b+u+p+r+l+g+r+r+a+r+x+r+y+v+9+9+w+w+y+w+i+i+i+w+w+i+g+x+w+i+l+r+r+r+l+r+r+l+r+p+r+g+g+r+g+x+l+j+o+p+g+l+q+b+j+r+x+w+r+b+x+w+i+i+r+r+w+g+l+c+i+i+5+1+c+i+v+5+y+i+v+x+p+l+l+u+q+p+u+h+o+m+o+g.5 5 Z  .`  . .G+G+G+",
" . ./ _ 8 8 l+j+u+9+5+1+7+7+6+'+a+|+:+:+B+  B+e+e+:+k+k+|+b+'+6+7+c+9+<+<+d+g.g.g.@.@.@.%+/ ..I I @.+.@.r./ ..%+..` #...#. . . .I @.@.@...@.I I I I { / ..@.@./ / l I %.%.+.@.@.+.../ / { @.@.@.%.%.%.A.A.<+%.4+g.g.+.@.*  . .* g.i+l+u+m+q+t+z+n+a+^ `  . . . .G+G+G+",
"` ` ^ a 9 7 x+g+f+f+9+c.M i.a+'+|+[+9.2.].>+}+}+}+}+^+[+{+,+=+=+@+(+`.J.O.O.S.6.6.).W.J.W.T.T.T.R.T.W.W.W.T.T.T.T.O.O.T.p.1+A.<+A.R.1+W.T.T.).F P P T.p.T.p.T.).p.).).).i P q d d T.W.p.p.p.A.A.p.T.P 6.F F T.1+T.p.A.<+g.4+g.@.@.4+<+g+u+o+n+s+m+m+m+d+ . . . . . . .",
"` ` < 9 9 7 i+g+<+f+1+6+i.=+{+}+H.H.>+I.>+)+~+I.!+!+}+{+,+#+@+@+@+U.V.V.`.++o.5.<.t.u.S.J.`.`.`.`.J.6.`.J.<.U.`.S.V.J.J.J..+J.`.`.`.`.J.`.++k.M 6.6.T.T.J.k.6.`.k.<.!.!.x x x x x !.<.0.k.k.M `.).T.6.k.M M .+J.W.O.O.W.p.A.A.<+g.4+4+@.f+r+q+t+t+m+o+o+p+#. . . . . .",
"G+] 7 9 9 a w+x+5+f+1+7+J.S.=+,+y.{+N.#+-+N.[+@+,+#+=+=+V.t.s.V.V.S.k.U.++P.(.(.n.n.o.P.`..+U.++++S.J.`.S.S.0.S.S.S.++V.++P.V.V.,+@+(+B.U.m.B.u.S.k.!.'.!.s.0.k.k.<.x '.=.G *.A ~.x <.j.k.0.t.0.'.x k.k.0.u.B.U.++S.S.=+`.J.J.W.R.R.<+@.....5+o+m+q+u+u+t+n+ . . . . .",
"* i 3 9 9 a v+i+5+d+1+O.6..+@+e.P.P.Y./+#+Y.$.K.,+K.n.(.u *.m.V.n.a.0.U.B.o.n.n.<.s.K./+(+.+++/+S.`.`.J..+.+++V.d.K..+`.++S.`..+.+++V.V.V.@+B.[.U.x j j =.m.&.=.1.<.p x y 0 0 b p p <.C./.5.n./.j j p s.[.[.V.V.++V.V.S.`.J.`..+O.T.O.O.R.4+../ <+u+q+t+t+z+ . . . . .",
": 9 9 9 9 a 5+y+<+d+1+6.[.1.G.G.e.z.]+-+~+b.e F. +o.*.K V n.t.s.n.z.t.s.u.++t.V.V.t.G.G.]+]+_+B.m.++V..+O.S.S.d.d.t.++`.++++.+S.S.S.0.S.++K.y J /.y m ^.&.J G ;.C -.=.G u J L y u H :.3.;.G J ,.R ^.u 5.u J n.U.`.V.S.S.S..+S.V.`.S.S.0.S.W.g.%+` * l+s+h+o+ . . . . .",
"a 9 9 9 9 a 5+f+4+4+p.O.u.W b.o.Y.K.X.x.G.G.W n.z.b.V b.e.(.d.0.j.j.j.j.k.V.5./.K.5.e.F.d.X.G.Y.s.U.e.U.J.`.++B.,+P._+_+C.C.@+K.t.*.*.[./.|.L L &.G 1./+[.|.G.w.3.^.].m w u &.w z A E.{.(.o.|./.D.D.G H W b W d.B.(.*.m.C.B.@+C.@+_+P.#+V.`.W.<+4+{ i+s+0+m+ . .`  .G+",
"9 9 9 9 9 7 v+v+g.@.p.T.S.G.e.Y.K. +Y.P.U.d.|.J K.8.0 (.o.m.0.0.j.j.k.k..+++d.n.t.t.s.z.5.P.Y.U.++s.o. +.+`.(+(+.+.+S..+J.J.++V.B.(.o.[.C.W 0 C *.0 L H 8.7.~+9.v.$+!+C z G &.K K x.$+M.9.Y.7.l.H u b C ;.0 b D.C.o.(.#+@+++`.J..+S.S.`.++(+`.O.1+g.l+s+s+t+G+ .Y Z G+",
"9 9 8 8 9 7 5+v+4+g.W..+Y.m.0.j.0.j.s.V.P.V L E ,.V R M.++.+`.k..+J.k.S.S.V.o.Y.s.t.a.U./+]+P.(+K.|.F.U.S.`.,+Y.B.V.,+B.@+u.++u.v.H.w.1.S.-.m (.*.m K R |. +u.#+D.9.D.e.l.G H 3.8.v.9.D.K.y.K.F.8.K K W v.C G ++~.v.-+H.B.S.V.V.t.#+_+s.Y./+S..+J.p.a+s+s+z+G+ .v Y  .",
"9.2.~.!.q P y+w+4+g.P B.o.0.j.,.J $.n.d.d.K u o o d.z. +S.++++`.`.k.k.k.k.V.K.#+U.K.n.5.K.X.e. +U.$+G.`.U.V.P.v.m.K.P.C.n.t.,+C.,+#+#+{+,+N.H.(.|.V o.m.s.<.-.v.D.;.C H &.(.e.d.&.;.R o.D.-.~.s.a.K.L 8.*.:.v.,+y.{+#+,+,+@+U.n.K.,+P.m.v./+B.P.`.W.b+z+s+t+G+ .v Y G+",
"h+m+h+k+6+w+j+q+7+g.T.k.0.0.P.L e J 5.L o.F.<.$.s.S. +z.s.k.s.k..+$.E t./.V.V.S.a.&.d.W d.z.o.P.V.S.@+_+Y.U.++Y.G.o.D.o.m.@+++S.#+#+=+D.K.++u.&.B.|.(.(.~.9.&.=.=.(.;.-.=.=.O =.=.G e.2.=.=.2.<.o.-.*.1.1.[.++C.D.=+,+K.++S.V.t.o.Y.M.(.M.(+V.n.(+W.a+s+s+t+G+ .Z ` G+",
"z+m+e+b+6+9+o+n+9+g.T.M a.a.5.w e o o L n.Y.U.5.J s.P.F.s.++P.0.V.,.5.P.m.X.! ! ! ! ! ! ! ! ! ! h D.V.G.G.! ! B G.G.Y.o.n.V.(+U./+C.C.#+w.y -.! ! t =.*.[.'.'./.t ! ! t 1.H A =.9.o.h ! ! 3.'.<.(.=.1.=.G [.j (.Y.C.B.#+,+_+U.K.w.N.G.G.G.@+K.M.M.W.r+z+z+m+G+G+ .G+G+",
"z+h+e+a+c+v+j+o+y+%.q M 0.[.*.o e o L L.M.K.P.d.e $.P.#+u.V.t.V.V.a.a.n.s.++- - - - - - - - - - - h @+P./+- - t G.Y.Y.-+D.=+#+Y.#+v.v.M.~+2.h - - - B -.y.O ~.O A ~ - - B A G -.1.t - - B ~.~.<.2.C G D.*.=.2.-+~+D.v.K./+#+@+#+M.Y.Y.w.M.-+e./+,+p.r+t+t+m+G+G+G+G+G+",
"z+z+e+b+w+9+o+m+9+g.).F M [.m.|.*.d.d. +P.Y.P.t.m.t.K.d.5.V.m.u.S.n.#+s.s.J.- - # 4.^.^.{.^.q.) - ! I.{+$+- - t o.o.X.9.y.B.,+X.*.G.N.M.G.^.- - ! - ) 9.[.~.O =.H ;.~ - - B j *.B - - $ =.O ~.O ~.G G (.*.W G G.w.v.M.(.X./+,+@+C.M.M.D.#+w.|.L.,+J.a+t+m+m+G+G+G+G+G+",
"z+s+h+b+6+v+o+p+f+@.k F 6.<.C.e.e.o.z.K.U.K.K.n.L &.K.|.a.s.t.U.t.V.`.S.s.`.- - t o.V./+-+-+-+! - ! v.C.#+- - t -.b.b.8.v.D.-+!+e.w.-+#+w.! - h U - - $ 9.~.2.2.-.=.*.) - % r B - - B H 2.=.O [.y.9.D.(.=.1.h.e.v.-+-+h.$+~+Y.D.h.b.l.x.x.X.@+/+,+P a+t+m+n+G+G+G+G+G+",
"h+s+z+q+7+v+p+e+'+..A.P P ~.o.(.G.X.X.Y.U.@+m. +F.K.z.,.u.P.t.0.P.$.a.C.m.K.- - # }.4.q.4.4.4.) - ! v.G.&+- - ! h B _.l.e.w.Y.M.n.B.o.w.}.- % U x.# - % *.O B.=.1.<.=.g % - % % - h [.[.=.9.O 1.w.x.(.(.A 2.N.w.w.w.B.n.v.Y.Y.G.8.S B t h }.q.4.!+6.r+t+m+q+G+G+G+G+G+",
"B+h+z+e+6+v+u+n+7+%+%.p.O.C.B.K.n. + +K. +K. +G /.s.F.w -.P.d.0.s.5.u.s.M.G.- - - - - - - - - - - # &+&+&+- - t R f.f./.&.v.Y.~+*.H 8.8.) - t w.h.4.- - t <.!.~.&.&.*.H r % - - # A &.&.[.'.<.1.C.9.;.8.w.w.w.|.;.l.-.|.G.}+Y.d./.W 7.V h.U 4.&+l.{+b+m+m+q+G+G+G+G+G+",
"z+h+e+e+6+A+o+o+v+%+%.A.O.u.`.S.K.P.F.V d.8.Y.V d.P.o.W #+m.o.<.P.d.u.P.Y.d.- - ) ! ! ! ! ~ ~ ~ h E.h.M.9.- - t V L.F.L L 8.~+b.W A ;+t - - B B }.}.# - - U =.o.y b m m 1 h - - m R b u *.d.H -.:.:.(.8.8.!+G.h.w.8.(.W R !+E.V V F.L.V G 5.t.C.D.i.a+n+n+o+G+G+G+G+G+",
"z+}+b+6+c+7+o+o+5+*+<+T.O.O.6.P.P.P.X.F.t.o.Y.$+$+ +z.d.B.o.*.<.t.n.U.@+#+G.- - t E.&+!+H.;+Q.E.@+S.C.*.;.- - h z 7.f.*.Q z R K K R E.% - - - - - - - - - ! y d.y 0 G *.z # - - C (.0 u n.y u G -.H :.2.C 3.^.!+-+X.C K V R K Q W b.7.z r S l.8.(.J.x+q+q+j+G+G+G+G+G+",
"s+h+k+7+b+6+u+u+5+g.R.R.A.%.W.B.w.n.M.P.U.t.P.P.Y.]+K.t.#+o.0 =.K.K.m.B.h.w.- - t !+E.M.,+(+v.8.8.o.8.{.{.- - h z 7._.W 7.4 0 K 0 1 h - % ~ ! ! ! ! ! ~ - - B /.G 0 *.(.e.h - - (.(.b u m.y K V G A j =.x.(.^.x.,+H.g 0 K 0 ( Q W Q _.z z ;.S {.{.'.r+n+n+o+G+G+G+ .G+",
"z+B+B+:+:+c+j+q+w+g.T.k d a A.W.D.Y.B.]+X.o.P.P.K.P.$.e.D.u ( G -+z.o.D.-+w.- - t $+_+K./+~+R b.{.;.l.3.{.- - - - - - - - - - h U S - - h {.I.x.G 0 0 z ) - ) (.y 0 L W R h - - W C b u =.W W R m b 1 C ;.].U r 3.E.{.U ^.1 4 7.Q c S S r ^.{.4.E.!.a+n+m+o+ . . .G+ .",
")+0+@ :+:+c+j+n+c+%.6.F !.E i O.D.o.P.M.G.M.d.K b.V w x.C.V e ^.I.d.|.o.Y.m.- - t $+o.Y.~+$+C b.;+~+x.8.x.- - - - - - - - - - t &+~ - ~ B S ^.B 4 4 4 b B - - t b 0 z V W t - - R K 0 b C ;.-.-.u ( 4 ( c {.^.f S 3.;+4.)+Q Q Q 7.Q 7.E.U 3.E.x.w.i.6+n+n+u+Y Z  .`  .",
"4.. e+|+7+5+p+j+5+k M p &.W L #+m.n.X.X.Y.-+b.4 q.4 e G.e.B h t E.l.l.M.G.8.f 1 x.G.l.v.!+^.m L.;+-+#+E.>+E.8.8.>+>+3.K l.7.Q.I.Y.~+I.^.U ^.)+{.1 c h ( v.;.;.A 1 1 b.8.&.G ^.=.|.b.b 1 G x.C v.K h h ( g )+^.^.l.E.-+-+H.Q.^.7.{.^.$+E.;.R )+>+h.6.g+q+q+j+Z Z  .`  .",
"'+7+c+5+A+*+p+j+A.n N H R ^.r L.t.K.$+!+~+w.l.{.&+7.e d.4.t 0+U E.}.# t E.L.Q S Q.8.;.N.-+{.^.H.E.E.v.N.-+h.3.3.h.E.h.z l.8.!+&+$+>+I.b.Q.U r U z | c f h.S z G.b | 1 L E A 8.E y z | 1 G.C r 8.z c c Q U S g Q.f.x.>+!+&+>+h.{.z 3.E.I.3.3.3.H.N.6.6+q+o+j+Z Z ` `  .",
"i i i d < i o+q+y+*+6.'.H ^.{.$+$.5.K.z.n.x.Q._.0+Q | (.V.J.B.x.w.9.N.I.&+_._.q.Q.{.R -+$+;+E.I.)+h+~+G.v.I.h.(.x.I.~+{.3.N.E.q.q.E.E.l.7.4.B S r r f {.^.S S {.e | W G b b b b u G e | z g S {.^.r r r S B }.4.f.E.h.4.}.)+~+x.S h.H.I.h.h.E.N.N.i.c+u+o+o+Y Z ` `  .",
"8 7 7 8 8 8 q+o+v+%.p.c.s 4.S C.J L G.7.V -+f.q.&+V K G.P.S.`.@+V.s.0.P.!+7.}.)+$+f.8.~+;+&+>+~+>+~+}+8.h.;.S R E.~+E.!+^.S ^._._.x.I.Q.q.S f B f f f r ^.3.R ^.0 o e.N.0 e 0 e H w.w e ^.3.3.U S f f f B B S _.^.I.I.{._.4.4.7.$+E.~+!+R R 3.h.H.c.i+q+u+u+Z Z ` `  .",
"7 7 7 7 7 8 n+n+5+n p.k :.{.l.=+J o !+Q.(.Q.7._.Q.f.f.G.G.X.@+++G.L.b.G.X.Q.0+0+f.1 z f.f.&+&+}+~+)+;+{.{.^.S {.I.!+h.!+h.H.e.;.^.{.U h.U r f c f 4.{.r f q.{.T 0 e 3.x.e ( 0 | C h.1 e G U q.}.f {.4.r B f r 4.h.U ^.{.8.;.G.x.!+h.x.I.R S l.{.I.6+w+q+q+u+Z Z ` `  .",
"7 7 7 8 7 7 [+q+f+n d q T {.v.,+e 4 e.x.9.v.e.W l.$+Q.K.K.G.K.P.M.l.F.$+&+}.&+l.&+c r f.l.l.q.}.{.;+!+f.S {.S ^.x.;+-+I.h.;.^.h.x.8.S (.h.4.4 4 r 4.{.{.4.E.N.I.( ( R L | ( 1 | 0 8.z ( E.N.T 4.7.l.{.r f 4 S 3.-.^.^.x.x.U C h.>+-+$+E.8.f {.S 8.c.w+j+o+j+Z `  . . .",
"7 7 7 7 7 7 '+j+d+n F M I.{.C.=+W K &+o.J.j.J ,.G.e.G.d.z.Q.Q.L.;+}.h }.B t h t S f 7.f.l.S {.}.S Q.}+L.V _.B z |.h.^+$+E.{.{.3.T ].x.C z S c f g r z K 1.(.(.h.1 1 V C 1 ( 1 ( m b.0 1 3.H.;.D.R z S g S c _.{.m (.I.].8.^.{.>+$+}+~+|.z B B l.d.W.9+x+r+g+ . . . .G+",
"7 7 7 7 7 7 '+r+A+>.6.N w.x.C.i.o.s.&.o.J.0.J d.5.W x.f.L.!+8.t 8+4.^.E.E.H.l.B h | 4 B _._.4.)+q._.q.M.|.l.{.f W ;+^+$+)+^.)+^.E.I.;.g g S f f {.V K 8.I.)+I.;.1 4 R b 1 1 1 e 0 C 1 ( R w.3.>+h.^.K f.r B S ^.g C I.E.3.Q.)+3.Q.~+;+8.z q.3.|.C.6+c.i+x+w+G+G+G+G+G+",
"7 7 7 7 7 7 c.x+A+g.P '.y.6.W.p.`.k.0.a.6.J.m.o.$.L ;+L.|.P.v./+/+V.k.`.U.P.,+$+t # h h t }.}.&+q.f.&+}+M.;.Q._.K E.E.I.)+3.I.I.].4.4.g g S r S 7.K g ^.E.I.N.;.0 g R 0 ( 0 b 1 1 R g 0 C 2.H.E.l.g K 7.4.r S g g {.q.T H.I.E.Q.&+^.Q.z B q.l.b._+'+7+i+w+9+G+G+G+G+G+",
"7 7 7 7 7 7 W.i+4+*+p.P 6.p.%.A.O.k.`..+J.a.J V.$.| |.l.l.d.X.5.s.o.3.x.v.e.4.B t h t t h B &+g U )+)+I.E.E.8.q.C w.h.x.z g ].h.r {.S B 4 4 z R C m g g h.-.G l.b {.U z ( 0 b ( ( R ^.b R W -.w.m g g C C z 4 c c f S r {.E.g B Q S l.z B 7.q.q.2.'+6+i+x+i+G+G+G+G+G+",
"7 7 7 7 7 7 c.y+4+g.n 5+%.%.A.p.P J.T.J.`.&.$.O.k.b.G.e.Y.D.^.{.b.b.4.4.)+^.B h t q.q.q.S }.4.@ :.{+}+^+)+}+'+{+].~.~.~.A C ].:.C -.=.g 1 b H ~.j 1 f 1 b (.*.>+C W E.U b u G b m {.3.b >+e.&.G 0 z 4 b G K 4 c c r f c S {.f 4 7.Q Q q.4.$+4.}.^+'+a+i+x+p+G+G+G+G+G+",
"7 7 7 7 7 7 O.x+4+@.n %.+.A.W.).F F W.O.k.<.$.0.J.k.u.V.k.J.h.# 8+B t h B }.^.^.h.I.9.9.j {+-+T i.T.W.'+c.W.R.c.i.i.'.i.'+s ~.N !.6.M N x x N M j b g z C T -.9.2.~.9.].A u u j s 2.9.-.N.:.A C g U g 1 K z 4 c B Q _.S l.I.U E.>+{.7.)+Q.Y.e.{+'+p.l+q+u+r+G+G+G+G+G+",
"7 7 7 7 7 7 '+p+f+* %.A.A.%.%.%.T.R.T.c.W.).q ).R.T.J.J.F ).6+>+>+I.l.S $ t $ t $ f g ].N P P c.A.g.<+A.4+4+>.>.%.n c.c.p.c.6+c.c.P q q P P P P q N i.N :+|+N 6.6.i.'+'+O j x q k c.6.M i.N i.i.N N s ].A j C C H j -.H.{+|+:+|+y.A -.!.6.6.6.T.A.%.a+m+n+o+G+G+G+G+G+",
"7 7 7 7 7 7 c.x+i+f+3+%+@.g.*+@.@.@.g.%.4+%+%+..#.@.@.%+I ..#.` ` r.<+<+W.'+c.6+7+>.>.%+G+* * ..#. .#.#.*  .G+G+* ..g.4+{ %+%+%+*+>.n n %.%.%.g.4+*+g.%.p.p.A.@.@.@.g.>.k k >.n g.*+*+g.%.n n >.>.n >.>.n k k k k n n >.>.>.%.g.g.n >.@.r.....* G+* p+n+q+q+`  . . .G+",
"7 7 7 7 7 a g+w+p+j+y+f+f+f+5+5+f+d+f+f+v+f+y+w+f+f+d+A+A+A+4+4+d+d+4+3+3+2+C+2+C+D+3+4+A+A+A+4+D+%+3+%+D+#.#.D+ .D+%+3+3+G+G+D+A+%+f+D+D+D+D+D+D+%+3+%+D+D+D+4+4+4+A+4+4+A+A+A+d+f+f+f+f+f+f+f+5+5+y+w+v+v+f+f+f+d+d+d+d+d+d+f+d+d+f+v+w+x+x+x+y+i+u+q+q+q+l Z `  . .",
"7 7 7 7 7 M b+g+l+j+x+w+v+v+w+i+w+i+x+i+l+l+p+r+r+i+w+v+v+v+5+v+i+g+w+v+A+f+9+f+f+v+y+i+y+y+9+f+A+A+A+D+4+D+A+f+%+f+A+4+D+G+D+w+v+f+w+f+f+d+f+f+d+A+4+d+5+v+5+v+v+v+v+v+y+y+w+w+w+i+i+x+x+x+i+i+i+i+x+l+r+l+g+x+x+x+x+x+x+g+g+r+l+p+j+j+u+q+q+q+o+n+n+n+n+q+` ` `  . .",
"7 7 7 7 7 ^+k+b+g+y+y+i+w+g+g+g+j+g+i+g+r+p+r+n+z+v+i+y+r+x+v+x+p+l+g+i+v+y+i+i+i+i+x+i+y+9+f+A+d+4+4+D+4+4+A+A+A+A+A+A+D+F+f+v+A+d+v+f+f+f+d+A+A+A+f+f+f+f+f+f+f+f+5+v+5+v+v+9+v+v+y+w+i+x+w+y+w+w+y+w+w+w+i+x+p+g+g+i+x+l+x+l+l+r+l+j+o+q+u+q+o+n+m+q+q+o+ . . . . .",
"7 7 7 7 x s+h+q+a+y+v+r+x+l+p+p+p+l+l+j+n+q+u+n+p+j+p+i+p+g+i+x+g+x+l+f+i+l+l+i+i+i+i+i+y+9+f+w+x+A+d+A+A+d+4+4+A+4+4+4+A+A+d+d+d+5+A+d+A+A+A+4+4+A+5+5+d+f+f+d+A+d+f+f+d+f+f+5+f+5+f+v+y+w+y+v+9+v+v+y+v+v+w+w+g+x+g+w+i+w+i+g+l+r+l+l+p+j+o+o+j+u+o+o+o+p+l Z ` `  .",
"i F F a '.h+h+B+6+5+D+G+ . .2+2+* ` #.C+3+3+r.....r.I l I l ` `  .#.#. .` ` `  . .` ` `  . . . ./ 5 ^ 5 5 2 l v v 2 v l / v 6 6 ] 5 Z ` G+ . . . . . . . . . .G+G+G+ .` l  .G+G+ . .l 5 v  .G+ . .G+G+E+G+ . .E+ . .E+ . .E+ . .2+#.l `  .2+#.#.#...I +.+.5 D v v Z  .",
"k+a+w+[+e+k+'+c+5+#.G+G+G+G+G+G+G+G+G+G+G+G+` `  .` ` ` ` ` ` ` ` Z v l ` `  .G+G+G+G+ . .G+G+G+` 5 ] v v v l l v v ` ` ` ` ^ ^ 5 Y  .G+G+G+ . . . .G+G+G+G+ . .G+G+G+ .G+G+G+G+G+ . .Z  .G+G+G+G+G+G+G+G+G+ . . . .G+G+G+G+G+G+G+ . .G+G+G+G+ . .` ` l l Z l l ` `  .",
"6+9+f+r+p+n : G+* G+G+G+G+G+G+G+G+G+G+G+G+G+ . .G+ . . . .Z l l v v D D v `  .G+G+G+G+G+ .G+G+G+` ^ ] 2 l l l 2 5 v `  .G+G+l D X `  . . . . . .G+G+G+G+G+G+`  .G+G+G+G+G+G+G+G+ . . . .G+G+ .G+G+G+ .G+G+G+Z v v `  .` G+G+G+G+ . .G+G+G+G+ . .`  . .` l ` `  . . . .",
"k k n c.i i ^ G+G+G+G+ .`  . .G+G+G+G+G+G+G+ .G+G+ . . . .` ` ` ` Z ` ` `  .G+ .G+G+G+G+ .G+G+G+` ^ ] v l l 2 ^ 5 v Y ` G+G+ .Z  . .` `  .`  .G+G+G+G+G+G+G+`  .G+G+G+G+G+G+G+ . .G+G+ .G+G+G+ .G+G+G+ . .` v D D `  .`  .G+G+ .G+G+G+G+G+G+ . .` ` ` ` ` `  . . .G+G+",
"7 7 7 7 8 i `  . .G+ .Y Y Z  . . .G+G+G+G+G+G+G+G+ . . . . . . . .G+G+G+G+G+G+G+G+G+G+G+G+G+G+G+` 5 ] l ` l 5 5 v `  . .G+G+G+ .G+G+ .l `  . .G+G+G+G+G+G+ .`  .G+G+G+G+G+G+G+G+G+G+G+G+G+G+G+G+G+G+G+G+G+G+Z l Z  .G+ .G+G+G+G+G+G+G+G+G+G+ . . .` ` `  .G+G+G+G+G+G+",
"7 7 7 7 7 _ G+ .`  .` Y X ` G+` ` G+G+G+G+G+G+G+G+ . . . .`  . .G+G+G+G+G+G+G+G+G+G+G+G+G+G+G+G+ .5 ^ l v 2 2 l  .G+G+G+G+G+G+G+G+G+G+ .`  . . .G+G+G+G+G+ . .G+G+G+G+G+G+G+G+G+G+G+G+G+G+G+G+G+G+G+G+G+G+G+G+G+G+G+G+G+G+G+G+G+G+G+G+G+G+ . . . .` / ` G+G+G+G+G+G+G+",
"7 7 7 7 a { G+ . . .Z ` `  .G+G+ .G+G+G+G+G+G+G+G+ . . . .` `  .G+G+G+G+G+G+G+G+G+G+G+G+G+G+G+G+ .D 5 l v v ` G+G+G+G+G+G+G+G+G+G+G+G+G+G+ . . . .G+G+G+G+G+ .G+G+G+G+G+G+G+G+G+G+G+G+G+G+G+G+G+G+G+G+G+G+G+G+G+G+G+G+G+G+G+G+G+G+G+G+G+G+ . .` ` / / ` G+G+G+G+G+G+G+"};
