/* XPM */
static const char * fs2_btn_readme_click_xpm[] = {
"131 58 256 2",
"  	c #575556",
". 	c #606369",
"+ 	c #B7D7F1",
"@ 	c #C2E2F9",
"# 	c #A4BACA",
"$ 	c #8F9DA5",
"% 	c #D7FEFF",
"& 	c #010303",
"* 	c #E0FFFF",
"= 	c #E3FFFF",
"- 	c #D9F4F4",
"; 	c #E6FFFF",
"> 	c #EBFFFF",
", 	c #F6FFFF",
"' 	c #E5FBF9",
") 	c #CDE8E3",
"! 	c #B7D0C9",
"~ 	c #C7DDD7",
"{ 	c #BDDBD2",
"] 	c #798984",
"^ 	c #ADC8BF",
"/ 	c #568B71",
"( 	c #021009",
"_ 	c #010503",
": 	c #99B3A6",
"< 	c #010E07",
"[ 	c #06170E",
"} 	c #18432C",
"| 	c #0A1B12",
"1 	c #5CB385",
"2 	c #589976",
"3 	c #0A2215",
"4 	c #133824",
"5 	c #1D5235",
"6 	c #587A67",
"7 	c #102E1D",
"8 	c #121E17",
"9 	c #75AC8D",
"0 	c #69947B",
"a 	c #A6BDB0",
"b 	c #010B05",
"c 	c #030805",
"d 	c #4F8364",
"e 	c #49765B",
"f 	c #68A07F",
"g 	c #111613",
"h 	c #355541",
"i 	c #89D5A6",
"j 	c #213528",
"k 	c #849B8C",
"l 	c #010703",
"m 	c #17291D",
"n 	c #406B4E",
"o 	c #344C3C",
"p 	c #8DAB97",
"q 	c #529C69",
"r 	c #4C9061",
"s 	c #2D5339",
"t 	c #354239",
"u 	c #698C73",
"v 	c #010903",
"w 	c #060E08",
"x 	c #4C6C54",
"y 	c #1D3422",
"z 	c #2D4933",
"A 	c #3D6245",
"B 	c #567D5E",
"C 	c #435E49",
"D 	c #55725B",
"E 	c #78987F",
"F 	c #010B03",
"G 	c #4E8759",
"H 	c #45654B",
"I 	c #5E8666",
"J 	c #405945",
"K 	c #010D03",
"L 	c #35603C",
"M 	c #3F6F47",
"N 	c #0B110C",
"O 	c #2E3B30",
"P 	c #49774F",
"Q 	c #293D2A",
"R 	c #537A55",
"S 	c #4C644D",
"T 	c #4B6E4C",
"U 	c #3E5A3F",
"V 	c #6A926B",
"W 	c #537154",
"X 	c #688669",
"Y 	c #010901",
"Z 	c #010701",
"` 	c #010501",
" .	c #030B03",
"..	c #010301",
"+.	c #030703",
"@.	c #355C35",
"#.	c #060A06",
"$.	c #030503",
"%.	c #3D653D",
"&.	c #1F2C1F",
"*.	c #0A0E0A",
"=.	c #3D553D",
"-.	c #0D110D",
";.	c #495949",
">.	c #456544",
",.	c #395238",
"'.	c #354734",
").	c #697B68",
"!.	c #788B77",
"~.	c #1A2819",
"{.	c #30412F",
"].	c #435442",
"^.	c #627960",
"/.	c #5E725C",
"(.	c #364C33",
"_.	c #526A4F",
":.	c #32472F",
"<.	c #4C6748",
"[.	c #455D41",
"}.	c #10150F",
"|.	c #3A4A37",
"1.	c #586C54",
"2.	c #3C5836",
"3.	c #3F503B",
"4.	c #4E5F4A",
"5.	c #3B4F36",
"6.	c #5D7B55",
"7.	c #182016",
"8.	c #253122",
"9.	c #273A21",
"0.	c #375030",
"a.	c #2B3528",
"b.	c #2E4327",
"c.	c #56714D",
"d.	c #67845D",
"e.	c #1D231B",
"f.	c #2A3F22",
"g.	c #182314",
"h.	c #4C6244",
"i.	c #5D7255",
"j.	c #73836D",
"k.	c #324629",
"l.	c #455C3B",
"m.	c #394932",
"n.	c #53634C",
"o.	c #364A2C",
"p.	c #161E12",
"q.	c #3E5434",
"r.	c #3B4F31",
"s.	c #425838",
"t.	c #32422A",
"u.	c #36472E",
"v.	c #4C5D44",
"w.	c #546948",
"x.	c #4C643D",
"y.	c #4A5B3F",
"z.	c #36422E",
"A.	c #45543B",
"B.	c #324226",
"C.	c #36462A",
"D.	c #414F37",
"E.	c #3F4B36",
"F.	c #232E1A",
"G.	c #3B4B2E",
"H.	c #3F4F32",
"I.	c #435237",
"J.	c #333D2B",
"K.	c #5B6B4E",
"L.	c #798E68",
"M.	c #4C5743",
"N.	c #28331E",
"O.	c #2E3B23",
"P.	c #202819",
"Q.	c #1C2316",
"R.	c #3E4637",
"S.	c #2B3720",
"T.	c #313E25",
"U.	c #425332",
"V.	c #030501",
"W.	c #14190F",
"X.	c #36422A",
"Y.	c #536145",
"Z.	c #060705",
"`.	c #49553D",
" +	c #0A0B09",
".+	c #21241E",
"++	c #191F12",
"@+	c #3F4A32",
"#+	c #3B4331",
"$+	c #282C23",
"%+	c #5B6450",
"&+	c #364127",
"*+	c #3B452D",
"=+	c #586348",
"-+	c #535B48",
";+	c #191B16",
">+	c #454C39",
",+	c #050603",
"'+	c #363E25",
")+	c #383F2A",
"!+	c #383A34",
"~+	c #10120B",
"{+	c #424930",
"]+	c #AAADA2",
"^+	c #4C5434",
"/+	c #C3C5BD",
"(+	c #27281E",
"_+	c #030301",
":+	c #0A0A07",
"<+	c #1A1A13",
"[+	c #33332C",
"}+	c #9B9A89",
"|+	c #1F1E16",
"1+	c #201F1A",
"2+	c #6D695A",
"3+	c #8E8977",
"4+	c #171510",
"5+	c #2E2A21",
"6+	c #564F3F",
"7+	c #13110D",
"8+	c #2B251B",
"9+	c #332E26",
"0+	c #0F0D0A",
"a+	c #5A5246",
"b+	c #3D3326",
"c+	c #251F17",
"d+	c #272119",
"e+	c #1E1913",
"f+	c #191510",
"g+	c #201B15",
"h+	c #62594E",
"i+	c #443F39",
"j+	c #4D3F30",
"k+	c #2D251C",
"l+	c #382E23",
"m+	c #332A20",
"n+	c #231D16",
"o+	c #574837",
"p+	c #45392C",
"q+	c #2F271E",
"r+	c #7D6A55",
"s+	c #2A221A",
"t+	c #62503D",
"u+	c #705C47",
"v+	c #16120E",
"w+	c #1C1712",
"x+	c #120F0C",
"y+	c #3E342A",
"z+	c #0D0B09",
"A+	c #28231E",
"B+	c #4C4641",
"C+	c #050302",
"D+	c #090706",
"E+	c #030101",
"F+	c #030303",
"G+	c #010101",
"c ....G+G+G+......` Y Y Y v v Z ..G+G+G+G+G+......Z l ` ....G+G+G+G+G+........` Z _ Z ` ..........` ` ..` l l v l G+` v v Y v b b b v v v b < < v l Z ` G+G+G+G+G+G+G+G+G+..G+G+..Z v ......G+G+G+....` l b < < b < < l ....G+....G+G+G+G+........G+G+G+G+G+G+G+G+G+G+",
"..` ..G+G+G+G+....` Y Y Y v v Z ..G+G+G+G+G+G+....` _ _ ..G+G+G+G+G+........` ` Z _ Z ` ......G+..` Z ..Z v v v v ....v F b b < < < < < < < < < < b Y Z ` ..G+G+G+G+G+G+G+G+..G+G+` v ......G+G+G+....` Z v < b b b v ` ......` ..G+G+G+........G+G+G+G+G+G+G+G+G+G+G+",
"G+` ..G+G+G+G+....` Y v v v Y ` G+G+G+G+G+G+G+....` ` ` ..G+G+G+G+G+G+G+......` Z _ Z ` ....G+G+..` ` .._ b b b v ....` F < < < < < < < < < < < < b v Z ` ..G+G+G+G+G+G+..G+G+..G+..Z ....G+G+G+G+G+....` l l l l l Z ` ....` Z ` ` ........G+..G+G+G+..G+G+G+G+G+G+G+",
"G+......G+G+G+....` Y Y Y Y Z ..G+G+G+......` ....` ` ` ..G+G+G+..G+G+......` ` ` ` ` ` ........` ` ` ....` l Z ..G+G+..` l _ ` _ l l l ` ` l l _ ` ....G+G+G+G+G+G+G+G+G+G+G+G+..........G+G+G+......` ` ` ` ` ......................G+G+G+G+G+....G+G+G+G+G+G+G+G+G+",
"G+......G+G+G+......` ` ` ......G+G+G+` ` ` ` ....Z Z ` ` ..G+G+....G+........` ` ` ` ............` ..........G+G+G+G+....G+..........G+G+G+......G+G+G+G+G+G+G+G+G+G+G+G+..G+G+G+` ......G+G+G+..........` ..................G+G+G+G+G+G+G+........G+G+G+G+G+G+G+G+G+",
"G+....G+G+G+G+G+z+4+f+e+n+i+h+l+k+9+9+[+!+B+h+  .   a+6+j+2+j+b+l+l+q+q+l+l+v+_ ` Z _ ` ......` ` ` ..G+..G+G+G+G+G+..` Z _ Z b v Z ..G+G+....` ` ..G+G+G+......G+..G+G+` ` G+G+G+..` ..G+..G+G+............................G+........G+G+..` ` ..G+..Y ` G+G+G+G+G+..",
"G+......G+G+Z.g+m+b+j+6+t+}+}+3+}+]+a /+/+~ ~ ~ ~ ~ /+/+/+]+}+3+r+a+j+b+l+m+m+n+Z l l _ ......` ` ` ............Z Y v b b < < < ( < l G+G+....l v l Z ` ` Y Y Y Z Z ..G+` ` G+G+......` G+G+G+G+......................G+....` ` ` ` G+G+..........G+` v ` G+G+G+G+G+G+",
"G+......G+G+w+j+p+p+r+]+/+~ - = > , , , , , , , , > ; ; * * * = ' ) /+]+2+p+m+s+l v l _ ` ..` ` ` ............` v b v l l b ( ( ( ( b ..G+....l b Y ` ` ` Z Z Z Z ` ..G+....G+G+..........G+G+......` ` ` ............G+G+..` ` ....G+......G+G+G+........G+G+G+G+G+G+",
"G+G+..G+G+G+z+p+y+y+j.- * % = % % % % % * > , , , ; * * % % % % * % % ; $ B+l+m+<+|+4+~+v+d+d+s+8+9+d+k+k+k+q+q+q+k+q+m+m+m+9+9+l+l+l+m+m+m+m+l+l+l+b+m+s+g+g+n+b+q+k+s+k+m+k+8+d+v+0+s+w+c+n+f+z+:+:+z+:+:+D+:+7+w+v+4+4+4+f+s+c+4+v+f+Z.G+G+........G+G+....G+G+G+G+",
"G+G+....G+G+,+d+l+p+j+  k # + @ @ % % % * > , , > ; * = ; * * - @ # $ . 9+c+l+b+o+y+s+n+m+l+q+m+b+6+l+b+p+p+j+p+y+j+o+o+o+o+o+t+t+t+o+o+u+t+t+u+u+r+r+r+o+b+o+o+t+t+o+p+p+p+b+o+3+r+q+o+o+j+o+p+e+f+v+0+0+7+7+v+g+y+j+q+8+k+m+p+t+y+q+l+l+e+....` ..G+........G+G+G+..",
"G+..` Z Z ` #.k+l+j+t+o+l+p+B+  . ] $ $ : # ! # # # $ $ k ] ] . B+y+s+e+5+l+l+o+p+k+k+s+s+d+l+b+y+b+y+b+y+j+o+p+j+j+o+t+t+t+t+t+t+t+o+t+t+t+t+u+u+u+u+r+r+o+t+u+r+6+t+t+o+o+o+t+r+o+p+o+t+o+j+t+j+m+d+w+f+w+e+n+d+s+p+y+s+l+j+o+o+p+m+m+l+j+l+~+......` ` G+G+....G+..",
"G+..Z b F Y w m+p+o+o+y+y+b+b+9+9+9+y+i+B+  )..     B+!+9+l+q+A+s+d+A+A+5+s+g+s+f+v+4+4+w+w+f+w+e+e+e+w+<+e+c+g+w+e+d+s+8+s+s+s+s+d+k+q+s+c+n+s+c+n+d+m+b+k+c+d+p+9+q+8+n+w+s+9+n+w+e+e+8+8+w+c+s+e+e+e+7+<+e+e+v+7+f+g+v+n+(+d+d+l+p+q+l+a+y+o+b+:+Y v Y ..G+G+G+G+G+",
"....` v l ` #.d+m+l+4+7+;+e.1+A+(+5+[+!+!+B+  B+i+i+!+[+[+[+9+$+(+1+<+4+~+~+0+z+ +w #.#.#.Z._ +.c c #.:+#.Z._ +.Z.+.` $.+.$.......c #.#.#.,+#.c c c c _ _ +.#.#._ _ l c *.N w #.#.w +._ _ c #.#.#.N N N }.}.~+*.:+ +*.:+#.& ....& *.e+s+l+o+y+t+u+j+5+w Z G+G+G+G+G+G+",
"G+......G+G+$.g+c+x+x+4+e.j a.$+$+[+J.R.3.].-+>+>+>+>+R.#+#+#+J.J.)+'+N.N.P.P.O.8.8.~.Q.F.Q.g.g.p.W.7.Q.g.Q.g.++++++P.P.g.p.p.7+~+W.W.++Q.++++~.&.&.&.7.p.++p.g.g.p.~.g.~.m &.j m m g.g.p.p.p.}.W.p.++&.8.y &.++++++++W.~+*.:+*.#.#.:+~+n+l+b+j+r+o+o+o+0+G+G+G+G+G+G+",
"....` ` ....,+e+c+~+x+<+.+a.J.#+>+>+`.-+M.-+%+`.M.-+M.>+#+#+G.X.X.X.C.B.B.S.T.s.2.:.o.t.O.F.N.N.N.N.F.N.N.N.:.C.N.O.&+F.F.F.S.F.N.N.N.N.F.N.T.9.Q 8.N.g.g.F.9.N.N.9.:.{.Q z z z z z {.:.f.9.9.Q N.~.g.8.9.Q Q S.F.Q.P.P.Q.++}.}.~+*.:+:+#.x+8+p+t+t+o+b+b+k+C+G+G+G+G+",
"G+..` v v Z ,+w+n+7+x+<+|+(+O.J.*+z.#+E.@+>+>+)+)+*+@+J.)+&+o.k.B.B.O.S.C.T.G.[.[.q.q.s.G.N.S.C.T.T.O.F.N.O.O.B.O.O.O.T.B.T.G.&+&+*+X.'+u.C.r.u.t.O.9.Q {.Q k.b.9.9.:.z {.=.H >.C '.z z f.9.b.o.b.{.z 9.9.b.t.u.C.T.O.O.J.N.F.F.Q.W.W.~+#.,++.7+b+o+p+l+l+t+j+G+G+G+G+",
"G+..` Z Z ..$.v+e+7+0+<+P.8.S.z.h.G.G.U.@+@+D.>.r.*+H.q.[.>.>.r.B.q.0.B.C.G.s.q.q.u.k.H.G.'+S.T.@+O.S.N.F.S.S.T.B.l.H.S.N.T.O.N.S.S.T.&+T.t.C.u.(.C.z h h ,.(.U ,.5.:.s z A d d e s s :.m.,.2.q.,.h h s k.(.(.t.B.T.T.T.O.S.F.N.S.P.++P.P.W.:+,+_ ~+l+p+t+t+h+G+G+G+..",
"G+.........._+7+f+~+0+<+8.(.5.y.h.h.s.s.A.`.c.q x.H.s.>.B P q.o.k.q.s.o.k.t.T.o.B.B.o.[.x.^+^+&+G.r.T.t.S.P.O.O.l.l.o.T.S.T.T.S.O.O.O.T.O.T.H.A n ,.A D /.=.M H S x ].=.C n M P A n J 3._.S H M 2.W /.n 2.n M 2.C.S.B.O.O.O.S.O.B.N.O.O.b.O.g.*.Z.` & s+r+6+b+G+G+G+G+",
"G+........G+_+x+x+:+:+p.P.t._.c.I.D.H.l.v.y.y.T q.s.c.R W h.[.[.b.f.f.f.: ^ ! >.q.r.2.x.x.l.y.p ! : C.h.! ^ !.T.u.*+G.&+! ! ! ! ! ! ! ! ! ! { P P =.a ! : (.<.y.A.1.! ! 6 G M U G : ! : ^.[.s.<.,.H.D.C U T e T l.u.[.>.r.m.u.z.m.)+&+G.@+&+N.Q.~+:+c g+r+3+o+G+G+G+G+",
"....` ........7+v+*.#.p.++O.y.h.I.r.U.s.G.C.l.T M r._.d [.s.r.b.b.f.f.9./.= = a ,.o.o.k.s.2.).= = /.k.s.= = ] '+'+S.S.O.= = = = = = = = = = = d x C : = = /.d.`.E.!.= = : I H =.B - = !.A.|.D.d.i.A n d x S d e D.m.s.y.@+X.T.N.F.S.O.O.N.T.'+N.P.p.w s+r+r+t+G+G+G+G+",
"..` ` ` ..G+..x+v+:+*.7.S.I.0.b.f.b.f.k.B.G.R P L @.R W l.T.S.N.9.S.F.9.f.a = = _.k.o.0.C.G.! = ! H.w.x.= = ] *+I.u.T.*+= = : /.^.j.j.j.)./.u D [.h.u = = p U.t.E.^ = = ) i.h.J k = ) |.5.E.J.H.x._.B B T A.x H O.'.3.A.A.u.O.t.t.o.@+&+k.I.{+O.S.F.p.5+u+r+u+G+G+G+G+",
"[+5+9+(+1+4+x+f+w+:+*.&.u.s.b.f.@.M %.q.[.l.B H r r l.s.U.O.T.T.S.N.9.9.9.=.= = ! C.r.q.2.).= = /.C.Y.y.= = k G.I.r.r.G.= = k *+G.*+@+@+#+*+E.A.[.<.R ! = ) :.]._.= - = = !.[.<.^ = p D A.5.=.'.k.0.5.P _.>.A.3.*+z.#+E.*+*+z.C.q.H.*+G.r.I.H.*+G.N.Q.9+u+u+t+G+G+G+G+",
"h+a+6+a+[+1+<+m+p+1+*.++S.b.T.G.P q M 2.P s.x.k.%.b.O.U.s.k.S.b.9.S.%.L o.0.k = = ).U l.T ~ = a G.T.O.X.= = k T.I.[.s.H.= = ) ^ ^ ! ! ] D.H.T.t.U u.<.k = = D U p = : ^ = ^ ,.].= = /.h.,.=.=.5.'.=.U >.5.5.m.T.G.D.)+#+H.T.O.&+o.s.I.s.[.s.'+T.q.'+Q.5+r+u+t+G+G+G+G+",
"2+h+B+i+9+.+4+y+j+4+*.7.Q 0.(.2.G q r r P q.U.C.2.M k.G.x.k.T.G.b.T.@.2.G.r.w.) = ) l.>.k = - 1.I.l.X.&+= = p &+H.y.y.D.= = = = = = = k @+A.A (.>.=.5.,.- = : {.) = 1.E = = D k = ^ s.l.(.,.:.{.{.[.=.5.=.H (.h [.D.G.u.@+*+&+C.H.l.D.y.y.y.X.H.A.`.Q.8+u+u+o+G+G+G+G+",
"2+h+6+i+5+;+v+m+b+f+N j Q Q (.>.r q r P T s.H.G.l.q >.G.r.t.B.o.B.t.0.0.q.k.T.E = = p y.) = k D.l.D.H.&+= = p y.H.y.I.I.= = : ).).).j._.A.`.3.=.>.q.=.e a = - !.= ^ =.,.) = p ~ = E q.=.=.,.'.'.:.3.x H 5.>.=.3.A.`.3.I.H.{+@+X.@+A.D.U.`.A.I.h.H.*+p.8+t+t+o+G+G+G+G+",
"a+h+h+i+9+<+4+b+o+4+*.~.y Q (.r.<.>.l.l.U.G.U.G.o.r.o.H.[.2.B.r.t.O.q.@+B.k.F.B.! = - k = - E.I.<.<._.M.= = : y.@+A.s.y.= = k *+y.h.y.D.A.y.v.H >.l.[.H D = = - = E ].5.k = ) = - 5.m.=.J =.|.'.|.'.C H [.>.x H y.`.D.A.[.l.{+*+z.m.l.s.D.@+l.<.w.*+(+5+t+o+o+G+G+G+G+",
"a+h+2+a+5+.+v+b+q+x+#.8 y 8.:.m.h.h.s.s.H.C.H.H.q.P 2.H.<.0.k.o.C.o.B.S.O.k.N.C.1.= = = = k >+>+Y.4.y.3.= = k U.v.].c.c.= = k A.v.h.`.A.@+A.n.=.=.[.I.|.:.~ = = ) U =.=.S = = = : ,.=.=.J 5.=.'.(.:.|.D.[.,.,.4.h.I.D.A.h.Y.`.I.D.4.c.i.v.v.`.X.@+*+&.5+t+o+j+Y Y Y Y ",
"h+a+2+h+p+1+v+q+i+$++.}.&.&.'.A.[.y.l.l.U.C.X.r.U.x.r.l.@.b.G.o.b.G.%.0.G.r.H.l.h.a = = ) {+{+@+*+u.@+I.= = a j.]+: E !.= = = = = = = = = = = D.].v.`.v.A.k = = k ,.:.=.J ^ = = B J U (.(.=.|.|.5.l.v.[.y.C 3.E.A.[.A.m.q.D.I.D.y.K.X E p a !.j.).y.8.8+t+o+p+Y v Y Z ",
"B+B+a+h+i+A+v+l+j+1+Z.N p.P.m.u.r.q.U.U.H.U.H.q.H 5.C.x.G U G.l.Q C.q.t.k.s.y.h.c.K.- = ^.{+y.y.Y.>+y.i.= = : ^.4.W 6.6.= = = = = = = = = = = `.`.4._.3.z.].= = 4.U h C J k = ) P H C U U (.{.:.5.m.|.S _.`.`.l.<.<.i.[.<.y.{+D.l.0.T d.6.4.1.).2+i.#+9+o+o+p+........",
"a+h+6+i+i+A+z+b+b+4+Z.N }.P.J.N.O.H.G.x.R l.w.I.P [.G.s.T @+r.s.u.G.l.t.G.I.[.M c.y.y.T D.A.K.i.i.=+M.4.A.5.C.q.U R c.x.P P _.y.c.x C w.v.v.y.Y._._.;.3.|.=.U =.s.A e D D / 2 / 2 e D e n [.l.J ].3.3.;._._.Y.y.Y.`.w.[.x W y.n.R R x.c.R H s.o.m.D.a.5+j+j+b+G+G+G+G+",
"2+h+B+9+.+;+1+y+b+7+ +-.++P.P.8.G.G.G.l.x.o.s.U.w.Y.U.s.l.u.s.>.k.o.q.C.C.@+[.R h.A.n./.v.`.=+K.=+)+O.G.h.S n.X X I d.6.>.V I W B B W y.`.`.i.1._.].A.J ].C H A l.A d H >.I f 2 f x [.d n q.A n H ].J ].3._.1./.v.I.y.W d R W B V T c.d.I u X i._.[.8.|+p+p+m+G+G+G+G+",
"h+2+a+[+1+9+.+l+l+7+ +W.W.}.*.Q.u.l.q.s.G.C.o.G.G.I.s.H.o.@+s.d =.H.r.m.u.Y.`.y.d.=+y.n.l.*+)+I.w.n.A.w.^.^.I 1.I I d.E T d.f d B d / v.*+A.6.v.[.].o C C R B n (.C d >.[.h.r q T [.[.e n (.A B R H C h =.v.[.i.v.*+A.6 d B d 2 V T V L.I I n.X ^.^.{.(+p+j+b+G+G+G+G+",
"j.h+B+B+!+!+;+m+p+<+*.7.8 m y }.Q.5.I.! ! ! ! ! ! ! ! ! ! : x 2 H A.s.! ! ! ! { { { ! ! ! ! `.W c.^.S i.1.^.j.{ ~ ^ ^.9 f d.f f B D /.{ ! ~ { ! ! ! { ^ p I S x U C d x T { { 0 B T x d n =.x x u { { / x S ]./.~ { { { { { { ~ { ~ ) V X u D ^.).n.J.5+j+o+b+..` ` _ ",
"2+2+3+).!+!+;+m+j+|+N 8.y Q L ~.F.H.s.= = = = = = = = = = = ^ 2 /.M.l.= = = = = = = = = = = Y.x c.=+`.v._.v.a = = = k V d.I V I 1.2+%+= = = = = = = = = = - ] h.x e d I R = = - W W B d d x <.S ) = = 9 f 9 ^./.= = = = = = = = = = = d.n.D _.n.v.y.a.(+j+j+l+Y v b ( ",
"2+2+  i+[+1+7+k+m+~+8 Q s U T P @+r.q.= = a j.E p }+p 9 ) = ~ : }+n.i.= = a E p 9 !.j.E j.!./.D w.=+I.@+n./.= = { = ) 1.B i.d.K.y.I.`.= = ^ k ] k 9 i { - = = X C / / W w.= = = ! <.c.e / H v.! = = = i 2 ^.%+/.= = ^ j.j.j.E k k k k Y.-+4.W %+-+4.8.c+p+p+m+< < ( [ ",
"[+(+.+;+7+z+ +k+m+}.g O J W /.u w.o.r.= = p `.i.^.2+I q ! = ) k /.n.!.= = p w.V X K._.<.E.A.^./.A.n.n.I.E.! = ^ ).= = p I D _.M./.=+-+= = : D u 1.I 9 9 9 - = ! y.B 1 / P = = ) = : d 1 / y.: = - = = 9 2 1.X 6 = = p -+-+/.-+4.^.I 1.n.M._.1.1.`.E.8.(+p+b+l+( [ [ [ ",
"*.#. + +$.` ~+l+y+4+ +8.{.J /.^.Y.%.2.= = p v.K.L.3+V 1 ~ = ^ u.v.A.|.= = ) ~ ~ ~ { : W I.Y.=+=+M.%+a+`.j.= - ^.[.a = - X 1.>+n.j.j.n.= = a ).E X u 0 0 ^.^ = - ^.2 1 T H = = 9 = = E 2 1 E = - p = = u u X E !.= = ) ! ~ ~ { k v.X -+`.M.4.4.n.E.E.a.g+l+b+y+( [ [ [ ",
"` ` ` ` ` Y w p+b+v+-.;+e.t ).X m.M T = = = = = = = = = = = a N.X.B.k.= = = = = = = : _.`.=+2+-+`.-+6+>+) = : X W ^.= = : /.X /.u u v.= = a X 0 E E 0 0 u : = = /.d r h.E.= = d ^ = - f 2 ) = p E = = 0 0 E E I = = = = = = = a d.Y.n.`.v.W D _.4.A.e.e+p+l+l+b b < ( ",
"..` ....` v F p+j+7+g ;+8 ].^.i.J.M r = = = = = = = = = = ~ ^.X.T.y.w.= = a E ]+]+k f I 6.6./.2+>+`.%+: = = p k k !.^ = = ^.A.h.S /.^.= = : u 0 9 0 ).^.u ^ = - ;.d 2 1.v.= = d 1 ) = ) { = ^ j.p = = ).u k 0 u = = ^ k k E !.i.v.M.4.v.M.W X D ^.M..+w+p+p+l+G+....l ",
"........` v v m+p+x+g m j ;.^.I.#+q f = = k I.<.a = = : H.H.y.r.G.A.i.= = : !.^.i.i.9 u 6.i.i.j.!.^.i.- = = = = = = = = = ! S /.4.M._.= = p ).f f u ).^.X - = ^ M.2 2 W T = = / 1 0 - = = ~ >+;.k = = ^.u 0 9 X = = : /.v.v.D x 4.-+>+Y.n._.0 ^.X <.e.<+m+b+m+G+G+..` ",
"..........l v g+q+0+g j Q M.^.m.J.T B = = ] f.M @.p = = ^ x.K.K.K.=+!.= = ^ : : p X f d.6.i.X ^.E X a = - { ~ ~ { { ! ~ = = p ^.1.;.].= = : X 9 0 6 E : ) = = !.4./ 2 R x = = / 2 6 k = - ).].S ).= = X 6 ).9 u = = p M.]._./.^.-+Y.>+`.<.I E E W l.Q.4+n+s+c+G+....` ",
"..........` Y g+s+z+}.8.O ].v.m.a.s.k.= = ] b.M l.2.p = = ~ ).w.}+/+).= = = = = = = = = = = !.).%+E = = k w.i.^.0 T =+M.) = ) %+i.n.M.= = = = = = = = = = = p M.S / f W e = = / 2 d x a : W `.K.!.= = 6.6.u E X = = = = = = = = = = = =+_.I j.1.<.m..+.+g+n+w+....` ` ",
"..............v+n+z+ +&.{.z.8.Q.7.N.S.= = ] N.r.s.%.M p = = - k {+{+t.= = = = = = = = = = = !.L./.~ = { {+l.<.K.!.B n.4.k = = p M.].).= = = = = = = = ) ^ !.M.E.S d 6 W d = = e / / W 6 / x D.`.!.= = B I ).u X = = = = = = = = = = = K.I E L.i.c.)+$+|+e+w+4+v v v b ",
"............G+v+g+:+ +;+&.8.p.-.}.P.9.N.S.F.(.M B.%.1 <.i.i.l.l.s.k.s.K.v.I.h.).E p a p p a E /.^.D %+%+y.%+n.K.X x ].v.v.I 6 M.4.u ^.X E f f I W x B 6 6 4.].H W e ^.D d f d e 2 2 D /.e W _.J y.D 6 6 x x I f 9 9 0 X u ^.n.6 f V X i.I E d.X j.3.$+.+e+g+e+b < < < ",
"............G+v+f+:+*.g }.-.N }.p.~.F.g.F.S.U A F.9.c.l.h.I.D./.^.c.c.).).%+/.E a p j.j.j.X !.)./.].#+>+R.%+>+$+#+].'.'.'.C x ;.].x =.h 6 / e J '.h / 0 / e [.h.-+x x n.D e n H e e ^.W e -+h.U H d I f e H B 9 9 i u 0 9 X ^.0 f d.V V X ).Y.).!.R.$+(+g+n+k+Z v b l ",
"............G+w+g+:+#.g -.w }.Q.~.y y Q.F.S.:.L b.F.9.t.B.9.F.4.a /+k p : k !././.4.M.m.|.h #+>+;.a.7.7.$+.+7.W.e.a.a.{.a.$+t #+O a.8.a.O z z O Q h e 6 I x ;.].|.3.'.R.].C n n h t 3.|.=.E.=.;.x 6 D 6 2 B I 9 9 f V V X i.M.D n.-+^.^.K.K.I.h.#+$+7.d+p+l+8+....` ..",
"` ` ....` ....g+k+x+& *.}.}.N N N 7.p.g.~.Q.~.j ~.W.g.F.F.y ~.(+-+-+M.i.X k $ k k k ] ).].O &.&..+}.*.-.}.:+:+-.-.-.g e.e.;+e..+e.e.&.j j &.&.m &.j a.a.O !+[+O 8.8.a.$+$+o h z j ;+e.8.a.a.O a.a.O O t J C h x x J =.=.A.#+[+!+[+z.C J J.8.N.N.g.W.N 5+o+j+y+G+G+....",
"` ` ` ` ` ....w+n+e+x+,+Z.#. + +#.#.#.*.N :+Z.Z.+.$.#.#.Z.c +.$.` ` #.~+~+7.$+e..+;+}.-.Z.G+& & ,+$...$.$.& ..G+G+& ,+*.:+c Z.Z.Z. +-.g }.N N N *.:+ + +N ;+;+}.#.#.#. +-.8 8 -.| *. + + +N g g -.}.g }.-.g 8 8 7.8 8 g }.-.-.-. + +g }.#.Z.+.+.& G+& (+j+p+y+G+G+G+..",
"` ` ` ` ` ..Z.1+w+k+m+f+x+7+7+7+7+x+0+7+x+v+7+f+w+7+x+0+z+z+z+:+:+0+0+:+Z.,+_+C+_+C+D+Z.:+z+z+z+:+D+Z.,+Z.D+$.$.D+..D+Z.C+,+G+G+D+z+Z.x+D+D+D+D+D+D+Z.,+Z.D+D+D+:+:+:+z+:+:+z+z+z+0+x+x+x+x+x+7+x+7+7+f+w+v+v+x+x+x+0+0+0+0+0+0+x+0+0+x+v+w+g+g+g+f+g+l+p+p+p+........",
"` ` ` ......f+9+c+s+m+g+w+v+v+w+e+w+e+n+e+s+d+k+s+A+e+w+v+v+v+7+v+g+c+w+v+z+x+4+x+7+v+f+e+f+f+4+x+z+z+z+D+:+D+z+7+Z.x+z+:+D+G+D+w+v+x+w+x+7+0+x+x+0+z+:+0+7+7+7+v+v+v+7+v+f+f+w+w+w+e+e+n+n+g+g+e+g+g+n+s+s+d+c+n+n+n+n+n+n+c+c+8+d+k+q+m+l+p+y+p+b+j+j+j+j+p+........",
"..` ` ......y+y+9+c+w+f+e+w+n+c+c+q+c+e+c+s+k+8+j+h+v+e+4+8+n+v+n+q+s+c+e+v+f+e+e+e+e+g+e+f+4+7+z+0+:+:+D+:+:+z+z+z+z+z+z+D+F+x+v+z+0+v+x+x+x+0+z+z+z+x+7+x+7+x+x+x+x+7+v+7+v+v+4+v+v+f+w+e+g+w+f+w+w+f+w+w+w+g+n+k+c+c+g+n+d+n+d+d+s+s+q+b+p+l+p+b+j+o+p+p+b+G+G+G+..",
"..` ......7+2+6+p+5+f+v+s+n+d+q+k+q+d+d+m+j+p+m+p+q+m+k+e+q+c+e+n+c+n+d+x+e+d+d+e+e+e+e+e+f+4+x+w+g+:+z+z+z+0+:+:+z+:+:+:+z+z+z+z+0+7+z+0+z+z+z+:+:+z+7+7+0+x+x+0+z+0+x+x+0+x+7+7+7+7+7+v+f+f+f+v+4+v+v+f+v+v+w+w+c+n+c+w+e+w+e+c+s+s+d+d+k+m+b+y+q+l+y+y+b+q+G+......",
" +Z.#. +#.|+a+a+B+A+x+D+G+....$.$.& ` C+C+,+,+$.C+$.,+_+.._+........_+$...........` ` _ _ _ _ ` _ _ & _ l _ _ ` _ _ ` ` l l _ _ ` ....G+........G+G+G+........G+......G+G+G+..........................................E+E+........_+_+_ l _ $.,+,+$.+.,+,+,+$.....` ` ",
"9+y+5+<+[+i+y+d+e+7+$.................G+G+G+G+....G+G+G+G+G+G+G+G+G+G+G+G+G+G+....G+..` ` ` ` ` ` _ ` ` v b b b b b b b b < b v Z ` ` ` ` ..................` ` ` ` ` ..G+G+G+G+G+G+G+G+G+G+G+G+G+G+G+G+G+G+G+G+G+G+G+G+G+G+G+G+G+G+G+G+` ` ....` ..................` ",
"(+A+4+x+A+q+x+..G+& G+..........G+G+G+....G+G+G+........G+G+G+G+G+G+G+G+G+G+G+G+G+..................` Z l < < < < < < < < b F v v Z Z Z Z ` ` ` Z Z Z ` ` ` ` ` ` ......G+G+G+G+G+G+G+G+G+G+G+G+G+G+G+G+G+G+G+G+G+G+G+G+G+G+G+G+G+G+l b ..G+G+G+..........G+..........",
"0+*.-.:+4+#.....................G+G+G+......G+G+G+....G+G+G+G+G+G+G+G+G+G+G+G+G+G+....` ` ` ......` l b b b < < ( < < < < < b v Y Z Z ` ` ..` Z Y v ( [ 3 7 7 4 4 4 4 4 4 7 7 3 | w l & ..G+G+G+G+G+G+G+G+G+G+G+G+G+G+G+G+G+G+G+G+G+[ 3 w G+G+G+..........G+........` ",
"` ` _ _ Z Z Z ` ` ................G+G+........G+G+G+..G+G+G+G+G+G+G+G+G+G+G+......G+` b b _ ` ` ` Z l b ( < b < ( < < < < < b v Z G+G+` b [ 7 4 } } 5 5 5 5 5 5 5 5 5 5 5 5 5 5 5 5 } } 4 7 | w _ G+G+G+G+G+G+G+G+G+G+G+G+G+G+G+G+b 3 3 b ` ` ` ` ` ..` ` ` ` Z Z _ l ",
"..` ` ` ` ` ` ` ` ......G+G+G+G+G+....G+G+G+G+G+G+G+G+G+G+G+G+G+G+G+G+G+G+....G+G+_ < | [ Z ......` Z l l v l l b b v l v l Z `  .[ 7 4 } 5 5 5 5 5 5 5 5 5 5 5 5 5 5 5 5 5 5 5 5 5 5 5 5 5 5 } 4 7 | w ..G+G+G+` ` ` ` ` ` ` Z Z [ 3 [ v b v v b b b b v v b b b v ` "};
