/* XPM */
static const char * fs2_btn_pxo_click_xpm[] = {
"114 113 256 2",
"  	c #4E494A",
". 	c #272324",
"+ 	c #2D2B2C",
"@ 	c #030103",
"# 	c #050305",
"$ 	c #090709",
"% 	c #353335",
"& 	c #444244",
"* 	c #474252",
"= 	c #383548",
"- 	c #3D3B54",
"; 	c #525067",
"> 	c #776FFF",
", 	c #7B71FF",
"' 	c #7971FF",
") 	c #7D73FF",
"! 	c #7B73FF",
"~ 	c #7D75FF",
"{ 	c #605BB6",
"] 	c #4D4A7B",
"^ 	c #7771FF",
"/ 	c #7770FC",
"( 	c #756FFB",
"_ 	c #756EF9",
": 	c #736DF4",
"< 	c #7973FF",
"[ 	c #716BEC",
"} 	c #7B75FF",
"| 	c #6D67DE",
"1 	c #6762CD",
"2 	c #565394",
"3 	c #474666",
"4 	c #010103",
"5 	c #030305",
"6 	c #050507",
"7 	c #0D0D10",
"8 	c #0B0B0D",
"9 	c #4A4A54",
"0 	c #323236",
"a 	c #373739",
"b 	c #34353B",
"c 	c #37383D",
"d 	c #404146",
"e 	c #48494E",
"f 	c #333438",
"g 	c #45464A",
"h 	c #434448",
"i 	c #151619",
"j 	c #1D1E21",
"k 	c #26272A",
"l 	c #2C2D30",
"m 	c #2E2F32",
"n 	c #3A3B3E",
"o 	c #27292D",
"p 	c #3C3E42",
"q 	c #2A2B2D",
"r 	c #0E1013",
"s 	c #070809",
"t 	c #121416",
"u 	c #17191B",
"v 	c #1A1C1E",
"w 	c #232527",
"x 	c #56595C",
"y 	c #202325",
"z 	c #010303",
"A 	c #050707",
"B 	c #404141",
"C 	c #676868",
"D 	c #AFB0B0",
"E 	c #464B4A",
"F 	c #030605",
"G 	c #010503",
"H 	c #505251",
"I 	c #6F7170",
"J 	c #B2B4B3",
"K 	c #010E07",
"L 	c #05120B",
"M 	c #010B05",
"N 	c #050F09",
"O 	c #959A97",
"P 	c #121A15",
"Q 	c #6C7C72",
"R 	c #5D6E63",
"S 	c #010703",
"T 	c #102E1A",
"U 	c #15311E",
"V 	c #1D3525",
"W 	c #0D1610",
"X 	c #435549",
"Y 	c #849088",
"Z 	c #7F8882",
"` 	c #A6AFA9",
" .	c #9FA5A1",
"..	c #565957",
"+.	c #8E918F",
"@.	c #989B99",
"#.	c #263C2D",
"$.	c #3A4D40",
"%.	c #65756A",
"&.	c #757F78",
"*.	c #A2ACA5",
"=.	c #0E2314",
"-.	c #172C1D",
";.	c #304536",
">.	c #4B5D50",
",.	c #546659",
"'.	c #77857B",
").	c #ABB2AD",
"!.	c #9CA39E",
"~.	c #2E3931",
"{.	c #0A200F",
"].	c #132818",
"^.	c #0A0E0B",
"/.	c #323633",
"(.	c #3A3E3B",
"_.	c #686C69",
":.	c #B6BAB7",
"<.	c #010A03",
"[.	c #09170C",
"}.	c #8F9891",
"|.	c #0D120E",
"1.	c #262B27",
"2.	c #2A2F2B",
"3.	c #050D06",
"4.	c #010901",
"5.	c #010701",
"6.	c #010501",
"7.	c #010301",
"8.	c #030803",
"9.	c #030503",
"0.	c #050705",
"a.	c #070907",
"b.	c #121612",
"c.	c #161A16",
"d.	c #1A1E1A",
"e.	c #222622",
"f.	c #0D0E0D",
"g.	c #0F100F",
"h.	c #4A4E4A",
"i.	c #464A46",
"j.	c #373A37",
"k.	c #1D1E1D",
"l.	c #424442",
"m.	c #2E2F2E",
"n.	c #777977",
"o.	c #3D3E3D",
"p.	c #878987",
"q.	c #545554",
"r.	c #4F504F",
"s.	c #7E7F7E",
"t.	c #7A7B7A",
"u.	c #747574",
"v.	c #6C6D6C",
"w.	c #656665",
"x.	c #626362",
"y.	c #5E5F5E",
"z.	c #5A5B5A",
"A.	c #D0D1D0",
"B.	c #C1C2C1",
"C.	c #BCBDBC",
"D.	c #ABACAB",
"E.	c #A7A8A7",
"F.	c #A2A3A2",
"G.	c #9C9D9C",
"H.	c #8B8C8B",
"I.	c #1F211E",
"J.	c #030501",
"K.	c #2D3003",
"L.	c #484903",
"M.	c #030301",
"N.	c #070705",
"O.	c #1A1A19",
"P.	c #1C1B04",
"Q.	c #4D4B1D",
"R.	c #1D1C13",
"S.	c #272622",
"T.	c #464541",
"U.	c #272217",
"V.	c #060503",
"W.	c #0A0907",
"X.	c #302E2B",
"Y.	c #383633",
"Z.	c #201C17",
"`.	c #2F2A25",
" +	c #211E1B",
".+	c #171513",
"++	c #22201E",
"@+	c #2A2826",
"#+	c #6F3402",
"$+	c #5C5148",
"%+	c #2F2721",
"&+	c #272320",
"*+	c #514D4A",
"=+	c #110E0C",
"-+	c #463C35",
";+	c #48413C",
">+	c #3E3B39",
",+	c #40322A",
"'+	c #3D3632",
")+	c #403935",
"!+	c #433E3B",
"~+	c #3C1907",
"{+	c #362E2A",
"]+	c #675F5B",
"^+	c #6E6662",
"/+	c #373230",
"(+	c #382823",
"_+	c #0E0B0A",
":+	c #6C5750",
"<+	c #524946",
"[+	c #5B5553",
"}+	c #4C4442",
"|+	c #1E1513",
"1+	c #171211",
"2+	c #302A29",
"3+	c #7B6D6B",
"4+	c #886461",
"5+	c #A79391",
"6+	c #270402",
"7+	c #633E3C",
"8+	c #907C7B",
"9+	c #928483",
"0+	c #4A0704",
"a+	c #6F0A07",
"b+	c #897372",
"c+	c #150101",
"d+	c #781D1D",
"e+	c #030101",
"f+	c #782C2C",
"g+	c #864747",
"h+	c #050303",
"i+	c #070505",
"j+	c #998D8D",
"k+	c #9D9393",
"l+	c #322F2F",
"m+	c #FFFFFF",
"n+	c #E8E8E8",
"o+	c #939393",
"p+	c #838383",
"q+	c #4D4D4D",
"r+	c #4A4A4A",
"s+	c #464646",
"t+	c #3F3F3F",
"u+	c #3A3A3A",
"v+	c #363636",
"w+	c #323232",
"x+	c #2A2A2A",
"y+	c #262626",
"z+	c #222222",
"A+	c #161616",
"B+	c #121212",
"C+	c #0A0A0A",
"D+	c #070707",
"E+	c #050505",
"F+	c #030303",
"G+	c #010101",
"G+G+G+G+G+G+G+G+7.G+7.G 9.8.3.3.3.a.a.a.^.^.^.^.f.f.f.f.g.g.g.g.g.g.g.g.g.g.f.f.f.|.|.|.|.|.f.^.^.C+C+C+C+C+C+C+C+C+C+C+^.L C+a.|.=.].].=.].U U U T T T T T T T T T T T T T T T T T T T [.G+7.7.G+G+G+G+G+7.7.7.7.S 4.4.6.G+G+5.4.5.",
"G+G+G+G+G+G+G+G+G+G+z 9.F 8.N N 3.D+s ^.[.|.|.f.|.g.g.B+B+B+b.b.B+b.b.b.b.B+b.B+b.b.b.b.b.b.b.b.g.g.f.f.f.f.f.f.f.f.f.f.W W |.f.f.|.P ].].].-.U U U U U U U U U T T T T T T T T T T T =.G G+5.6.7.G+G+G+G+G+6.6.6.<.<.<.6.G+G+5.<.5.",
"G+G+G+G+G+G+G+G+G+@ 9.0.F 3.N N N C+C+|.W W W B+b.P b.A+c.c.A+/+/+b.O.O.O.A+A+c.c.c.c.c.c.c.c.c.P P b.B+B+B+B+B+B+B+b.B+P P P b.b.b.B+c.U -.-.-.U V V U U U U U U U U U T T T T T T T L @ 7.6.6.7.G+G+G+G+G+6.6.6.<.<.<.5.G+G+5.4.4.",
"G+G+G+7.G+G+G+G+@ F+F 0.A N L L ^.8 f.|.b.b.b.b.c.c.O.d.d.d.k.]+^+X.k.k.k.k.k.k.k.k.k.k.k.k.d.d.d.d.O.O.O.O.O.O.O.O.O.O.d.d.c.c.c.c.c.V #.V V V V V V V V V V V U U U U U U U U T T =.A F+9.G G 7.G+G+G+G+7.6.6.7.4.<.<.5.G+G+5.4.4.",
"G+G+G+G+7.G+@ @ F+# 0.a.a.^.[.|.|.f.g.b.P P c.O.d.d.k.I.e.e.d.'+^+w+e.z+z+z+z+e.e.e.e.e.e.e.e.e.e.e.I.I.I.I.I.I.I.I.I.I.e.e.I.I.k.k.e.#.#.#.#.#.V V V V V V V V V V V V V U U U U U W E+9.0.3.8.z @ G+G+G+G+6.6.7.4.4.4.5.G+G+5.4.4.",
"G+G+G+G+G+z F+# # 0.a.3.C+^.W W b.B+B+c.c.d.d.k.I.e.e.e.1.1.e.X.x+y+x+x+x+x+x+x+2.2.2.2.2.2.2.2.1.1.1.1.@+1.1.1.y+y+y+y+1.1.1.y+y+1.;.;.;.;.;.;.#.#.#.#.#.#.#.#.#.V V V V V V U U ].C+D+D+A 3.3.9.F+@ @ G+G+7.6.7.5.4.4.6.G+G+5.4.4.",
"7.7.7.z @ F+9.# 6 D+a.^.f.|.W b.P A+A+O.k.I.I.e.1.1.1.x+2.m.@+X.w+w+w+w+w+w+w+w+/./././././././././.w+l+l+w+/./.m.m.m.m.~.~.m.m.m.;.$.$.$.$.;.;.;.;.;.#.#.#.#.#.#.#.#.#.V V V V V P C+C+C+a.a.3.0.# # F+@ G+7.6.7.5.<.4.6.G+G+5.4.4.",
"6.7.z 9.9.# E+A D+C+C+f.f.b.P c.c.O.k.I.e.e.1.1.2.2.m.w+/.m.!+w+j.j.u+u+u+u+u+u+u+u+u+u+u+(.u+u+u+u+u+u+u+u+(.u+u+u+B B (.(.j.v+(.X X X X $.$.$.$.$.$.$.;.;.;.~.;.;.#.#.#.#.#.#.-.B+g.f.C+C+C+a.a.E+# # F+@ z 6.7.S 4.<.6.G+G+6.4.4.",
"5.z 9.9.9.0.D+D+C+C+f.g.B+b.d.d.k.k.z+e.1.2.2.m././.v+j.(.v+}+t+B l.l.l.& l.& & & & & & & & & & & s+l.l.l.l.l.l.& i.>.>.X i.B l.>.>.>.>.>.X X X X X X $.$.$.;.;.;.;.;.;.;.#.#.#.d.t B+g.g.f.^.C+s D+6 E+# # 9.G 6.S <.4.6.G+G+5.4.4.",
"4.9.9.# A a.a.C+C+f.g.b.A+c.d.I.e.z+y+x+m.~./.v+j.(.o.B l.[+u+i.r+h.h.q+q+q+q+q+r.r.r.r.r.r.r.r.r.r.r.r.r.r.r.r.q+r.q.,.,.>.r...,.,.,.,.,.,.>.>.>.>.>.>.X X X $.$.$.;.;.;.;.;.2.k.O.A+A+B+g.W f.C+C+a.D+6 # 9.9.G 6.6.6.7.G+G+5.<.4.",
"M 8.# 6 D+s C+f.f.g.b.c.O.k.e.e.1.x++ w+/.j.u+o.l.l.s+r+t+}+H H q.q...........z.z.z.z.z.z.z.z.z.z.z.z.z.z.z.z.z.z.z.z.y.R R R R R R R R R R ,.,.,.,.,.,.>.>.>.>.X X $.$.$.$.;.1.e.I.k.O.A+t b.g.f.8 C+a.D+A 0.9.9.z G+7.G+G+G+5.<.4.",
"3.8.A D+s C+8 f.g.B+A+d.I.e.e.1.+ l+% j.(.l.l.i.h.q+H q+[+& z.y.y.y.x.x.x.x.w.w.w.w.w.C C C C C C C C C C C C C C C C w._.Q Q Q Q Q Q Q %.%.%.%.%.R R R ,.,.,.,.>.>.X X $.$.;.m.@+y+z+I.O.O.c.b.g.f.f.C+C+a.A 0.9.F+@ 7.G+G+G+6.4.5.",
"3.0.a.s C+8 f.B+B+A+O.I.e.y+x+m.w+v+u+B i.i.h.r.q...z.r+]+y.w.C _.v.v.v.I I I I I u.u.u.u.u.u.u.u.u.u.u.u.u.u.u.u.u.u.u.u.'.'.'.'.'.'.'.&.&.Q Q Q Q %.%.%.R R R ,.,.,.>.>.X X $.j.+ @+. I.k.d.c.t B+g.f.8 C+D+A 0.9.F+@ G+G+G+7.6.5.",
"3.a.a.C+8 f.B+t A+O.I.z+y++ l+% u+o.& i.r.H ..z.y.x.y.[+r.I I u.n.n.t.t.s.s.s.s.s.s.s.p+p+p+p+p+p+p+p+p+p+p+p+p+p+p+p+p+p.Y Y Y Y Y Y Y Z Z Z Z '.'.'.&.Q Q %.%.R R R ,.>.h.X X X $./.x+y+z+I.d.O.A+B+g.f.C+C+D+A E+# F+@ G+G+G+G+7.",
"3.a.C+8 f.B+t A+O.I.z+1.+ w+j.o.B s+r+r.q.z.y.w.C v.  ]+u.t.s.p+p+p+p.p.p.H.H.H.+.+.+.+.+.o+o+o+o+o+o+o+o+o+o+o+o+o+o+o+@.@.O O O }.}.}.}.}.}.Y Y Y Y Z Z '.'.&.Q %.%.R ..q+r+h.X X $.(.m.@+e.e.k.O.A+B+g.f.C+C+D+6 # # F+@ G+G+G+G+",
"a.C+C+f.g.B+A+O.I.z+@++ w+v+o.l.r+r.q.z.y.w._.I u.x.$+q.p+p.H.+.o+o+o+O @.@.@.G.G.G.G.G.F.F.F.F.F.F.F.F.F.F.F.F.F.F.F.*.` ` ` *.*. . . .!.!.!.!.O O }.}.Y Y Y Z '.'.Q %.y...q.r.h.X X X $.~.2.y+z+k.O.A+B+g.f.^.^.3.3.0.9.@ G+G+G+G+",
"a.C+f.g.B+A+O.k.z+@++ w+j.t+s+h.H ..y.w._.I u.t.v.<+*++.o+O @.G.G.F.F.E.E.E.D.D.D.D.D D D D J J J J J J J J J J J J :.:.:.:.:.:.:.J J ).).).` ` *.*. .!.!.O }.}.Y Y Z u._.w.y.z.H q+h.X X $.j.x+y+z+k.O.A+b.b.|.^.L N 3.0.F+@ G+G+7.",
"^.f.g.B+A+O.k.z+y++ w+j.B i.q+q.z.x.C v.u.t.p+t.  }+H.G.F.E.E.D.D J J J :.:.C.C.C.C.J J D @.@.G.G.G.p+s.s.p+p+p+p+p+Z Z Z O  .!.!.G.D :.J C.C.:.:.J ).).` *. .!.O }.p.t.u.I _.w.y.q.r.r+h.X u+w+2.y+z+k.O.A+P b.|.^.L 3.E+# F+G+7.7.",
"^.f.B+t O.k.z+y+x+w+(.l.i.r...y.w.v.u.t.p+p.H.*+/+H.E.D.D J :.C.C.B.C.:.F.p.v.x.g g o o l k o o o o k y+w w w w w w y y y y w w y y k w w g g x.n.+.` J :.J ).` *.!.o+H.p+s.u.I C x.z.q.q+i.t+j.w++ y+z+k.O.c.b.g.8 ^.a.6 # 9.z 7.G+",
"f.g.B+A+O.I.y+x+w+v+B i.r...x.C I u.s.p+H.o+y.>+t.D J C.C.B.C.o+C ..g n 0 m l q q x+y+y+e.z+I.I.k.k.k.d.d.d.O.O.O.O.O.d.d.d.d.k.k.k.k.I.I.I.z+I.j j y o n H x.}.).E.F.@.o+H.p+t.u.v.w.y.q.q+s+B u+w++ y+z+k.O.c.B+f.8 C+a.0.9.9.z 7.",
"f.B+A+O.I.z+x+m.v+o.s+q+q.y._.I t.p+p.o+@.s.}+r+:.C.B.:.+.C d 0 a a w+x+e.d.c..+B+g.f.f.C+W.a.N.E+9.9.F+F+M.F+F+F+F+F+F+9.V.E+N.a.W.C+8 =+g.b.c.O.k.++z+e.z+j u q ..p+G.F.@.o+p.s.n.I C y...r.i.B u+w++ y+z+k.O.t g.f.C+a.a.9.9.z 6.",
"g.B+O.k.z+@+m.% u+& h.q.y.C I t.p+H.o+G.o+[+t+J B.D._.p c o.w+e.O.B+f.C+N.M.G+G+G+G+4 h+V.N.N.$ _+_+=+1+=+=+=+_+=+=+=+=+f.8 8 $ D+D+E+F+G+G+G+G+G+9.W.f.B+O.++S.e.I.u y q.p.G.O H.p+t.I C x...r.i.B a w+x+y+I.d.A+B+g.f.C+a.A 9.9.4.",
"B+A+O.I.y+x+w+u+B r+H z.w.I t.n._.u.s.p+x.!+..F.x.l v+m.++.+f.N.e+G+G+G+h+$ B+A+u v j . @+`.. @+2+{+l+/+2+2+`.2+2+2+`.X.m.+ + x+x++ x+y+z+k.k.A+f.D+z G+G+G+e+C+.+++S.e.d.t x.F.@.o+p.s.u._.x...r.s+o.v+l+x+. I.O.A+B+f.8 C+a.9.9.S ",
"B+O.k.z+1.m.j.o.s+r.z.x.v.t.p+B %+}+4+<+[+B+8 w l+y+O.g.a.@ G+G+N.1+O.++@++ q + + k @+x+2+`.2+2+X.X.l+{+`.2+x+x+X.2+2+X.m.X.X.X.l+w+m 0 w+w+% % l+% + ++O.B+6 G+G+@ _+A+z+I.A+l p.G.o+p.s.u._.y...q+s+o.v+m.@+z+k.O.B+g.f.C+a.0.9.@ ",
"A+O.I.y++ /.u+& q+q.y._.u.p+t.`.{+:+:+;+X.B+l+l+O.g.a.G+G+h+=+Z.`.2+2+X.X.@+x+x+@+@+`.`.2+X.X.X.{+X./+{+2+X.+ X.{+{+2+2+X.l+X.l+l+m l l m m.+ w+v+u+u+v+v+0 q v 8 @ G+G+C+Z.e.O.j _.G.o+p.s.u.C y.q.q+& u+w++ y+I.O.A+B+f.8 a.6 9.9.",
"A+k.z+@+l+j.B r+H z.C I s.H.T.%+)+:+'+|+ +o.x+.+_+G+G+V.1+@+/+l+l+`.2+l+/+2+m.l+l+/+/+/+'+/+,+)+'+/+)+/+2+2+2+2+X.`.`.2+{+Y.>+>+a u+u+a v+0 w+% v+v+u+v+v+t+t+u+% k A+h+G+@ .+&+k.b.r+O o+p.t.I C z.H r+B j.w+2.e.I.O.t g.f.C+a.E+9.",
"O.I.y++ /.(.& q+..x.v.t.p.t.%+%+)+-+{+,+/+2.b.W.G+G+1+`./+Y./+{+2+2+Y.!+!+)+)+)+)+)+'+'+/+{+{+,+{+,+,+{+`.2+2+2+{+{+{+{+/+>+>+t+o.t+& & & s+r+s+& & o.Y./+/+u+B s+& o.x+7 G+G+_+++++.+u+G.o+p.t.I w.z.r.s+o.v+m.1.z+O.A+B+g.C+a.6 # ",
"O.I.y+m.v+t+i.H y.C u.s.+.C %+%+%+`.$+$+U.1+W.G+G+|+/+>+)+'+{+{+{+)+}+  !+)+'+/+{+{+{+`.%+%+%+{+{+(+,+{+`.`.`.2+2+`.X.Y.Y.l+Y.j.j.>+t+B & s+r+r+r+  T.s+& t+t+p u+s+H g p y 4 G+N. +z+B+w.G.+.p+n.v.y.q.r+l.u+w++ e.k.O.B+g.f.C+a.9.",
"k.z+x+w+u+l.q+..x.v.t.p.o+r.%+&+&+)+b+<+R._+@ G+1+/+>+!+>+/+{+/+,+-+}+;+,+(+(+%+`.%+%+&+%+%+%+`.`.%+`.`.%+%+&+. S.&+&+@+@+`.@+X.2+X.% v+u+o.g s+s+r+}+}+s+q+q+h v+a g e e d y @ G+_+&+k.k.+.@.H.s.I C z.H s+o.v+m.y+I.O.A+B+f.C+a.0.",
"k.y++ % o.s+H z.w.u.s.H.+.,+U.&+`.-+]+)+1+M.G+1+l+)+!+>+/+X.{+/+'+)+{+{+(+(+(+{+(+%+%+%+%+%+%+@+%+(+%+%+%+&+S.&+&+&+&+&+&+. &+&+] - U.x+m.w+a n o.B B & B & e g o.w+m n h d d w G+G+1+S.c.r.F.o+p.t.v.x.q.q+& u+w+x+z+k.A+B+f.C+D+E+",
"I.1.m.j.B r+q.y._.n.p+o+f+0+Z. +%+%+S.++W.G+_+2+!+!+>+/+2+2+/+;+;+-+,+(+(+(+(+,+(+%+(+(+{+{+{+{+{+(+2+(+(+2+2+2+`.X.`.@+@+@+. @+- 1 - U.x+l m w+l+% v+u+>+o.t+t+u+v+m.m c d d n A+G+h+ +z+B+t.G.+.s.u.C z.H s+o.% m.y+I.O.t g.8 C+6 ",
"e.2./.u+l.q+..x.I t.H.j+a+c+B+Z..+|+1+N.e+h+ +Y.!+!+'+/+2+}+t.s.]+-+)+'+,+,+,+,+,+,+,+,+,+-+'+Y.'+'+/+{+/+/+Y./+/+/+{+{+l+%+3 | c = 1 ] X.m m m + + w+0 w+l+v+v+v+v+w+l+0 % n f 0 6 G+=+S.O.r+F.o+p.t.v.x.q.r+B j.l+@+z+O.A+B+f.C+D+",
"1.2./.(.s+r.z.w.u.s.+.@.d+0+a.|+&+++W.M.G+1+X.>+>+)+{+{+!++.A.G.]+}+-+)+)+)+-+-+-+-+-+-+-+-+!+>+)+-+)+'+'+'+)+'+'+)+'+Y./+p - | | p d | ] l+% 0 l++ m w+m.+ m w+0 0 0 l+w+0 f m a u G+M.++z+@+F.G.+.s.u.w.z.r.s+(.w+x+. k.A+b.g.C+a.",
"1.2./.o.i.H y._.u.p+o+F.o+(+c+B+w+@+=+G+h+&+/+>+>+/+2+/+[+F.D.3+<+}+;+;+!+-+-+-+!+-+-+!+-+!+>+o.>+)+'+u+>+)+'+)+)+)+>+'+3 [ 2 >+1 : 3 o.1 2 u+a v+0 f 0 w+m l+l+l+w+w+v+u+a v+% u+m @ G+.+S.c.n.F.o+p+n.v.y.q.r+t+v+m.y+I.O.b.g.^.N ",
"1.m.v+t+r+q.y.v.t.p.O E.D.,+c+.+Y. +W.G+=+X./+>+Y.l+X.'+[+u.^+<+-+}+}+T.;+!+!+-+!+!+!+!+!+!+!+t+o.>+>+>+>+!+)+)+'+)+)+)+1 ! , { o.1 ' ] !+{ { o.u+n a a % m w+w+w+l+v+u+t+t+B d u+B B+G+_+S.O.s+E.@.H.s.I x...q+l.j.l+@+z+O.c.B+|.L ",
"y+m.v+B r+q.x.I s.H.@.G.f+6+G+++l+.+e+G+ +X.Y.>+% l+/+!+  [+<+}+}+}+}+;+;+!+!+!+!+!+>+& { ] ;+s+l.o.B o.-+)+)+'+'+'+B { 2 1 , , { h { , 2 g ] B t+t+n n a 0 w+% 0 c a u+& s+r+9 t+B k G+_+2+&+&+X.v.o+p+u.C z.r.s+(.w+x+z+k.c.b.|.L ",
"y+m.a & q+..w.I s.+.G.g+0+G+G+@+x+1+G+5 o w+v+a w+l+Y.!+}+  }+;+;+;+}+;+;+;+!+;+!+)+g 1 ) | 9 T.s+& B !+)+'+)+)+'+'+{ ) [ 2 1 ' , { e { / ] T.& B p p d a u+f 0 b p c t+q+q+q+r.9 d m G+|+$+)+%+Z.s+o+p.t.v.y.H i.t+% + y+k.c.b.|.[.",
"@+w+u+& r.z.C u.p+o+F.3+a+c+F X.S.=+G+7 f m w+l++ X.Y.!+    }+-+-+;+T.}+;+!+;+}+)+9 | ' > ' 1 & T.s+s+!+)+)+)+'+,+2 ' > ' : 2 1 > , | ; ; e & & B p d p a n a % c c B & q+q+H q.q.g p 6 _+<+]+{+U./+@.H.s.I x.q.h.B j.m.y+I.O.b.|.[.",
"x+w+u+s+r.y.C n.p+o+F.J ]+0+=+X.++C+G+i b m X.%+S.`.{+-+;+;+;+-+-+;+& ;+-+!+;+-+3 [ ' > > > ' { !+T.s+& o.>+)+{+3 _ > > > > ( 2 { ' ) { >+B & B t+(.(.o.a a /.w+l+/+t+s+q+q+H ..x 9 e r h+$+n.[+{+&+o++.s.u.w...r.l.u+l+@+I.O.b.|.[.",
"x+w+o.s+H y._.n.p.O E.:.k+6+1++ d.a.G+j f q - ] ] ] ] ] ; ; 9   }+;+-+!+;+-+-+; [ ' > > > > > ' 2 !+r+r+& !+'+* [ ' > > > > > / { 1 1 h o.t+t+>+9 2 { { 1 1 { { 2 3 B T.r+  r.x z.e g z+M.%+]+]+`.S.@.o+p+n.C z.H i.u+w+x+z+d.c.b.W ",
"x+/.o.i.H y.v.t.p.O E.j+d+6+b.x+O.0.G+w 0 S.2 ~ ' > > > > ( _ [ 1 { 2 9 -+,+] _ ' > > > > > > > : ; s+e g >+d 1 ' > > > > > > > ' 2 h o.>+>+3 { : ' , ' ' ' , ! , > 1 ] q+i.r.x x e h l M.Z.{+;+,+`.G.o+p.t.v.y.q.i.o.w+x+e.k.c.b.W ",
"x+% o.i.q.y.v.t.H.@.D.d+0+G+O.@+c.F+G+k m S.2 ! > > > > > > > > ' ' > _ { d 3 / > > > > > > > > ' [ 3 l.t+>+1 ' > > > > > > > ' | * >+o.o.2 ( ' > > > > > > > > > > ' ' 1 ; r+x x e p f E+|+%+;+,+y.E.@.p.s.I x.q.E o.% x+e.k.c.b.W ",
"x+% o.i.q.x.v.t.H.@.D.:+a+c+d.@+.+G+G++ m @+2 ! > > > > > ' > > > > > > , [ * ] / > > > > > > > > , 1 B t+{ ' > > > > > > > ' | d /+Y.u+1 ! > > > > > ' , ' > > > > > > ' | x H x q+p p 6 h+Z.e.k.J D.@.H.s.I x...h.t+v++ e.k.c.b.|.",
"+ % o.r+q.x.v.t.H.G.D.C.3+6+++y+.+G+5 m m x+2 ! > > > > ( | : ' > > > > > ! 1 {+2 ' > > > > > > > > ' { 2 ' > > > > > > > , | = `.{+c 1 ' > > > > > > | { 1 _ ' > > > > > ' 1 q.x q+n p 6 G+O.y+e.:.D G.H.s.I w...h.B v+m.y+I.c.B+f.",
"+ % o.r+q.x.v.t.H.G.D.C.9+0+&+S..+G+6 0 l `.2 , > > > > : h d 2 / > > > > > _ * `.2 , > > > > > > > > ( / > > > > > > > ! 1 n %+X.`.2 ! > > > > ' | ] c l+w+- { ' > > > > > > 2 q.e c B C+G+O.y+S.:.:. .+.s.I w.z.q+l.j.m.y+I.c.b.f.",
"+ /.o.i.q.x.v.t.H.@.D.b+a+c+++e.B+G+s 0 l @+2 , > > > > : p /+,+{ ' > > > > ' ] `.X.{ ' > > > > > > > > > > > > > > > , 1 c %+`.`.= : > > > > > : 3 `.w+% w+X.w+1 ' > > > > > 1 x 9 p d C+G+.+y+k.+.:.*.O p+u.w.z.q+l.j.m.y+I.O.b.f.",
"+ v+B h.q.y.v.t.p.@.E.g+0+z &+z+g.G+s 0 l `.2 ' > > > > : = /+{+- _ > > > > ' ] %+`.l+{ ! > > > > > > > > > > > > > ! 1 0 S.+ @+S.2 ) > > > > ' 2 X.0 f 0 w+0 `.] > > > > > > : ; e p g 8 G+.+e.k.H.J *.@.Y u.w.z.q+l.j.m.y+I.O.b.f.",
"2.j.l.h.q.y.v.t.p.@.E.H.d+0+&+z+g.G+s 0 l S.] ' > > > > : = `.`.- _ > > > > _ = %+@+X.b { ! > > > > > > > > > > > ! 1 = @+@+@+x+x+1 ' > > > > _ - w+0 0 0 w+0 l+- _ > > > > > / ] g n g 7 G+1+e.k.H.J F.O Y &._.z.r.l.j.m.1.I.O.b.f.",
"2.j.B E q.y.v.t.p.O E.:.C.7+&+z+g.G+s 0 l @+] ' > > > > : = %+%+2 ' > > > , 1 @+&+&++ m.b 1 ' > > > > > > > > > ' 1 m S.o &+S.&+= _ > > > > ' | f w+0 0 0 m 0 0 c | ' > > > > > 2 B n g 7 G+1+e.I.H.J F.o+Y '.Q y.r.l.(./.1.I.d.b.f.",
"x+~.B E q.y._.n.p.O E.J 4+~+++z+g.G+s f l `.2 ' > > > > : b U.3 ( > > > > ! ] U.++@+m.0 2.- _ > > > > > > > > > ' 2 I.y+y+y+S.Z.] , > > > > , { m.m 0 0 m m m 0 0 1 ' > > > > ' 2 j.b g g.G+1+S.++H.J F.o+p+'.Q R H i.(.~.2.e.d.b.f.",
"1.~.B E q.y._.n.p.o+F.4+a+V.++z+g.G+s f l X.2 ' > > > > : - 2 / > > > > ~ {  + +++y+q l x+2 ' > > > > > > > > > > / 3  +z+y+z+R.] ) > > > > ' { m.m m m w+m m f f 1 ' > > > > > 2 /.f h 7 G+1+S.z+H.J F.o+p+n.I y.r.i.(./.2.e.d.b.f.",
"1.~.$.X q.y._.n.p+o+F.9+a+0+ +++B+G+D+0 l l+2 ' > > > > > _ ' > > > ' ) { k  + + +. l 2.] > > > > > > > > > > > > ' [ - Z.y+. R.] ) > > > > ' | 0 m m l m 0 m l b [ > > > > > ( 3 /.b d 8 G+1+@+S.H.J F.o+p+u.C z.r.l.u+l+@+I.O.B+f.",
"1.~.(.E H z.C u.p++.F.D D :+ +z+B+G+6 m q m.2 ' > > > > > > > > > ) : ] z+R.++ + +y+S.2 > > > > > > > > > > > > > > , [ = Z.. R.- > > > > > > _ - + l l m m m m.- ( > > > > > | p 0 b d C+G+1+x+S.H.J F.o+p+u.C z.r.& u+l+@+I.O.B+f.",
"y+~.(.l.r...w.u.s.+.G.D :.4+ +z+B+G+F+l l w+2 ' > > > > > > ' ! : { = R.&+ + + +++&+3 _ ' > > > > > > > > > > > > > > , [ b  +++l [ ' > > > > ' ] S.l m m m w+`.2 ' > > > > , { a 0 f p s G+.+x+@+@.D F.o+p+u.C z.r.l.u+w+1.I.O.B+f.",
"y+m.j.l.h.q.x.I s.H.G.D.f+0+c.I.b.G+4 m m w+2 ' > > > > > : 1 ] b R.R.++&+z+z+&+U.3 / ' > > > > > > ' > > > > > > > > > ! | 0 S.@+{ ! > > > > ' | = X.m l+m.2.3 _ > > > > > / 3 /.m b c E+G+O.y+@+J D F.o+p+u.C z.r.l.u+w+1.I.O.B+g.",
"z+2./.o.i.q.y.v.t.p.@.E.g+0+U.`. +=+G+l f /.2 ' > > > > _ - &+ +&+++++++++y+@+&+3 : ' > > > > > > , 1 ] : > > > > > > > > ! 1 c S.- [ ' > > > > ' | ] c b - 2 [ ' > > > > ! 2 v+0 m c 0 4 e+=+A+A+o+D F.+.p+u.w.z.q+l.u+l+@+I.O.t g.",
"z+x+w+o.s+H y._.n.p.o+E.H.%+-+-+%+1+G+k f m.2 ' > > > > : b &+k z+++++++&+x+U.3 [ ' > > > > > > ' [ = R.] , > > > > > > > > , 1 0 &+] ' > > > > > ' ' | | : , > > > > > ) 1 c b f m c l G+V.=+|+Z.S.E.G.+.s.u.w.z.q+& u+l+@+I.O.t g.",
"z+@+w+u+& r.z.C u.p+o+F.p. +`.$+)+1+G+y f m.2 , > > > > : b &+@+z+++ + +S.`.- [ ' > > > > > > ' _ 3 @+x+@+{ ' > > > > > > > > ! { v+/.2 _ ' > > > > > ' ' > > > > > > ' 1 = v+c c 0 c y G+_+ +&+%+`.F.G.+.s.I w...q+& u+l+@+I.O.t g.",
"I.y+m.v+B q+..w.I s.}.*.Z |+)+3+$+&+G+v b 2.2 ! > > > ' : = &+y+@+y+z+. S.- [ ' > > > > > > > , 2 m.0 0 m f 1 ! > > > > > > > > ! { o.>+; | ' ' > > > > > > > > > , _ 2 q m f f f 0 n u G+ +;+)+{+`.F.G.H.s.I w...q+l.a m.y+I.O.t g.",
"k.y++ v+t+r+q.x.u.Z }.!.O  +&+*+^+2+G+r c 2.2 ' _ _ _ ( : = S.. q x+. &+= ] _ > > > > > > > , { a c a a a /.- | ' > > > > > > ' _ 2 l.& l.g 2 1 _ > > ' , ' > ( [ { 3 l+l 0 b 0 0 m c f.G+Z.[+3+'+/+F.@.H.t.I x.q.h.B j.m.y+I.O.t g.",
"k.e.2.w+o.i...R Q Z Y @.*.w+Z.`.-+-+N.6 m m * 3 3 3 3 * - m . . l x+S.- [ 1 ] : ' > > > > ' 1 p o.p u+c n n Y.3 _ ' > > > > ' : ] B h & s+s+T.g ; ] 2 2 2 2 2 ; e i.i.n 0 f 0 m m 0 f 6 V.1+{+$+,+}+E.O p.t.v.x.q.r+B v+m.y+I.O.B+g.",
"O.z+1./.l.>.,.R %.'.Y O *...|+U.{+)+W.G+w 0 a B B t+o.j.w++ . x+l @+&+{ ~ , { ] [ ' > > > [ * o.d d p p p n n j.2 / > > > ' [ ] >+s+g g g e g h s+T.T.l.B l.T.i.H I I h 0 0 0 0 0 n m G+W.R.`.:+,+z.F.o+p+n.v.y.q.r+t+v++ y+I.O.B+g.",
"O.e.~.;.$.X >.R %.&.Z }.!.}.~+|+I.O.# G+u f 0 d d d B u+% x+. x++ = ] c 1 ! ' { ] : > > / ] o.h d t+d p p p p o.(.{ , > ' [ 3 >+& g g g h g g g r+g g g g g g H t.J o+e f f c a f p j G+N.O.% >+t.G.G.+.p+u.C y.H s+o.% + y+k.O.B+g.",
"-.#.~.;.$.X >.,.R Q '.Y O *.).*+ +I.8 G+s f f p h B t+u+% + k x+S.] ! 2 p { , ' 1 2 [ ! { t+B d h B B d p p d o.o.h 1 ) | 3 t+& & h g g h s+g g q+s+s+e g h e w.D.n+H.d c c n c m b 8 G+_+++>+z.:.D.G.H.s.I w.z.r.s+o.w+x+. k.O.B+g.",
"V #.#.;.$.X >.,.R %.&.Z }.!.).t.Z.z+A+G+G+z+f f p p n b 0 x+y+0 2 l 3 ! { p { ! , 1 2 2 d & h h g s+d d t+B B p o.B * { 9 B g g g g g e g h h g e g h g e h r.I G.@.x b c n p b b k G+G+B+w+>+G.J E.O p.t.I w...q+& u+w+x+z+k.O.B+g.",
"V V #.;.;.$.X >.,.%.Q '.Y O *.:+~+z+I.s G+C+0 l f a f 0 m @+. o { { l 3 / { p { ' ) { o.t+h h h h B & B p p p & t+d t+t+h g e g g g h g g g g h g h h h g g e x y.e c b n p p f p B+G+E+c.T.s+C.D F.o+p+n.v.x.q.q+l.u+w+x+z+k.c.b.g.",
"U V #.#.;.$.X >.,.R %.&.Z }.!.).v. +e.B+G+G+y f m m m q q k . @+S.2 1 y+- _ 1 /.{ | * t+d d t+d d & & t+B B t+B B & h g g g g g & & h g g h h g & & h d d d p n c b b p d h n b q G+G+=+y+s+_.:.D.G.+.p+u.C y.q.r+B j.m.1.e.k.c.P g.",
"-.V #.#.;.;.$.X >.,.%.Q '.Y O *.@.U.z+O.s G+6 l 0 l l k o k k + l @+] 1 0 = [ 1 = = 0 a n p p p p o.p p t+n t+o.t+B h g s+g h s+& t+d h d B B d B B p u+c n 0 m m 0 n h d B a m s G+N..+i.s+J J F.O p.t.I w.z.H i./.v+m.1.e.I.c.b.W ",
"-.U V #.~.;.$.X >.,.R %.&.Z }.!.!.<+ +I..+# G+8 f 0 m m l x+y+m.a v+m.] 1 - = 1 = 1.o l m m 0 0 w+w+0 c a v+u+Y.>+a a j.u+p p n u+u+u+u+a v+% a v+0 0 m 0 f l q l b d h p c l 8 G+5 g.l+  p+:.D.G.o+p+n.v.x...i.R.1+% m.1.I.d.c.b.|.",
"-.U V #.#.;.;.$.X >.,.R Q '.Y }.!.` >+++k.g.@ G+t f 0 a n 0 l m f u+n Y.] 1 3 v+0 0 l m m o l o x+k x+q q 2+X.+ @++ + + m 0 w+w+m l + m.x+m.m f m m.f 0 f 0 m m f n t+p c m 7 G+G+f.++..q+C.J F.O H.s.u.C y.l.U.P.m.w+x+y+I.d.c.b.g.",
"-.-.U V #.~.;.$.X >.,.R %.Q Z Y O  .!.l+++d.g.@ G+7 l f t+t+t+n a f f c >+3 ] t+d p n & B w+0 m + l + x+x+q + + . @+x+y++ m.+ + l + % l+m.f f p u+v+n b f a f % a c a 0 o C+G+G+g.O.r.l.F.:.D.G.o+p+t.I w.Y.L.`.l+ +w+x+e.I.O.A+B+g.",
"].-.-.V #.#.;.;.$.X >.,.R %.&.Z +.O  .p.&+++d.B+5 G+6 u 0 a a B & p c b c u+n d d p o.t+d o.n a v+v+l+l+m m w+l++ w+% w+% v+% % a a n o.B d p B a v+f w+m 0 0 l m 0 l i 5 G+# g.k.r.T.H.C.D F.O H.s.u.z.Q.Q.'+%+6+|+m.@+e.I.O.A+B+f.",
"].].-.V V #.#.;.$.$.X >.,.R Q &.Z }.@.*.H.&+++k.t s G+G+C+v k f c n p o.t+p n p p p n c c c u+a c v+Y.v+w+w+% v+Y.j.u+n u+u+v+a a n a v+a 0 0 w++ l l l + q l l w t 6 G+G+D+t + q.T.+.C.J E.G.+.p+I -+L.Q.,+0+0+2+w++ y+e.I.d.b.g.f.",
"].].-.-.V V #.~.;.$.X >.,.,.%.Q '.Z }.@.*.}.>+ +I.O.7 5 G+G+s u k o l -+Q.b c c c c c n n c v+v+b v+v+0 0 w+% v+v+v+v+v+v+v+a v+m.% w+m.m m l m.@+l m l x+w v f.@ G+4 6 # =+l+h.q+E.C.J E.!.o+n.$+Q.L.,+0+a+(+u+v+l+x+e.I.d.c.b.g.f.",
"=.].].-.-.V #.#.;.;.$.X >.,.R %.Q '.Z }.O !.E...O.++I.u 7 4 G+G+@ C+7 L.Q.y q m m l l m 0 0 v+0 0 l+w+m m l+l+m f 0 0 0 w+w+0 w+w+w+0 m 0 m m w+x+k j B+D+G+G+G+6 7 i v B+%+{+y.J C.D E.p._.Q.L.L.~+0+a+d+!+B u+% + @+z+I.d.c.B+g.f.",
"=.=.].].-.V V #.#.;.;.$.X >.,.R %.Q '.Z p.o+@.E.p.Y.Z.++z+v t 8 5 G+6.~+6+z s 7 r i v j j j z+z+y . . w y+y+k k l x+k o k k . z+z+j v u A+B+f.s # G+G+G+# 8 7 i j x+v+u+e.{+-+~+0+,+,+~+~+#+#+#+a+a+7+<+r+& o.v+l+x+y+I.d.c.b.g.f.|.",
"=.=.].].-.-.V V #.~.;.$.$.X >.,.R R v.u.t.p.+.@. .E.n.X.O.++e.y j u t |+=+F 4 G+G+G+G+G+G+G+G+G+G+G+G+@ @ @ @ F+F+@ @ 0.C+@ G+G+G+G+G+4 5 6 s 8 7 r t u v w l+v+w+k u K.~+~+u+b+4+g+f+f+g+7+7+:+y.z.q.q+s+o.j.w++ y+z+k.d.c.b.g.f.^.",
"{.=.=.].].-.-.V V #.~.;.$.$.X h.H ..x.C I t.Z H.O !.E.E.u.r+x+O.I.z+z+y j v u t B+r r r r r r r r r 7 r r 7 7 r r r s W.|+t t t t i u u v j j y w y+x++ m.+ z+t D+P.L.#+d+b+D.D.F.G.o+p.Z n.I w.y.q.q+s+t+u+/.m.1.z+I.O.c.P b.f.f.^.",
"{.{.=.].].].-.U V V #.~.;.;.(.B E H ..y.w.I n.s.p.+.O F.E.D J +.w.j.d.Z.d.I.k.v j j I.I.I.z+z+z+z+z+z+z+z+z+z+z+z+z+t 1+&+e.y y y w k @+k y+y+e.I.O.g.$ 4 G+V.P.L.L.#+d+j+D E.F.O +.p.s.u.v.w.z.q.q+s+B u+% m.x+y+I.k.O.c.b.|.f.^.C+",
"{.{.=.=.].].].-.V V V 1.1.2.w+j.B E r.H z.x._.u.t.p+H.o+@.F.D.D :.C.J $+0+=+K.L.U.R.B+7 7 7 7 r r r r r r b.c.R.U.U.|+1+-+(+~+K.K.K.1+_+W.N.9.G+G+J.W.P.K.L.L.K.~+a+g+F.D.F.@.o+H.p+t.u._.x.z.q.q+s+B u+% m.x+y+z+k.O.A+b.b.|.f.C+a.",
"{.{.{.=.=.].].-.-.d.d.k.e.y+2.w+j.B i.r+H ..y.w.v.u.s.p+H.o+@.F.E.D J D f+a+0+K.K.L.L.L.K.K.K.P.P.K.K.K.K.K.~+0+a+a+:+++{+7+f+a+#+L.L.L.L.L.L.L.L.L.L.L.K.P.6+a+d+b+E.F.G.o+H.p+s.n.I C x...H r+s+t+u+% m.x+y+z+k.O.A+B+B+W f.C+C+a.",
"{.{.{.=.=.=.=.b.b.b.A+O.k.e.y+2.w+j.(.B s+r.q.z.x._.I n.s.p+H.o+@.G.F.E.F.3+d+a+0+0+~+K.K.L.L.L.L.#+#+#+a+a+f+g+8+J B.t./+H.B.j+g+d+0+0+~+~+P.P.P.c+6+6+6+0+f+4+F.F.G.o++.p.s.t.u.v.w.y...r.r+& o.j./.m.x+y+z+k.O.A+t B+g.f.8 C+a.a.",
"{.{.{.{.[.^.C+C+f.g.b.c.d.k.I.e.x+m./.u+t+& r+H ..y.w._.I n.s.p+p.+.o+@.!.F.E.8+4+g+f+f+f+f+f+f+f+g+4+4+5+:.C.B.B.B.B.B.C.B.B.B.B.C.j+g+g+g+f+d+a+d+f+g+4+9+F.G.O o+H.p.s.t.u.v.C x.z.q.r.i.l.o.v+w+m.x+y+z+k.d.A+A+B+g.f.f.C+C+a.A ",
"{.[.L 3.9.6 D+C+C+f.g.b.c.O.d.I.e.1.+ w+j.o.B i.q+H ..y.w._.I n.t.s.p+H.+.o+O G.!.F.F.E.D.D.D.D.D D D D D J J J J J J D D D D D D D D D D.D.D.E.E.F.F.G.@.O o++.H.p+s.t.u.v.C x.y...H h.i.l.(.v+w++ 1.y+z+k.O.c.A+B+g.f.f.C+C+D+a.A ",
"3.<.<.8.8.# 6 a.C+^.f.|.b.b.c.d.I.e.y++ m./.u+o.l.r+r.q...y.x.C v.u.n.s.s.p.p.H.+.o+o+O @.@.G.G.G.!.!. . . . . . . . . . . . . . .!.!.!.G.G.G.@.O O o++.H.p.p+s.t.n.I v.C x.y...q.r.E i.B (.j.m.+ y+e.I.k.O.c.A+b.g.f.f.C+C+a.a.6 E+",
"4.<.<.<.9.# # A a.C+^.|.|.B+b.c.O.k.I.e.1.2.w+v+u+t+& r+r.H ..y.x.w._.I u.n.t.s.p+p+p.p.H.H.H.+.+.+.+.+.}.}.}.}.}.}.}.}.}.+.+.+.+.+.+.+.+.+.H.H.p.p.p+s.s.t.n.u.v._.w.x.z...q.r.h.i.B (.j./.m.2.y+z+I.k.O.A+t B+g.f.f.8 C+a.a.A 0.# ",
"<.4.4.S z F+# 9.a.a.a.^.f.|.b.b.c.O.d.I.e.1.x+m.w+j.u+t+l.i.q+H q.z.y.x.w._.v.I u.u.n.t.t.s.s.s.s.s.p+p+Z Z Z p+Z Z Z Z Z Z Z Z Z Z Z Z s.s.s.t.t.n.u.I I v.C w.x.y.z...H q+h.l.B (.j./.m.2.1.e.z+k.O.O.A+B+B+g.f.8 C+C+a.a.A 0.9.9.",
"6.7.6.7.G+@ F+9.F 0.a.a.^.^.|.|.b.b.c.O.k.I.e.1.2.m.w+v+(.t+l.s+r+r.H q.z.y.y.x.w.C _._.v.v.I I I I u.u.u.u.u.u.u.u.u.u.u.u.u.u.u.u.I I I I I v.v._.C w.x.y.y...q.H r.r+s+l.t+u+j./.m.2.1.y+z+I.k.O.A+A+B+g.g.f.f.C+C+a.a.A 0.9.9.9.",
"G+G+G+G+G+G+@ 9.F 0.0.a.a.^.^.f.|.g.b.A+c.d.k.I.e.1.+ m.w+v+u+o.B l.s+r+q+H q.....z.y.y.y.x.x.x.x.w.w.w.w.w.w.w.w.w.w.w.w.w.w.w.w.w.w.w.x.x.x.x.y.y.z...q.q.H r.r+s+& B o.u+v+w+m.x+@+y+z+I.k.O.O.A+B+B+g.f.f.8 C+C+D+a.A 0.9.9.9.9.",
"G+G+G+G+G+G+7.z z 9.F 0.a.a.a.^.^.f.g.g.b.c.O.d.I.e.e.y+x+m.w+% v+u+o.B l.s+i.r+q+r.r.H q.q.q...................z.z...z.z.z.z.z.z.........q.q.q.q.H r.q+h.i.s+& B o.u+v+% w+m.x+@+y+z+I.k.O.O.A+t B+g.f.f.f.C+C+a.D+6 0.0.9.9.9.9.z ",
"G+6.5.6.6.5.5.6.7.z 9.F F 0.A a.C+C+^.f.g.B+s.p+p+p+p.p.y.y+1.+ m.C o+r.u+(.o.B @.@.@.G.G.G.t.r+h.q+q+q+t.G.x.q+q+q+q+!.s.q+q+q+q+q+h.h.G.t.r+i.s+s+l.l.B t+I o+r.% w+m.+ H.H./.z+I.s+p+& A+t B+g.g.f.8 C+C+a.a.a.6 0.9.9.9.F+z z z ",
"6.6.5.4.4.4.<.5.6.7.z 9.9.F F 0.a.a.C+C+f.f.m+n+B.B.B.n+n+I.z+e.% n+m+D.l+w+% v+m+n+A.A.A.n+n+B B B B q+n+m+J l.l.l.l.m+@.l.B B B B B B m+O t+o.o.(.u+j.j.B n+m+D.+ x+@+y+q+n+A.x+y+n+F.B+B+g.f.f.f.C+C+a.a.a.A 0.# 9.9.9.z z z 7.7.",
"4.6.6.4.4.4.<.5.7.7.7.7.z 9.9.F F A a.a.C+C+m+s.g.B+b.s.m+O.d.k.p.n+p.m+x.x+2.m.m++.w+/.% o+m+v+v+v+v+o+n+o+m+v.j.j.j.m+o+j.j.j.j.j.j.v+m+o+/././.w+w+m.m.H.n+H.m+y.z+z+I.k.s+n+A.A.B.B+g.f.f.8 C+C+a.a.A 0.9.F 9.9.9.z z z 7.7.7.7.",
"4.4.6.6.5.4.4.7.7.7.7.7.7.z z 9.F F 9.A a.a.m+n+C.C.C.n+n+b.c.y+n+u.k.n+B.e.e.y+m+n+B.B.B.n+n+m.m.m.u+n+p+m.n+B.m.m.m.m++.m.m.m.~.~.~.m.m++.2.2.2.2.1.1./.n+t.e.n+B.k.d.O.c.c.H m+m+m.f.f.^.^.C+a.a.A 0.9.9.9.9.z z z 7.7.7.G+7.7.7.",
"6.5.5.7.7.6.5.7.G+7.7.7.6.6.6.7.z 9.9.9.F A m+C.t.t.t.s.r.g.g.F.m+p+p+B.m+C k.I.m+B.p.n+n+p.y.y+y+y+E.m+H.H.B.m+I 1.1.m+H.y+y+y+1.1.1.1.m+H.1.1.e.e.e.e.E.m+p.p.B.m+w.c.P b.b.!.A.n+A.d.^.N N a.0.9.9.9.9.9.z z 7.7.7.7.7.7.G+7.7.G+",
"7.7.7.6.7.G+7.7.7.7.7.7.6.6.6.6.6.7.z 9.9.F m+n.A a.a.C+C+^.2.m+A.C.B.B.n+n+c.O.m+p+d.i.n+A.+ k.k.u+m+A.B.B.B.n+n+e.I.m+E.z.z.z.z.m.e.I.m+E.z.z.z.z.2.j.m+A.B.B.B.n+n+b.W W !.n+(.(.n+A.d.3.3.8.9.9.9.z z 7.7.7.7.7.7.7.7.7.G+G+G+G+",
"7.7.6.6.6.G+G+G+7.6.7.7.6.G G 6.6.7.7.7.z z m+n.F 0.A a.a.a.C.C.^.|.f.f.H m+s.b.m+s.b.A+l.A.n+q.c.B.B.O.O.d.d...m+p+O.m+m+m+m+m+m+..d.d.m+m+m+m+m+m+..B.B.b.b.b.|.r.m+t.^.+.m+j.a.a.v+n+A.P 9.9.z z 7.7.7.7.7.7.7.G+G+G+G+G+G+G+G+G+",
"7.7.7.7.6.6.7.G+6.6.7.6.6.6.6.6.6.6.7.7.6.7.z z 9.F F F 0.A a.a.a.^.^.^.8 f.f.f.f.g.g.g.g.g.B+B+B+b.b.b.P P P P P P b.B+B+b.b.b.P P P P P P P P P P b.W |.f.f.f.^.^.^.C+a.a.a.A 0.9.9.9.8.S G G+7.7.7.7.7.7.G+G+G+G+G+G+G+G+7.G+G+G+",
"7.7.G+G+7.6.6.7.7.6.6.6.6.6.6.6.7.7.7.7.7.7.7.7.7.z z 9.F F F 0.0.3.3.a.a.a.C+C+C+C+8 ^.^.f.f.f.|.|.|.|.|.W W W W W |.f.f.|.W W W W W W W W W W W W [.|.^.C+C+a.a.a.a.A E+0.F F F 9.z G S S 5.S 6.6.6.7.6.7.7.7.7.7.7.7.7.7.7.7.7.7.",
"6.7.7.G+G+7.6.7.7.7.6.6.6.6.6.7.7.7.7.7.7.7.7.5.4.4.4.4.<.8.8.<.3.N 3.3.N N 3.N N N 3.3.3.N ^.L L ^.^.^.^.^.^.|.|.^.^.a.a.^.^.L L L L ^.C+^.L N L N N N 3.A A 0.0.F 9.# # F+9.z z z 7.G <.4.4.M M S 6.6.G 5.6.6.6.6.6.6.6.6.6.6.7.6.",
"6.7.G+G+G+G+7.6.6.7.G+6.5.6.G 6.7.7.7.7.7.7.7.S <.M <.<.<.<.<.M K K N N L N 3.3.3.3.3.3.3.N N L L 3.A a.3.3.3.N N 3.A 0.0.a.3.3.3.3.a.3.a.A 3.3.3.3.3.3.F # # 0.F 9.9.@ @ @ 7.7.6.7.6.<.<.<.M K K K 5.7.S S G 5.G S S G 5.5.G 6.6.6.",
"7.G+G+G+G+G+G+7.6.6.7.G+6.G 5.6.7.7.7.7.7.7.7.5.4.<.<.<.<.<.<.i.&.&.&.&.&.&.i.<.8.4.n./.3.K N L h._.F F M n.i.M 8.8.9.F+9.n.i.8.8.8.n.w+9.F G <.i.C <.G z u.u.n.n.n.n.w.G+G+7.6.5.S <.M M <.<.K K K 4.6.5.S G G G S S G 5.5.5.6.7.6.",
"G+G+G+G+G+G+G+7.7.6.7.G+7.6.6.6.7.7.7.7.7.7.7.7.6.6.6.6.6.6.S n+n+C.C.C.C.n+n+5.6.7.m+n+C S M K &.C.S S S m+n.G 6.7.7.G+G+m+n.6.6.6.m+n+w.7.6.G n.C.S G 7.m+n+C.C.C.C.p.G+G+7.6.5.5.S <.M <.<.M K M 4.5.G 5.G 6.6.G G 6.6.6.6.7.7.7.",
"G+G+G+G+G+G+G+G+7.7.6.7.7.7.7.6.7.7.7.7.7.G+G+7.7.7.7.7.7.7.7.m+u.6.6.6.7.u.m+7.G+G+m+n+m+u.6.M n.C.6.G 5.m+n.6.7.7.G+G+G+m+u.7.7.G+m+n+m+u.G+6.n.C.S 6.7.m+u.7.G 6.7.G+G+G+7.6.6.6.6.5.S 5.5.S <.S 6.6.S 6.7.6.7.7.6.7.7.7.7.7.7.7.",
"G+G+G+G+G+G+G+7.7.6.7.6.6.7.7.7.7.7.7.7.7.G+G+7.7.7.7.7.7.7.7.m+u.7.7.7.7.u.m+7.G+G+m+& @.m+D.b.n.C.6.6.5.m+n.6.7.7.G+G+G+m+u.7.7.7.m+& @.m+D.g.u.C.S G 7.m+m+m+m+n.7.7.G+G+7.6.7.7.7.7.6.7.7.6.S 6.7.7.6.G 6.6.6.6.6.6.7.7.6.6.6.5.",
"G+G+G+G+G+G+G+G+7.6.7.7.6.6.7.G+7.G+G+G+7.7.G+7.7.7.7.7.7.7.G+m+u.7.7.7.7.u.m+7.G+G+m+& G+w.m+A.D.C.6.6.6.m+u.7.7.7.7.G+G+m+u.7.7.7.m+& G+w.m+A.D.C.7.7.7.m+@.s+i.I.7.G+G+G+7.7.7.7.7.7.6.7.7.6.6.6.7.7.6.6.6.7.6.6.6.6.7.6.6.5.6.5.",
"G+G+G+G+G+G+G+G+7.6.7.7.6.6.6.7.G+G+G+G+7.7.G+G+G+G+G+G+G+G+G+m+@.& & & & @.m+G+G+G+m+& 7.7.w+n+m+C.6.6.6.m+@.& s+s+& g.G+m+n.6.7.7.m+& G+G+l+n+m+C.7.G+G+m+@.i.i.s+& l+G+G+7.7.7.7.7.7.7.7.7.6.6.7.7.7.6.6.6.6.7.6.G 6.7.7.6.5.6.5.",
"G+G+G+G+G+G+G+7.7.6.7.7.6.6.7.7.G+G+G+7.7.7.7.G+G+G+G+G+G+G+G+D.m+m+m+m+m+m+D.G+G+G+m+& 7.7.7.I.A.C.6.S S m+m+m+m+m+m+& G+m+n.S 7.7.m+& G+G+G+I.A.C.G+G+G+m+m+m+m+m+m+C.G+G+7.5.5.6.7.7.7.7.7.6.6.7.7.7.6.6.6.7.6.7.6.6.7.7.6.6.6.6.",
"7.7.G+G+G+G+G+7.7.6.6.7.6.6.6.7.7.G+G+7.7.7.7.G+G+G+G+G+G+G+G+G+G+7.7.7.7.7.G+G+G+G+G+7.6.5.7.7.7.6.6.M M K K M M <.6.G+G+7.6.5.6.7.7.G+G+G+G+G+G+G+G+7.G+G+6.K L S G+G+G+G+7.6.5.5.6.7.7.7.7.6.6.6.7.7.6.6.6.6.6.G 6.6.7.7.6.5.6.6.",
"G+G+G+G+G+G+G+7.7.6.7.7.7.7.7.7.7.7.G+G+7.7.7.7.7.G+G+G+G+G+G+G+7.7.7.7.7.7.7.7.G+G+7.5.<.S 6.7.7.6.S K N K K M <.<.S 6.7.7.7.7.6.6.7.G+G+G+G+G+G+7.7.7.7.G+G+K L S G+G+G+G+G+7.7.7.7.7.7.7.7.6.6.7.7.7.6.6.6.6.6.S S 6.7.6.G 6.6.5.",
"G+G+G+G+G+G+G+G+7.7.7.7.6.6.7.7.7.G+G+G+G+7.7.G+7.7.G+G+G+G+G+G+7.7.7.6.5.G 5.6.7.6.4.<.M 4.7.6.6.7.G K K K K M <.<.4.4.5.7.7.7.G S 5.7.G+7.6.6.S M M <.5.6.6.K L <.G+G+G+G+G+7.6.7.7.7.7.7.7.6.S S 6.7.6.G 6.6.6.G S 5.7.6.S 5.6.6.",
"G+G+G+G+G+G+G+G+7.6.7.7.6.G 6.7.7.G+G+7.G+G+G+7.7.7.G+G+G+G+G+G+6.6.6.5.<.<.<.6.6.<.<.M M S 7.7.7.6.6.M K K K M <.<.S 5.5.7.7.S K K M S 6.5.4.M L L L L K 4.4.K M S 7.G+G+G+G+5.<.6.7.6.7.7.7.6.M K <.7.6.G 6.6.6.5.G 6.7.6.S 4.6.5.",
"G+G+7.G+G+G+G+7.7.6.6.6.G G 5.6.7.G+G+7.7.G+G+7.7.7.7.7.7.7.7.7.6.5.S <.<.<.S 6.7.S 4.S S 5.7.7.7.7.4.S <.K M 4.4.S 5.6.5.6.6.S K K <.4.4.4.M N L L L L K <.<.K M 7.7.7.G+G+6.<.M S 5.<.S 6.6.S M K <.7.6.6.7.7.7.6.6.6.7.G G 5.6.6."};
