/* XPM */
static const char * fs2_btn_play_hover_xpm[] = {
"131 58 256 2",
"  	c #787172",
". 	c #251D23",
"+ 	c #4B454B",
"@ 	c #332B37",
"# 	c #3F3947",
"$ 	c #101012",
"% 	c #0D1719",
"& 	c #0F1B1D",
"* 	c #0F1D1F",
"= 	c #2A3536",
"- 	c #010303",
"; 	c #434D4D",
"> 	c #485252",
", 	c #1D2928",
"' 	c #3D4745",
") 	c #36413D",
"! 	c #020705",
"~ 	c #636D69",
"{ 	c #010A06",
"] 	c #575E5B",
"^ 	c #03140C",
"/ 	c #5D9B7D",
"( 	c #030F09",
"_ 	c #010503",
": 	c #05170E",
"< 	c #69756F",
"[ 	c #011209",
"} 	c #081D12",
"| 	c #0A2316",
"1 	c #194D32",
"2 	c #1B5135",
"3 	c #6A957E",
"4 	c #19492F",
"5 	c #163825",
"6 	c #77B090",
"7 	c #010D06",
"8 	c #153F27",
"9 	c #174129",
"0 	c #19462C",
"a 	c #15251C",
"b 	c #56916F",
"c 	c #68A883",
"d 	c #2F4739",
"e 	c #142D1E",
"f 	c #0F1913",
"g 	c #49785C",
"h 	c #597C67",
"i 	c #8EBC9F",
"j 	c #345540",
"k 	c #131E17",
"l 	c #A8CCB5",
"m 	c #010703",
"n 	c #0E1410",
"o 	c #2D5339",
"p 	c #528161",
"q 	c #223528",
"r 	c #405D49",
"s 	c #576A5D",
"t 	c #4E8F61",
"u 	c #3C5844",
"v 	c #54775E",
"w 	c #4C6C55",
"x 	c #6A8D74",
"y 	c #010903",
"z 	c #0C190F",
"A 	c #426C4C",
"B 	c #121613",
"C 	c #010B03",
"D 	c #3C6E46",
"E 	c #030904",
"F 	c #0A100B",
"G 	c #46654B",
"H 	c #355F3B",
"I 	c #47764E",
"J 	c #2D4A31",
"K 	c #77977C",
"L 	c #1C331F",
"M 	c #2D3F2F",
"N 	c #283C2A",
"O 	c #658768",
"P 	c #677E69",
"Q 	c #CAD4CB",
"R 	c #3C643F",
"S 	c #455646",
"T 	c #527953",
"U 	c #6B946C",
"V 	c #537154",
"W 	c #5E7D5F",
"X 	c #010B01",
"Y 	c #010901",
"Z 	c #010701",
"` 	c #010501",
" .	c #010301",
"..	c #030703",
"+.	c #060D06",
"@.	c #060A06",
"#.	c #030503",
"$.	c #1D2C1D",
"%.	c #436443",
"&.	c #3D523D",
"*.	c #5C755C",
"=.	c #4D624D",
"-.	c #495A49",
";.	c #94A794",
">.	c #A9B4A9",
",.	c #545554",
"'.	c #355A34",
").	c #4E6A4D",
"!.	c #1A2819",
"~.	c #3F5A3C",
"{.	c #455A43",
"].	c #395236",
"^.	c #374835",
"/.	c #435441",
"(.	c #162314",
"_.	c #2C4428",
":.	c #253223",
"<.	c #353C34",
"[.	c #8B9989",
"}.	c #C0C7BF",
"|.	c #364C32",
"1.	c #4C6946",
"2.	c #2B3629",
"3.	c #DDE2DC",
"4.	c #788176",
"5.	c #B6BFB4",
"6.	c #65895C",
"7.	c #5D7A55",
"8.	c #5B7255",
"9.	c #54684F",
"0.	c #687A63",
"a.	c #385430",
"b.	c #3D5636",
"c.	c #63775D",
"d.	c #304928",
"e.	c #455C3D",
"f.	c #0A0D09",
"g.	c #283C20",
"h.	c #4F5F49",
"i.	c #75886E",
"j.	c #828C7E",
"k.	c #4D6244",
"l.	c #050903",
"m.	c #435D37",
"n.	c #34452C",
"o.	c #0E120C",
"p.	c #58714C",
"q.	c #313E2B",
"r.	c #404F39",
"s.	c #4B5B43",
"t.	c #1A2315",
"u.	c #374A2D",
"v.	c #3C4D33",
"w.	c #192611",
"x.	c #213018",
"y.	c #314227",
"z.	c #3E5133",
"A.	c #171E13",
"B.	c #536847",
"C.	c #1D2419",
"D.	c #44543B",
"E.	c #54624C",
"F.	c #5C6A54",
"G.	c #A1AB9B",
"H.	c #26341D",
"I.	c #2D3D23",
"J.	c #1F2A18",
"K.	c #141A10",
"L.	c #3B4435",
"M.	c #707E67",
"N.	c #3B4B2F",
"O.	c #465839",
"P.	c #626F59",
"Q.	c #12170E",
"R.	c #232C1C",
"S.	c #425235",
"T.	c #4B5C3D",
"U.	c #345418",
"V.	c #436725",
"W.	c #2B3721",
"X.	c #5B6B4D",
"Y.	c #4C5544",
"Z.	c #526144",
"`.	c #49553E",
" +	c #030501",
".+	c #313D25",
"++	c #3A452E",
"@+	c #060705",
"#+	c #282E22",
"$+	c #59644E",
"%+	c #0A0B09",
"&+	c #0E0F0D",
"*+	c #525C46",
"=+	c #354027",
"-+	c #374229",
";+	c #414B31",
">+	c #608424",
",+	c #697455",
"'+	c #899F5B",
")+	c #1D1E1B",
"!+	c #181B11",
"~+	c #4D5636",
"{+	c #22241C",
"]+	c #32342B",
"^+	c #464A37",
"/+	c #8BA222",
"(+	c #10110B",
"_+	c #393B2E",
":+	c #A4B04A",
"<+	c #030301",
"[+	c #050503",
"}+	c #7C7B66",
"|+	c #313025",
"1+	c #29281E",
"2+	c #17160F",
"3+	c #262520",
"4+	c #2E2B21",
"5+	c #2A261B",
"6+	c #1D1B15",
"7+	c #706E69",
"8+	c #13110D",
"9+	c #0A0907",
"0+	c #665F51",
"a+	c #0D0B08",
"b+	c #0F0D0A",
"c+	c #3B352C",
"d+	c #585044",
"e+	c #120F0B",
"f+	c #251F17",
"g+	c #2D251B",
"h+	c #3F3427",
"i+	c #1E1913",
"j+	c #322A20",
"k+	c #78624A",
"l+	c #372D22",
"m+	c #574837",
"n+	c #2E261D",
"o+	c #45392C",
"p+	c #4C3F31",
"q+	c #675745",
"r+	c #746758",
"s+	c #604E3B",
"t+	c #2A221A",
"u+	c #16120E",
"v+	c #272019",
"w+	c #1C1712",
"x+	c #221C16",
"y+	c #826C55",
"z+	c #191511",
"A+	c #160E07",
"B+	c #2D1D0F",
"C+	c #0B0704",
"D+	c #0A0201",
"E+	c #030101",
"F+	c #030303",
"G+	c #010101",
"{ 7 [ [ ^ ^ ^ ^ [ [ [ | 1 2 1 1 1 1 1 1 1 1 4 4 4 4 4 4 4 4 4 4 4 4 4 4 4 4 4 9 } C [ } | | } ^ ^ : } } } : [ ! ! ! { { { { { { { { { { ! m { 7 7 7 y m m C C y _ `  . .G+ .Z `  . . .G+ .` `  . .` - _ m m m m _ _ _ m m m m ! { { { ( ( ( ( [ [ ^ [ 7 m m _ _ _ m m ",
"m m y { { { { m m m ^ 8 1 1 1 4 4 4 4 4 4 4 4 4 4 4 4 4 4 4 4 4 4 4 4 4 4 4 0 } y 7 m 7 : | | } [ ^ ^ : : [ m _ _ _ _ _ _ _ _ _ _ _ m m - - _ y y y m _ _ ` Z `  . .G+G+G+G+ . . . . . . .` `  . . . . .` ` ` _ _ - - _ - - _ _ _ _ _ ! ! y 7 C y [ [ y - - -  . . . .",
"- - - - - - _ - - m 5 1 4 4 4 4 4 4 4 4 4 4 4 4 4 4 4 4 4 4 4 4 4 4 4 4 4 0 }  . .-  . .- ^ | | : 7 y 7 7 m  . . . . . . . .`  . . .` ` `  . .` ` `  . . . . . . . . .G+G+G+ .G+G+G+G+G+ . .G+ . .` ` G+G+ . . . . . . .` ` ` ` `  .- _ y C y `  .C 7 m G+G+G+G+G+G+G+",
"G+ . .G+G+ . .G+- | 4 4 0 4 0 0 0 4 4 4 4 4 4 4 4 4 4 0 0 0 0 0 0 0 0 4 0 } G+G+G+G+G+G+G+G+( } | } 7 _ m  .G+G+G+G+G+G+G+ . .G+G+G+ . . .G+G+G+ . .G+ . . . .G+ . .G+G+G+G+G+G+G+G+G+G+ . . .G+ . . .G+G+G+G+G+G+ . .` m m ` ` m m m C 7 7 _  . .7 7 m G+G+G+G+G+G+G+",
"G+G+G+G+G+G+G+C+Q.$.L q h.0.n.:.R.R.J.C.|+_+R.#+|+|+c+]+,._+#+#+|+#+R.4+5+e+G+G+G+G+ . .`  . .{ } | } (  .G+G+G+G+G+G+G+G+G+G+G+G+G+G+G+G+G+G+G+G+G+G+G+G+G+G+G+G+G+G+G+G+G+G+G+G+G+G+G+G+`  .G+G+G+G+G+G+G+G+G+ .G+` m y _  . .Y y y C C y `  .` ( [ m G+G+G+G+G+G+G+",
"G+ . .G+G+[+z+f+g+h+p+o+  7+,.,.~   7+  4.}+}+}+}+}+7+7+7+] + # @ . x+v+x+f+w+G+G+Z y y C y Y Y ( } | } ^  .G+G+G+ .G+G+G+G+G+G+G+G+G+G+G+G+G+G+G+G+G+G+G+G+G+G+G+G+G+G+G+G+G+G+G+G+G+G+G+`  .G+G+G+G+G+G+G+G+G+G+G+ .y C m G+G+G+ .` m Z  . .` Z [ ^ m G+G+G+G+G+G+G+",
"G+ . .G+G+z+h+l+l++   j.[.'+:+G.G.G.:+:+:+:+:+:+:+:+:+:+:+:+:+;.[.j.7++ |+f+x+G+ .Y C C C C C X y 7 : } | : - G+G+Z Z  .G+G+G+G+G+G+G+G+G+ . .G+G+G+G+G+G+G+G+G+G+G+G+G+G+G+G+G+G+G+G+G+G+ .G+G+G+G+G+G+G+G+G+G+G+ .` y 7 y  .G+G+G+ . . . .` Z m [ ^ m G+G+G+G+G+G+G+",
"G+ . .G+G+9+l+j+l++ '+'+'+:+:+:+/+/+/+/+/+/+/+/+/+/+/+/+/+:+:+:+:+'+'+,._+g+v+u+6+8+(+2+5+5+5+1+|+5+4+|+|+]+|+n+g+n+j+l+j+j+j+j+j+j+j+j+j+j+l+l+l+l+j+t+x+x+x+c+n+n+t+g+j+g+t+v+u+a+t+w+f+f+z+a+9+9+a+9+9+@+9+8+w+2+2+2+2+!+t+f+2+u+z+@+ . .Z y y [ ^ m G+G+G+G+G+G+G+",
"G+ .G+G+G+F i+t+l+j+#+_.U.V.>+>+>+>+>+>+>+>+>+>+>+/+'+'+'+'+6.V.U.g., 8+z+t+j+p+l+f+i+j+l+n+j+h+d+l+h+h+o+p+o+h+p+m+m+m+m+m+s+s+s+m+m+q+q+q+q+k+k+k+r+m+h+m+m+s+s+m+o+o+o+h+m+j.y+n+m+m+p+m+o+i+z+u+b+b+8+8+u+x+h+p+n+g+n+j+o+s+h+j+l+l+6+` ` y { ( ^ m G+G+G+G+G+G+G+",
"G+G+G+G+_ e x+g+h+m+h+B+x+w+$ % * a e 5 L L L e L x.x.w.A.f $ $ u+A+A+x+t+n+p+h+t+t+v+v+v+l+h+h+h+h+h+h+p+m+o+p+p+m+s+s+s+s+s+s+s+s+s+s+s+s+k+k+q+q+y+r+m+q+q+y+d+q+s+m+s+m+s+r+m+o+m+q+m+p+s+p+j+v+w+z+w+i+x+v+t+o+h+t+l+p+m+m+o+j+j+l+p+l+(+` y ( ( m  . .G+G+G+G+G+",
"G+G+ .G+| 9 5+l+p+o+v+f+x+w+u+b+a+D+D+D+D+A+C+D+D+D+D+D+C+C+a+a+9+e+u+6+w+u+i+e+e+u+u+z+w+z+w+i+i+i+w+w+i+f+x+w+i+v+t+5+t+t+t+t+v+g+n+t+v+f+t+f+x+v+j+h+n+f+v+o+|+j+5+x+w+t+|+x+w+i+i+5+5+w+f+t+6+6+i+8+!+6+i+u+8+z+i+u+x+1+v+v+l+h+n+l+q+h+m+h+f.7 7 Z  .`  . .G+G+G+",
" . ._ : 9 9 w+f+t+@+G+_ { _  .- - E ! #.@._ .. . ._ #.@.+.F f.+.@..._  ._ #._ E E E @.@.@+_ ..E E @.+.@.l._ ..@+..` #...#. . . .E @.@.@...@.E E E E ! _ ..@.@._ _ m E F F +.@.@.+..._ _ ! @.@.@.F F o.n Q.o.F +.f.f.+.@.-  . .- f.i+t+l+m+h+s+0+p+4+( `  . . . .G+G+G+",
"` ` ( 5 0 8 u+z+#.G+..F | f F f.o.Q.(.(.k K.!+K.A.t.t.A.w.J.t.!.x.x.w.(.A.A.:.$.$.!.t.R.t.t.t.A.K.A.t.t.t.t.A.A.t.J.J.(.!+!+Q.(+Q.K.A.t.t.A.!.L $.$.A.A.A.!+t.(.A.!.t.!.e $.q e !.(.t.A.A.A.Q.Q.A.A.$.:.L $.A.!+A.A.Q.o.f.f.f.@.@.f.o.f+l+h+p+y+m+m+m+b+ . . . . . . .",
"` ` | 0 0 8 u+z+..- %+o.a !.R.2.2.W.n.2.:.q.H.W..+I.x.t.J.H.J.x.x.H.H.H.J.H.b.].n.u.y.I.R.H.H.H.H.x.H.H.H.n.n.H.I.=+R.x.R.W.R.H.H.H.H.R.H..+W.N H.H.(.(.x.q :.H.g.n.M M J J J J J M n._.g.g.N H.!.(.H.g.N N W.R.C.J.J.t.A.Q.Q.o.f.9+f.@.(+5+o+q+q+m+h+h+n+#. . . . . .",
"G+^ 8 0 0 8 8+z+@+#.f.F K.!.J.x.J.$.H.x.x.J.Q.(.w.x.w.w.J.L x.x.x.x.J.g.H.y.D.e.b.b.m.N.H.W.-+.+.+I.H.H.I.I.y.I.I..+.+y..+u.=+=+++-+=+++n.v.n.n.I.g.N M N n._.g.g.J J M &.G %.r ^.J J I.g._.u._.M M W.W.q.n.u.n..+I.I..+#+R.R.t.K.K.(+@.....8+h+m+o+l+l+s+p+ . . . . .",
"- e 4 0 0 5 b+8+@.#.f.K.(.t.H.].g.g.g.H.H.g.J L x.g.N J '.'.g.H.d._.g.I.y.].b.b.u.y.z.N.=+W..+;+I.H.H.x.W.W.I.=+e.z.W.H..+I.H.W.W..+=+.+=+-+u.|.-+J j j &.|.~.].v.n.o J r p p g o o J v.].~.b.].j j o y.|.|.y.y..+=+q.W.W.H.H.W.J.t.J.J.K.%+.._ (+l+o+s+s+q+ . . . . .",
"z 0 0 0 0 5 8+u+f.#.o.!._._.v.].].d.y.y.n.R t a.I.d.'.I D d.g.g.u.a._.I.y.-+N.n.n.N.k.T.~+~+=+u.v..+y.W.J.I.I.e.m.u..+W..+.+W.I.I.I..+I..+z.%.D b.R v *.~.D G ).w {.&.r A A I R A u /.V =.G A '.V *.A ].A D b.n.W.y.I.I.I.W..+y.W..+I.y.I.t.f.@+` - t+y+d+h+ . . . . .",
"5 0 0 0 0 8 8+(+@.@+z A.:.G 1.u.n.y.u.].N.N.R d.d.%.I G ~.b.~.g.g.g.I.I.y.N.1.k.h.B.8.p.k.Z.k.O.n.u.k.u.R.W.y.u.++N.=+-+N.N.-+v.u.G %.|.].1.I I ~.G r.^+|.1.e.{.8.*.S v t A ~.p p =.F.P h.e.).].S.S.G u A g A e.n.%.G v.N.++-+N.-+-+N.v.=+H.t.o.f.! 6+k+}+s+ . .`  .G+",
"0 0 0 0 0 8 u+u+f.@.K.A.W.e.e.v.n.d.u.y.W.a.R R d.1.p ~.S.N.y._.g.I.g.I.++D.*.c.c.P.F.c.8.$+X.T.++u.O.S.=+-+;+++.+W..+W.R.R..+=+++{.D.|.v.w p V ).p g r V M.s.D.`.X.*+V b G ~.h O F.P.F.s.*+M.8.%.A g w G p g r.^.b.{.v.-+.+H.R.W.W.I.H..+=+H.J.!+f.t+y+y+q+G+ .Y Z G+",
"0 0 9 9 0 8 8+u+9+f.t.W.S.N.y.I._.g.y.y.n.T I H '.T V O..+W.H.g.W.x.g.n.r.F.i.j.j.j.j.4.4.j.M.P.P.c.p.D.`.Y.$+F.`.++N.u.-+n..+q.D.D.e.r._+=.P *.c.O O *.p.T.D.E.9.E.E.8.c.).G 0.P c.c.c.F.Y.T.B.V v p ).D.w G .+^.r.D.D.++I.=+y.u.N.=+n.S.;+I.W.R.A.4+k+y+q+G+ .y Y  .",
"^.&.^.M q $.z+w+a+f.$.++D.I.I.'.D R a.%.e.v G t t e.S.S.I..+I.W.H.g.I.++s.0.[.G.G.>.>.>.G.G.G.[.4.i.M.$+0.4.j.4.F.k.S.N.z.u.++N.++N.;+r.Y.P.M.j.j.K *.k.D.s.*.c.M.j.j.P *.*.c.0.i.[.;.j.M.*.S |.v.z.I ).%.D.D.++-+++;+++++-+n.z.v.++N.v.S.;+++N.H.C.|+k+k+q+G+ .y Y G+",
"q+d+d+c+{+w+j+o+)+f.A.W.y..+N.I t A '.I S.k.n.%.y.I.z.b.n.W.d.g.W.R R s.0.j.G.5.}.}.}.Q }.}.}.>.G.j.4.j.;.G.;.;.j.P.`.D.N.n..+W.;+v.++E.c.4.[.G.;.;.j.0.h.F.P j.[.;.G.[.j.4.4.j.[.G.G.[.j.0.9.r./.~.%.v.].|..+N.S.=+++;+.+.+=+u.D.S.O.e.O.=+q.z.=+C.4+k+k+s+G+ .Z ` G+",
"q+m+p+|+{+z+h+p+z+f.(.N |.|.b.g t t t I z.S.u.b.D y.N.k.y..+N.y..+H %.F.4.G.' ; ; ; ; ; ; ; ; ; ~ G.;.>.5.' ' 4.;.i.*+O.S.y.=+-+;+v.`.P.j.>.>.' ' ] [.j.F.s M.[.] ' ' ~ >.G.G.G.>.>.] ) <.] -.v.{.u ].&.G |.j {.S.N.++;+++=+-+v.e.;+T.T.e.-+v.O.O.t.5+k+q+m+G+G+ .G+G+",
"0+d+^+4+6+u+j+h+z+F q N N |.%.t t t I 1.O.;+N.e.b %.N.v.y.y.u.y.=+a.e.0.[.>.& & & & & & & & & & & ] >.5.Q & & 4.>.j.$+`.r.=+;+S.;+s.F.j.G.}.s & & & [.[.0.0.4.;.>.) & & j.}.}.}.}.~ & & s < =.r.&.w G v.%.&.&.D.`.r.S.;+;+;+-+v.D.S.S.`.O.D.k.;+++A.5+q+s+m+G+G+G+G+G+",
"q+q+p+|+w+z+h+m+2+f.a L N |.v.1.%.e.m.S.N.S.N.u.a.u.z.e.a.y.a.y.I.e.E.M.G.}.& & ~ >.>.>.>.>.>.= & ; }.}.3.& & 4.5.[.P.r.n.n.++T.k.$+0.;.5.5.& & > & = G.j.4.j.;.5.}.) & & ;.Q Q j.& & < [.< -.&.^.r G e.%.w G s.`.r.D.{.O.;+++n.^.O.O.r.;+e.B.B.++R.4+q+s+m+G+G+G+G+G+",
"0+r+d+|+3+u+h+n+(+@.k L :.n.N.k.k.b.O.z.n.v.z.S.I ~.z.1.a.y.u.n.u.N.Y.4.>.Q & & [.3.3.3.3.3.3.> & ; }.Q 3.& & j.}.G.i.8.r.v.D.Z.9.F.j.>.Q > & ~ Q & & < G.j.j.[.>.}.Q = & , }.;.& & 4.>.j.0.-.&.n.^.r.e.].].h.k.S.S.D.k.Z.`.S.S.h.p.8.s.s.`.-+;+++$.4+s+m+p+G+G+G+G+G+",
"d+r+0+o+)+u+n+^+#+..n $.$.^.D.e.e.T.T.S.n.-+N.S.k.z.m.'._.u.u.y.N.1.*.[.5.3.& & < 5.>.>.>.>.G.= & ' 5.Q 3.& & [.3.5.;.c.B.T.S.`.h.c.;.}.G.& , Q 3.~ & , >.G.[.[.G.5.Q 5., & , , & < 5.;.4.F.S &.e.s.{.{.{.r.r.D.e.D.u.b.r.S.S.T.9.O K ;.>.4.}+M.T.:.5+s+m+o+G+G+G+G+G+",
"m+d+q+p+3+u+l+p+)+@+F A.{+^.n.v.z.z.z.z.z.v.z.G ].n.1.t ~.N.m.I.n.k.P.[.}.3.& & & & & & & & & & & ,.}.Q 3.& & j.Q >.[.9.).s.`.*+*.j.>.Q = & j.3.3.Q & & ~ 5.G.[.;.>.}.Q }., & & ~ Q >.[.c.Y.^.].N.v.=.9.`.`.e.1.B.8.e.1.T.;+S.e.|.).6.7.h.F.0.,+P.L.|+m+m+o+G+G+G+G+G+",
"q+d+p+p+3+a+h+h+u+@+F Q.J.q.:.I.z.N.T.T O.B.S.T e.N.O.).v.v.~.n.v.B.P.[.}.3.& & = > > ; ; ; ' ' ,.[.>.}.3.& & j.Q 5.[.K x M.P.M.K ;.}.4.& & G.>.>.>.] & & 5.}.>.;.G.5.Q 3.j.& & 3.}.>.K c.).r /.&.&.{.9.).*+s.h.`.X.{.).V T.E.T T 1.p.T G ~.u.N.r.2.4+p+p+h+G+G+G+G+G+",
"q+^+|+{+6+)+h+h+8+%+o.A.J.J.:.u.N.N.O.k.u.O.S.B.Z.z.O.e.n.b.%.n.N.T.F.[.5.3.& & j.3.3.Q 5.>.G.[.7+7+[.5.Q & & j.3.}.5.;.>.;.K K ;.>.5., & & & & & & & & & > Q 5.G.i G.5.Q j.& & Q >.i x h.G A G /.{./.r.).F.*.s.D.O.V p v V p U I p.6.6.O O 8.9.{.R.x+o+o+j+G+G+G+G+G+",
"r+d+c+)+|+{+l+l+8+f.K.K.n F C.u.e.S.O.N.-+u.N.N.S.O.z.u.v.~.p b.S.e.F.j.5.Q & & j.3.Q 5.[.4.M.M.0.0.[.5.Q & & j.3.Q Q 5.5.l i ;.i l ~ & , > ; ; ; ; > ) & & ;.5.>.i [.G.5.4.& & }.G.[.h D.%.p T G r u &.s.s.*.k.++D.h p v p / U ).U U W W =.O 0.c.M 1+o+p+h+G+G+G+ .G+",
"0++ + <.<.)+j+o+w+f.t.k a 5 Q.C.v.S.u.S.O.D.N.N.z.N.%.k.v.A / G `.T.8.4.G.}.& & j.Q 5.G.j.0.P c.O c.[.G.}.& & & & & & & & & & s G.G.& & [.Q }.5.5.Q 3.Q = & = }.>.i [.;.5.4.& & 5.;.K v ~.w ).V v g b w =.S 8.x 9.E.*.V *.b c 6.U 6 O O x *.0.P E.q.4+p+m+h+ . . .G+ .",
"0+j.7+<.<.6+j+p+6+F :.L M H $.J.z.S.N.O.T.O.e.T p.T p s.N.T b *.s.e.7.M.[.>.& & 4.}.>.[.}+P.v p.X.*+0.[.G.& & & & & & & & & & s G.) & ; Q }.>.5.l l Q Q j.& & < >.i ;.;.>.< & & >.;.K b w =././.A / c / 6 0.*.3 O F.E.0.F.O U U 6.U 6.E.s 9.E.s.{.2.1+p+p+l+Y Z  .`  .",
"7+] ' ]+)+8+g+j+8+f N o u ).I v.N.z.O.O.S.D.p.c M.c b e.k.K i [.E.8.c.c.j.G.Q Q }.>.G.4.0.0.v B.B.`.*+4.[.>.5.}.}.Q Q Q }.5.G.j.j.[.G.5.>.>.[.[.6 l Q l >.5.5.G.>.i [.[.;.>.5.>.G.[.x / G s.).D.T i i / *.$+*.*.8.E.`.D.`.X.c.O W *.*+E.=.V $+*+h.#+f+o+o+j+Z Z  .`  .",
"3+{+6+8+f.%+n+j+Q.B = u V c.x B.u.z.Z.T.`.`.8.W ,+6.b e.0.G.[.F.E.4.5.G.i.[.5.5.>.;.j.P.$+0.*.D.E.$+s.E.0.[.G.>.>.5.>.5.>.;.j.j.i.4.j.;.[.[.[.P x i l i [.>.G.[.[.i 6 K K ;.>.;.[.[.6 b s.w x 9.O 6 6 U s O h X.7.k.*+*+P.*+h.W O F.9.Y.9.F.F.`.r.:.1+o+h+j+Z Z ` `  .",
"e e e a | $.h+h+z+%+:.q.u P.c.Z.R b.z.m.b.Z.X.i.j.U c e.=+R.++*+D.v.r.$+i.;.;.G.[.[.i.$+X.E.E.Y.$+d+`.h.E.0.4.j.[.[.j.;.[.0.M.j.j.0.M.j.j.j.6 x x 3 K x K [.[.[.6 6 O P K ;.;.;.K P / c W h P *.*.x x x O K K 0.c.E.h.0.K F.`.s.O *+`.Y.h.h.E.r.v.2.6+l+h+h+Y Z ` `  .",
"9 8 8 9 9 9 o+h+u+&+A.C.) 0.O ^.D A T.6.T D.7.O ,+7.W e.u.I.H.-+y.y.y.;+X.i.[.4.M.i.c.*+X.,+*+`.*+m+^+9.E.*.K O M.P.M.c.i.K 0.K x $+$+0.K x 3 K 3 3 3 x P c.0.M.b / *.$+3 6 6 6 0.F.t b *.F.V F.O 3 3 3 K 3 O i.c.s.`.W K 0.0.0.*+E.`.*+V V V h.D.{+i+o+l+l+Z Z ` `  .",
"8 8 8 8 8 9 p+p+8+B A.k ' 0.8.q.D t T.X.s.X.O x X.c.7.T.T.T.-+I.T.B.p.Z.T.,+[.[.M.3 O 7.7.P.P.^+`.$+$+c.*.*.O O E.E.E.*+E.`.k.=.c.0.P.9.*.x 3 6 3 P c.x K 4.0.=.b / *.9.c c x 6 W F.b b G 8.i.K x c.P x 6 3 x P h.8.P.0.9.).s.k.*+h.*+Y.V O 8.W {.3+w+o+o+l+Z Z ` `  .",
"8 8 8 9 8 8 _+o+e+f a q -.c.r.++b c k.s.^.r.G ).8.Z.X.z.;+T.v.N.O.p.T.Z.c.j.0.P.c.6 x 7.8.8.M.x c.$+*+7.O c.O *.h.$+^+Y.h.=.*.h.s.9.P -.=.P c 3 x P W W P E.r.Y./ / 8.T c c b 6 b V h / =.r.-.0.W 8.0.x 3 c O 9.{.*.*.s.s.8.w h.*+^+Z.h.9.K c.O ).C.w+l+l+j+Z `  . . .",
"8 8 8 8 8 8 #+j+b+f q N s.c.N.q.A v P.O.R.I.D '.s.k.T.m.m.X.X.X.B.j.>.i.j.G.G.;.O 3 6.7.8.M.c.K O X.^+p.T U K O 1.*+;+Z.E.W 0.9.-./.s.w P O 6 x *.O O W v.{.{.h.O b 7.w / / b / h V p b V /.=.r.V W O h P 6 x W v {.{./.9.c.0.*+Z.^+`.1.O K K 8.e.C.z+x+t+f+ . . . .G+",
"8 8 8 8 8 8 #+t+a+n :.M /.s.^.2.~.d.~.~.R._.D m.b.).s.7.B.T.9.;.}.M.c.E.E.D.F.[.i c c K U K M.$+i.i.M.O.B.8.c.x ).E.^+Z.F.P.$+P.$+Y.=.h *.O 3 x W T W 9.Y.$+s.=.b / V g b b b b p w b / V `.9.*+k.*.7.7.x K O *.v w Y.E.F.F.$+F.X.`.E.).O i.8.B.N.{+{+i+x+w+G+G+G+G+G+",
"8 8 8 8 8 8 C.x+a+f.$.<.q.#+t.A.H.W._.|.:.H.v.b.R I B.p.1.N.D.;+;+y.g.H.u.N.++Z.;.l i i ;.K i.P.i.,+,+^+O.B.X.i.p E.h.`.$+F.Y.Y./.0.M.h h O x P 6.p v *.E.s.r.=.p h V p / p g b b V v h w r.`.E.8.h v 6.0.x O W h c.i.-.`.Y.E.F.P.P.F.O K i.8.p.=+#+C.i+w+2+G+G+G+G+G+",
"8 8 8 8 8 8 C.i+9+%+A.R.:.A.o.Q.J.g.H.W.R.|.A y.R c 1.8.8.e.O.~.y.O.X.s.S.k.P j.;.>.;.;.l K ,+~ *.$+$+`.$+$+X.O w /.h.s.W h S =.x *.O K c / O V w v h h h./.G 8.g W 8.h / p g / / V *.g V ).{.{.v h h w w W c 6 6 3 P x W E.*.K U O 8.O K M.M.i.r.#+{+i+x+i+G+G+G+G+G+",
"8 8 8 8 8 8 C.z+9+f.B n o.F Q.A.$.x.(.x.W.~.R x.H.V e.k.S.S.*.W p.p.P 0.$+P.K >.G.i.M.M.O K M.~ /.++^+L.F.^+#+L./.^.^.^.r w S /.w u &.h b g u ^.j b 3 b g {.G *+w ).E.s g A G g v c.V g *+k.~.G p O 3 g G v c 6 i x 3 6 O c.3 c W U U i.M.Z.0.j.L.#+1+i+x+g+G+G+G+G+G+",
"8 8 8 8 8 8 {+x+9+@.B o.+.n t.!.L L t.J.W.J R _.x.g.n.y.g.x.h.>.}.[.;.>.[.i.*.*.h.{.^.L.j L.r.-.#+A.t.#+{+t.K.C.:.2.M 2.#+) L.<.2.:.2.M d d M N j g *.h w S /.^.r.^.L.S r A A j ) r.^./.r.&.-.w h s h b p O c 6 c U U O 8.Y.s =.*+W W X.X.S.k.++#+A.{+o+l+g+G+G+G+G+G+",
"8 8 8 8 8 8 #+g+e+- F Q.n F F F t.K.(.C.C.!.q !.Q.(.R.R.L !.R.Y.*+s.8.P [.;.[.[.[.3 P S <.$.R.{+n f.o.Q.%+f.o.o.o.B C.C.!+{+3+C.C.R.q q , , $.$.q 2.2.M <.]+q.:.:.2.#+#+d j d q k C.:.2.2.M 2.2.2.q.) S r u w w u u &.D.L.]+<.]+++r u q.#+:.H.t.Q.o.1+m+p+h+G+G+G+G+G+",
"8 8 8 8 8 8 C.x+i+e+[+@+@.f.%+@.@.@.f.o.@.@+@+..#.@.@.@+E ..#.` ` l.o.o.)+#+)+, )+$ &+@+G+- - ..#. .#.#.-  .G+G+- ..f.%+! @+@+@+%+n f n F F F F %+%+f.F k A.n @.@.@.f.&+k k n f f.%+%+f.F B B &+n B n &+n k k a k f n n &+o.&+f.f.n n @.l.....- G+- 1+p+o+h+`  . . .G+",
"8 8 8 8 8 5 f+w+g+j+z+e+8+8+8+8+e+b+8+e+u+8+z+w+8+e+b+a+a+a+9+a+b+b+9+[+[+<+[+<+[+C+[+9+a+a+a+9+@+@+[+@+@+#.#.@+ .9+@+[+[+G+G+9+a+@+e+9+9+@+C+9+@+@+[+@+9+9+9+9+9+9+a+9+9+a+a+a+b+e+e+e+e+e+8+e+8+8+z+w+u+u+e+e+e+b+b+b+b+b+b+e+b+b+e+u+w+x+x+x+z+i+l+o+o+o+m Z `  . .",
"8 8 8 8 8 N ]+f+t+j+x+w+u+u+w+i+w+i+x+i+t+v+g+t+t+i+w+u+u+u+8+u+i+f+w+u+a+e+2+e+8+u+z+i+z+z+2+e+a+a+a+9+9+9+a+8+@+e+a+%+@+G+@+w+u+e+w+e+8+b+e+e+b+a+9+b+8+8+8+u+u+u+8+u+z+z+w+w+w+i+i+x+x+x+i+i+i+i+x+t+t+v+f+x+x+x+x+x+x+f+f+g+v+n+j+j+l+o+h+o+h+p+p+p+p+o+` ` `  . .",
"8 8 8 8 8 ^+c+|+f+z+z+i+w+f+f+f+j+f+i+f+t+n+g+p+q+u+i+z+g+x+u+x+n+t+f+i+u+z+i+i+i+i+x+i+z+2+8+a+b+%+9+9+9+9+a+a+a+a+a+a+@+F+e+u+a+b+u+e+e+e+b+a+a+a+e+8+e+8+e+e+e+e+8+u+8+u+u+2+u+u+z+w+i+x+w+z+w+w+z+w+w+w+i+x+g+f+f+i+x+v+x+v+v+t+t+j+h+o+l+o+h+p+m+o+o+h+ . . . . .",
"8 8 8 8 J r+d+o+4+z+u+t+x+v+n+g+n+v+v+j+p+o+l+p+n+j+n+i+n+f+i+x+f+x+v+e+i+v+v+i+i+i+i+i+z+2+e+w+x+a+b+a+a+b+%+9+a+%+9+%+a+a+b+b+b+8+a+b+a+a+a+9+9+a+8+8+b+e+e+b+a+b+e+e+b+e+8+8+8+8+8+u+z+w+z+u+2+u+u+z+u+u+w+w+f+x+f+w+i+w+i+f+t+t+v+v+n+j+h+h+j+l+h+h+h+n+m Z ` `  .",
"e L L 8 M d+d+m+3+8+@+G+ . .<+<+- ` #.#.[+[+l.....l.E m E m ` `  .#.#. .` ` `  . .` ` `  . . . ._ 7 ( 7 7 y m y y y y m _ y : ^ [ 7 Z ` G+ . . . . . . . . . .G+G+G+ .` m  .G+G+ . .m 7 y  .G+ . .G+G+E+G+ . .E+ . .E+ . .E+ . .<+#.m `  .<+#.#.#...E +.+.7 C y y Z  .",
"c+4+w+_+p+c+1+6+8+#.G+G+G+G+G+G+G+G+G+G+G+G+` `  .` ` ` ` ` ` ` ` Z y m ` `  .G+G+G+G+ . .G+G+G+` 7 [ y y y m m y y ` ` ` ` ( ( 7 Y  .G+G+G+ . . . .G+G+G+G+ . .G+G+G+ .G+G+G+G+G+ . .Z  .G+G+G+G+G+G+G+G+G+ . . . .G+G+G+G+G+G+G+ . .G+G+G+G+ . .` ` m m Z m m ` `  .",
"3+z+&+3+n+B } G+- G+G+G+G+G+G+G+G+G+G+G+G+G+ . .G+ . . . .Z m m y y C C y `  .G+G+G+G+G+ .G+G+G+` [ ^ y m m m { 7 y `  .G+G+m C X `  . . . . . .G+G+G+G+G+G+`  .G+G+G+G+G+G+G+G+ . . . .G+G+ .G+G+G+ .G+G+G+Z y y `  .` G+G+G+G+ . .G+G+G+G+ . .`  . .` m ` `  . . . .",
"k k f C.e e ( G+G+G+G+ .`  . .G+G+G+G+G+G+G+ .G+G+ . . . .` ` ` ` Z ` ` `  .G+ .G+G+G+G+ .G+G+G+` ( ( y m m { ( 7 y Y ` G+G+ .Z  . .` `  .`  .G+G+G+G+G+G+G+`  .G+G+G+G+G+G+G+ . .G+G+ .G+G+G+ .G+G+G+ . .` y C C `  .`  .G+G+ .G+G+G+G+G+G+ . .` ` ` ` ` `  . . .G+G+",
"8 8 8 8 9 e `  . .G+ .Y Y Z  . . .G+G+G+G+G+G+G+G+ . . . . . . . .G+G+G+G+G+G+G+G+G+G+G+G+G+G+G+` 7 ( m ` m 7 7 y `  . .G+G+G+ .G+G+ .m `  . .G+G+G+G+G+G+ .`  .G+G+G+G+G+G+G+G+G+G+G+G+G+G+G+G+G+G+G+G+G+G+Z m Z  .G+ .G+G+G+G+G+G+G+G+G+G+ . . .` ` `  .G+G+G+G+G+G+",
"8 8 8 8 8 : G+ .`  .` Y X ` G+` ` G+G+G+G+G+G+G+G+ . . . .`  . .G+G+G+G+G+G+G+G+G+G+G+G+G+G+G+G+ .7 ( m y y y m  .G+G+G+G+G+G+G+G+G+G+ .`  . . .G+G+G+G+G+ . .G+G+G+G+G+G+G+G+G+G+G+G+G+G+G+G+G+G+G+G+G+G+G+G+G+G+G+G+G+G+G+G+G+G+G+G+G+G+ . . . .` _ ` G+G+G+G+G+G+G+",
"8 8 8 8 5 ! G+ . . .Z ` `  .G+G+ .G+G+G+G+G+G+G+G+ . . . .` `  .G+G+G+G+G+G+G+G+G+G+G+G+G+G+G+G+ .C 7 m y y ` G+G+G+G+G+G+G+G+G+G+G+G+G+G+ . . . .G+G+G+G+G+ .G+G+G+G+G+G+G+G+G+G+G+G+G+G+G+G+G+G+G+G+G+G+G+G+G+G+G+G+G+G+G+G+G+G+G+G+G+G+ . .` ` _ _ ` G+G+G+G+G+G+G+"};
