/* XPM */
static const char * fs2_btn_pxo_hover_xpm[] = {
"114 113 256 2",
"  	c #322F30",
". 	c #2D2B2C",
"+ 	c #030103",
"@ 	c #050305",
"# 	c #353335",
"$ 	c #2E2D2E",
"% 	c #3E3D3E",
"& 	c #3A393A",
"* 	c #373637",
"= 	c #555455",
"- 	c #484353",
"; 	c #59585C",
"> 	c #383647",
", 	c #3D3B53",
"' 	c #776FFF",
") 	c #7B71FF",
"! 	c #7971FF",
"~ 	c #7D73FF",
"{ 	c #7B73FF",
"] 	c #7D75FF",
"^ 	c #605BB6",
"/ 	c #575394",
"( 	c #4D4A7B",
"_ 	c #434069",
": 	c #4B4963",
"< 	c #7771FF",
"[ 	c #7770FC",
"} 	c #756FFB",
"| 	c #756EF9",
"1 	c #736DF4",
"2 	c #7973FF",
"3 	c #716BEC",
"4 	c #7B75FF",
"5 	c #6D67DE",
"6 	c #6762CD",
"7 	c #010103",
"8 	c #030305",
"9 	c #0D0D10",
"0 	c #09090B",
"a 	c #323236",
"b 	c #424246",
"c 	c #48484C",
"d 	c #3F3F42",
"e 	c #373739",
"f 	c #D4D4D5",
"g 	c #A3A3A4",
"h 	c #34353B",
"i 	c #333438",
"j 	c #2C2D30",
"k 	c #2E2F32",
"l 	c #3A3B3E",
"m 	c #454649",
"n 	c #4B4C4F",
"o 	c #36383D",
"p 	c #3B3D42",
"q 	c #151618",
"r 	c #262729",
"s 	c #2A2B2D",
"t 	c #0E1013",
"u 	c #030507",
"v 	c #070809",
"w 	c #4F5051",
"x 	c #24292D",
"y 	c #181A1B",
"z 	c #222425",
"A 	c #0F1B1D",
"B 	c #011B1D",
"C 	c #011719",
"D 	c #102729",
"E 	c #213B3D",
"F 	c #1B2526",
"G 	c #012325",
"H 	c #08282A",
"I 	c #0D3234",
"J 	c #164D50",
"K 	c #1B4345",
"L 	c #112122",
"M 	c #016366",
"N 	c #015E61",
"O 	c #014749",
"P 	c #013739",
"Q 	c #01292A",
"R 	c #035659",
"S 	c #0C3B3D",
"T 	c #11393A",
"U 	c #0E2324",
"V 	c #016B6C",
"W 	c #016769",
"X 	c #015354",
"Y 	c #014041",
"Z 	c #027172",
"` 	c #025B5C",
" .	c #037F80",
"..	c #0B4748",
"+.	c #1A5556",
"@.	c #01B1AD",
"#.	c #016361",
"$.	c #015958",
"%.	c #015050",
"&.	c #014C4C",
"*.	c #014443",
"=.	c #03908F",
"-.	c #013333",
";.	c #012E2D",
">.	c #012222",
",.	c #011E1E",
"'.	c #011A1A",
").	c #057676",
"!.	c #011616",
"~.	c #011313",
"{.	c #066866",
"].	c #066462",
"^.	c #011111",
"/.	c #010E0E",
"(.	c #095D5D",
"_.	c #010A0A",
":.	c #0A5353",
"<.	c #0A4A4A",
"[.	c #010707",
"}.	c #0A4443",
"|.	c #010505",
"1.	c #0F2E2E",
"2.	c #010303",
"3.	c #030505",
"4.	c #293C3C",
"5.	c #014A47",
"6.	c #013D3B",
"7.	c #01312F",
"8.	c #012625",
"9.	c #09746F",
"0.	c #0A6E6A",
"a.	c #1B3130",
"b.	c #0A7D77",
"c.	c #013935",
"d.	c #012522",
"e.	c #012A26",
"f.	c #0A645B",
"g.	c #0B6B62",
"h.	c #01221E",
"i.	c #011E1A",
"j.	c #011A16",
"k.	c #0B5D51",
"l.	c #0B5549",
"m.	c #011612",
"n.	c #0B4E41",
"o.	c #071A16",
"p.	c #0B4739",
"q.	c #051F18",
"r.	c #0B3F31",
"s.	c #010E0A",
"t.	c #083124",
"u.	c #010A07",
"v.	c #010705",
"w.	c #01120C",
"x.	c #0B3828",
"y.	c #09261B",
"z.	c #051911",
"A.	c #092A1A",
"B.	c #0E3321",
"C.	c #021009",
"D.	c #010503",
"E.	c #333534",
"F.	c #072314",
"G.	c #0C2E1C",
"H.	c #092014",
"I.	c #010A05",
"J.	c #05130B",
"K.	c #0A2716",
"L.	c #010E06",
"M.	c #0A2414",
"N.	c #06170C",
"O.	c #010703",
"P.	c #0D2D18",
"Q.	c #0D2B17",
"R.	c #092110",
"S.	c #010903",
"T.	c #071F0D",
"U.	c #091F0E",
"V.	c #010B03",
"W.	c #051006",
"X.	c #020E03",
"Y.	c #010B01",
"Z.	c #010901",
"`.	c #010701",
" +	c #010501",
".+	c #010301",
"++	c #030703",
"@+	c #070907",
"#+	c #363936",
"$+	c #202120",
"%+	c #2A2E29",
"&+	c #3A3D39",
"*+	c #030501",
"=+	c #31322E",
"-+	c #333E0F",
";+	c #191A12",
">+	c #282C02",
",+	c #4F5504",
"'+	c #161603",
")+	c #030301",
"!+	c #0A0A09",
"~+	c #272724",
"{+	c #141413",
"]+	c #433D02",
"^+	c #2F2E2A",
"/+	c #060503",
"(+	c #2D2A25",
"_+	c #5B503F",
":+	c #383633",
"<+	c #2F2214",
"[+	c #1F1B17",
"}+	c #090807",
"|+	c #221F1C",
"1+	c #252321",
"2+	c #474645",
"3+	c #6F3402",
"4+	c #68584A",
"5+	c #2A241F",
"6+	c #463C35",
"7+	c #39322D",
"8+	c #6E6864",
"9+	c #3E3B39",
"0+	c #312721",
"a+	c #342B26",
"b+	c #352E2A",
"c+	c #3E3632",
"d+	c #4A423E",
"e+	c #58504C",
"f+	c #443E3B",
"g+	c #827E7C",
"h+	c #3F322C",
"i+	c #403936",
"j+	c #4E4947",
"k+	c #13100F",
"l+	c #390E04",
"m+	c #1C1412",
"n+	c #3C2925",
"o+	c #2F2A29",
"p+	c #200402",
"q+	c #720A06",
"r+	c #530705",
"s+	c #140101",
"t+	c #5D1919",
"u+	c #030101",
"v+	c #4A1B1B",
"w+	c #050303",
"x+	c #0E0C0C",
"y+	c #363232",
"z+	c #2A2727",
"A+	c #434242",
"B+	c #323232",
"C+	c #2A2A2A",
"D+	c #1C1C1C",
"E+	c #060606",
"F+	c #030303",
"G+	c #010101",
"G+G+G+G+G+G+G+G+G+G+.+.+.+`.Z.Z.`.G+G+ +S.`.D.|.u.u._._././.^.^.^./././._.[.[.|.|.O.`. + +`. +.+.+.+G+G+G+G+G+G+G+G+G+G+Z.S. +G+I.N.H.H.z.H.Q.Q.Q.Q.Q.Q.Q.Q.Q.Q.Q.Q.Q.Q.Q.Q.Q.Q.Q.Q.Q.Q.N.G+.+.+G+G+G+G+G+.+.+.+.+O.S.S. +G+G+`.Z.`.",
"G+G+G+G+G+G+G+G+G+G+G+.+.+`.S.S. +G+G+ +V.Z.v.v.u._.s././.^.~.~.~.~.^././._.u.[.v.S.Z.`.`.`.`. +.+.+G+G+G+G+G+G+G+G+.+G+O.V.`..+ + +C.z.H.H.M.Q.Q.Q.Q.Q.Q.Q.Q.Q.Q.Q.Q.Q.Q.Q.Q.Q.Q.Q.P.M.2.G+ + +G+G+G+G+G+G+ + + +S.V.V. +G+G+`.S.`.",
"G+G+G+G+G+G+G+G+G+G+G+.+.+`.S.S.`.G+G+ +S.S.S.u.s././.^.~.~.!.=+y+~.~.^./._._.[.v.S.Z.`.`.`.`. + + +.+G+G+G+G+G+G+G+G+G+`.V.`..+`. +.+C.M.H.H.H.M.Q.Q.Q.Q.Q.Q.Q.Q.Q.Q.Q.Q.Q.Q.Q.Q.Q.Q.J.G+.+ +.+G+G+G+G+G+G+ + + +S.S.S.`.G+G+`.Z.Z.",
"G+G+G+G+G+G+G+G+G+G+.+.+G+Z.S.S.`.G+G+`.S.V.I.u.s.w.^.m.j.j.A 8+8+r !.^././._.[.I.O.`.`.`. + + + + +.+G+G+G+G+G+G+G+G+G+Z.V.`..+ +.+ +U.Q.K.H.H.H.M.K.Q.Q.Q.Q.Q.Q.Q.Q.Q.Q.Q.Q.Q.Q.P.R.2.G+.+ +.+G+G+G+G+G+G+ + +.+S.S.S.`.G+G+`.S.Z.",
"G+G+G+G+G+G+G+G+G+G+.+ +.+`.Z.S.`.G+G+ +S.I.u._.w.^.~.m.i.i.o.c+8+s !.^.^./._.[.I.S.Z.`.`.`.`.`. + +.+G+G+G+ +.+G+G+G+G+O.S. +.+.+.+W.Q.Q.Q.Q.M.H.H.H.M.Q.Q.Q.Q.Q.Q.Q.Q.Q.Q.Q.Q.Q.Q.C.G+G+.+Z.`.G+G+G+G+G+G+.+.+.+Z.Z.Z.`.G+G+`.Y.Z.",
"G+G+G+G+G+G+G+G+G+G+ + +G+ +Z.Z.`.G+G+ +O.I.u.s.w.~.m.j.i.i.C C+F C !.~.^./._.[.S.S.Z.Z.Z.Z.`.`. + +.+G+G+ +Z. +G+G+G+G+Z.V. +G+G+O.M.Q.Q.Q.Q.Q.K.H.H.H.H.K.Q.Q.Q.Q.Q.Q.Q.Q.Q.Q.Q.R. +G+G+.+Z.Z.G+G+G+G+G+G+.+.+G+`.Z.Z. +G+G+`.Z.Z.",
"G+G+.+G+G+G+G+G+G+G+.+ +G+ +Z.Z.`.G+G+ +S.I.s./.^.m.~.!.i.i.A F '.'.!.~././._.[.v.D.`. + + + + + + +.+G+G+ +S.`.G+G+G+G+S.V. +G+G+N.Q.Q.Q.Q.Q.Q.Q.Q.M.H.H.H.M.K.Q.Q.Q.Q.Q.Q.Q.Q.K.W.G+G+G+G+ +`.G+G+G+G+G+G+.+.+.+`.Z.Z. +G+G+`.Z.Z.",
".+.+G+G+G+G+G+G+G+G+G+.+G+ +Z.Z.`.G+G+D.V.s.s./.m.m.!.C i.'.&+B '.j.!.^././._.[.|.D. + +.+ + + + + + +.+.+.+O. +G+.+C.J.S.V. +G+C.K.Q.Q.Q.Q.Q.Q.Q.Q.Q.K.M.H.H.H.M.Q.Q.Q.Q.Q.Q.Q.T..+G+G+G+G+.+.+G+G+G+G+G+G+.+ +.+`.Z.Z. +G+G+ +Z.Z.",
"`..+G+G+G+G+G+G+G+G+G+.+G+ +S.Y.`.G+7 |.L.C.s./.m.!.!.'.i.F &+B '.j.!.^././._.[.|.|.D.2.2.2.D.2.D.D.D.2.|.|.v.|.|.s.F.y.z.L.2.v.M.P.Q.P.Q.Q.Q.Q.Q.Q.Q.Q.Q.K.H.H.H.H.K.Q.Q.Q.Q.M.I.G+G+G+G+.+ +G+G+G+G+G+G+G+.+ + +`.Z.Z..+G+G+`.Z.Z.",
"`..+G+G+G+G+G+G+G+G+G+.+G+ +S.V.`.G+2.|.s.s.w.^.m.j.'.B ,.n A B '.'.!.~.^./._._.[.[.[.[.[.[.[.[.u.u.u.u.u.u.u.u.[._.z.y.y.q.s.H.G.G.G.G.G.G.G.P.G.P.Q.Q.Q.Q.Q.K.H.H.H.M.K.Q.Q.N. +.+G+G+G+.+`..+G+G+G+G+G+G+G+.+.+.+ +.+G+G+G+`.S.Z.",
"Z. +G+G+G+G+G+G+G+G+.+ +.+ +S.S. +2.|.u.s.s.^.~.j.'.'.B F #+,.,.,.'.'.!.~.^./././././././././././.^.^./.^.^.^.^.^.^.^.q.t.t.y.B.B.B.B.B.B.B.G.B.G.G.G.G.G.G.P.P.Q.M.H.H.H.K.R.D..+.+G+G+G+G+ +.+G+G+G+G+G+G+G+G+G+G+G+G+G+G+G+`.S.Z.",
"Z. +G+G+G+G+G+G+G+G+G+ + + +.+.+2.|.|.u.s.w.~.!.i.i.,.,.w U >.>.h.,.,.'.C !.!.!.~.~.~.!.!.!.!.!.C C C '.'.'.'.'.'.'.C '.h.t.t.x.x.x.x.x.x.x.x.x.B.B.B.B.B.G.G.G.G.G.A.M.H.M.z.v.G+G+G+G+G+G+ +.+G+G+G+G+.+G+G+G+G+G+G+G+G+G+G+ +Z.`.",
"Z. +G+G+G+G+G+G+G+G+G+.+.+G+G+7 |.|.[.s.w.m.!.'.,.h.>.D ; G 8.8.8.d.>.>.,.,.,.,.B ,.,.,.,.>.>.>.>.>.>.G G G G G G G G G d.r.r.r.r.r.r.r.r.r.r.r.x.x.x.x.x.x.x.B.B.G.G.G.A.y.y.H.J.2.G+G+G+G+.+.+G+G+G+G+G+G+G+G+.+G+G+G+G+G+G+G+ +`.",
"Z. +G+G+G+G+G+G+G+G+.+.+G+2.2.|.[.[._.^.j.j.i.,.>.8.8.j+D Q Q Q Q Q Q Q Q Q Q Q Q Q Q Q ;.;.;.;.7.7.7.7.7.7.7.-.7.7.7.7.6.n.n.}.}.p.n.p.p.p.p.p.p.p.r.r.r.r.x.x.x.x.x.B.A.z.o.y.F.o.u.G+G+.+`. +.+G+G+G+G+G+G+G+G+G+G+G+G+G+G+G+G+.+",
" +.+G+G+G+G+G+G+G+.+.+2.2.|.[.[._./.^.!.'.,.d.8.Q ;.a.= -.-.-.-.-.-.-.-.-.-.-.-.P P P P 6.6.6.Y Y Y Y Y Y Y Y Y Y Y Y *.k.k.k.k.l.l.l.l.l.l.l.l.n.n.n.p.p.p.p.r.r.r.x.x.q.^./.z.y.y.F.N.|.G+`.Z. +G+G+G+G+G+G+G+G+G+G+G+G+G+G+G+G+G+",
" +.+G+G+G+G+G+G+G+G+7 |.|.[._./.^.~.C B >.8.;.7.-.;.e+a.6.Y Y Y Y Y Y Y Y *.Y *.*.O O &.&.%.%.%.%.%.%.%.X X X X X %.X f.g.g.g.g.f.f.(.f.f.f.k.k.k.k.k.l.l.l.n.n.p.p.p.x.B !.~.^.m.q.y.y.H.C.D. +.+G+G+G+G+G+G+.+`. + +.+G+G+G+G+G+G+",
".+G+G+G+G+G+.+G+7 2.|.[.u._./.~.!.'.,.G Q ;.-.P P j+E O O O &.&.&.%.%.%.%.X X R $.$.` N N #.#.M M M M M M M M M M M 9.b.b.9.9.9.9.9.9.0.0.0.0.g.g.g.f.f.f.k.k.k.l.l.n.7.G >.B '.m.^.m.y.y.y.J.7 G+G+G+G+G+G+ + +`.S.S.Z..+G+G+G+G+G+",
".+G+G+G+G+.+.+7 2.|.u.s.w.m.j.'.,.8.Q ;.-.6.Y Y &+E.&.X R $.$.` ` N N N M M W W V V V V V N N M M M X X R R R R R R (.(.(.0.9.9.0.0.b.b.).b.b.b.b.b.9.9.0.g.g.f.f.k.5.P -.;.8.>.B !.~.^.j.q.s.|.D.G+G+G+G+G+Z.Z. +`.S. +G+G+G+G+G+G+",
".+G+G+G+G+G+G+2.|.[.s.m.j.i.h.d.Q ;.P 6.Y O &.4.%+X N M M W V V V Z Z Z M R <...T T F F x x x x x x r r r r r z z z z z z z z z F F F F L T T <.:.g.b.b.b.b.b.9.0.f.%.O Y P -.;.8.>.'.!.^.^._.u.v.2.G+G+G+G+ +`..+G+.+G+G+G+G+G+G+G+",
"G+G+G+G+G+G+7 |.[._.w.j.j.h.e.;.-.P Y O %.R K 9+&.V Z Z ).).).M <.}.E 4.a k $ s s C+r ~+1+$+$+$+D+D+D+D+D+D+y y y y y D+D+D+D+D+D+D+D+$+$+$+$+$+$+D+F F I S <.0.b.V N $.%.O Y P -.Q >.B !.^./._.[.|.2.G+G+G+.+.+G+G+G+G+G+G+G+G+G+G+",
"G+G+G+G+G+G+|.[._./.~.j.,.8.7.P Y O %.$.N :.2+I ). . . .W :.E a e e B+C+1+D+q {+k+k+x+x+!+}+}+E+/+3.w+F+F+)+F+F+F+F+F+F+w+/+/+E+}+}+!+x+x+k+{+;+D+D+$+1+1+z $+y U S R M M ` X O Y P ;.8.,.C ^./._.[.|.7 G+G+G+G+G+G+G+G+G+.+G+G+G+ +",
"G+G+G+G+G+7 |.[./.^.!.,.G ;.6.*.&.R N W M w a. .=. .:.E e % B+1+y {+x+!+E+)+G+G+G+G+7 w+/+E+E+}+x+!+k+k+x+x+x+x+x+k+x+x+x+x+0 v v E+E+F+G+G+G+G+G+*+}+x+{+y $+1+z $+y A S R M $.%.*.P 7.Q ,.'.~./._.[.|.7 G+.+G+G+G+.+G+G+G+.+G+.+Z.",
"G+G+G+G+G+2.[._./.!.B 8.;.P *.O O :.(.].+.f+*. .:.s * $ $+{+x+E+u+G+G+G+w+v k+q y y D+~+z+(+~+o+b+b+b+7+a+o+o+o+o+a+a+^+$ . . C+C+$ C+r $+D+D+q x+E+2.G+G+G+u+!+{+$+~+z D+{+}.W N X O 6.-.Q ,.C ~./._.|.2.G+G+G+G+G+G+G+G+G+G+G+G+ +",
"G+G+G+G+2.|.u./.~.'.>.;.P *.X 1.0+d+8+_+; k+0 z k ~+D+k+}++ G+G+}+k+[+$+z+. s . $ r z+C+o+o+o+o+^+^+  b+(+o+C+C+^+a+o+^+$ $ $ $   B+  a B+y+# #   # $ $+D+{+E+G+G++ !+q 1+$+{+U ` M R O 6.-.Q ,.!.^./.[.|.7 G+G+G+G+G+G+G+.+G+G+G+G+",
"G+G+G+G+2.|._.^.!.,.Q -.Y %.X ~+b+4+4+f+^+k+    D+k+}+G+G+w+k+[+(+o+o+$ ^+z+z+C+z+z+o+(+o+^+^+^+b+=+y+b+o+$ . ^+b+a+a+o+^+        k $ j k $ . y+* & & * * a s D+x++ G+G+!+[+1+y A O M R O 6.7.8.B !./._.[.|.G+.+G+G+G+G+G+G+G+G+G+G+",
"G+G+G+G+2.[._.^.'.G ;.6.O $.I 0+c+4+c+m+|+% C+{+!+G+G+/+m+z+y+    (+o+    o+$     7+7+7+c+7+h+c+c+y+i+7+o+o+o+o+^+a+a+o+b+y+9+9+* & & e * a B+# * * & * * % % & # r q w+G++ {+1+|+{+I N R O 6.7.8.'.~./._.v.O.`.Z..+G+G+G+G+G+G+G+G+",
"G+G+G+.+|.u./.!.,.Q -.*.X X 5+0+6+6+7+h+y+%+{+}+G+G+k+(+7+:+y+b+o+o+:+f+f+i+i+i+i+i+c+7+7+b+a+h+7+h+h+b+(+o+a+o+b+b+b+b+7+9+9+% % % A+A+A+m c 2+A+A+% :+y+y+& A+m b % C+9 G+G+x+|+$+{+H M X *.P ;.>.C ^._.u.v.O.O..+G+G+G+.+G+.+G+G+",
"G+G+.+2.|._.^.C >.7.6.&.N <.0+0+0+a+_+_+|+{+!+G+G+m+7+i+i+c+b+b+a+i+j+j+f+c+c+7+b+b+a+0+(+0+0+b+a+a+7+a+(+a+(+o+o+a+b+y+:+=+:+* * 9+% A+A+2+c c c j+2+2+A+% d p & 2+w m p z 7 G+}+|+$+{+*.N %.Y -.Q ,.!./._.|.2..+.+G+G+G+G+G+G+.+G+",
"G+G+.+2.[._.~.'.8.-.Y X M S 5+5+5+c+g+j+[+!++ G+m+7+i+f+9+y+a+7+h+6+d+d+h+n+n+0+(+0+0+5+5+0+0+0+a+0+a+(+0+(+1+1+5+5+5+z+(+(+z+$ o+^+y+* & % m m 2+j+2+2+2+n n m * e m c n d z + G+x+1+D+A N ` &.6.7.G '.~./.[.|.7 G+G+G+G+G+G+G+G+G+",
"G+G+G+2.[./.!.,.Q P *.R M 0+5+5+(+6+8+i+{+)+G+k+  i+f+9+y+^+b+7+c+c+n+7+a+0+n+n+a+0+0+5+0+0+0+(+0+0+0+5+0+5+5+5+5+5+5+5+1+~+1+5+( , 5+C+$ B+e l % d A+A+A+2+c m % y+  l m b b z G+G+k+1+;+S W R O P Q ,.!.^._.[.2..+G+G+G+G+G+G+G+G+",
" + + +2.[./.!.>.Q 6.&.` n+r+[+|+0+0+~+$+}+G+x+o+f+f+i+y+o+b+7+d+6+6+h+n+a+n+n+h+n+0+0+n+a+b+b+b+b+a+o+a+a+o+o+a+(+^+(+(+z+z+1+z+, 6 _ 5+C+$ k B+  # * & 9+% % % & * $ k o b b p q G+w+|+1+k+X N %.Y -.8.B ~./.[.|.2.G+G+G+G+G+G+G+G+",
"Z.S.Z.|.u.^.C >.;.6.%.` q+s+k+[+m+m+k+}+u+w+|+:+9+f+c+b+o+j+g+g+; 6+i+h+h+h+h+h+h+h+h+h+h+6+c+:+:+c+7+b+7+y+:+7+y+7+b+b+b+5+_ 5 o > 6 ( ^+k k k . . B+a y+  # * * * B+  a # l i a E+G+k+~+[+I V $.O P Q ,.!./._.|.2.G+G+G+G+G+G+G+G+",
"S.Z.O.v._.^.'.8.-.Y %.M t+r+@+m+1+$+!+)+G+k+^+i+9+i+b+b+f+g+f g ; d+6+i+i+i+6+6+6+6+6+6+6+6+f+9+i+6+c+:+:+c+i+c+c+i+:+:+7+p , 5 5 p d 5 ( =+E.a   $   B+$ .   B+a a a   y+a i k e y G+)+|+$+L V N %.Y 7.8.'.~.s.u.|.G+G+G+G+.+.+.+.+",
"S.`..+|._.^.'.8.-.*.X W W <+s+k+y+~+k+G+w+1+  9+9+y+o+7+= g g 8+j+d+f+d+f+6+6+6+f+6+6+f+6+f+9+% 9+c+c+& i+i+c+i+i+i+9+c+: 3 / 9+6 1 : % 6 / & e # a i a B+        y+y+* & e * # & $ + G+m+~+q R V R O P Q ,.!./.u.|.G+G+G+G+.+.+ +Z.",
" + +.+|._.^.B Q -.*.R V ).5+s+{+:+[+}+G+k+^+y+9+:+  b+c+= g+8+j+6+j+j+d+d+f+f+6+f+f+f+6+f+f+f+d 9+9+9+9+9+f+i+i+c+i+c+i+6 { ) ^ % 6 ! ( f+^ ^ % & l e e #   B+B+B+  # & % % d b & d {+G+!+1+y I Z N &.6.;.>.C ^._.|.7 G+G+G+.+.+ +S.",
"G+G+7 |._.~.,.Q P O $.M t+l+G+|+=+m+u+G+|+^+:+& y+  y+f+j+= j+d+d+d+d+f+d+f+f+f+f+f+9+b ^ ( d+2+A+9+A+% 6+i+i+c+c+c+d ^ / 6 ) ) ^ b ^ ) / c ( d % % l l e a B+E.a o e 9+A+2+c n % d r G+!+a+5+$+L *.X Y -.8.B ~._.[.2.G+G+G+.+.+ +S.",
"G+G+7 [./.~.,.Q P O ` 7+r+G+G+z+C+k+G+8 s B+* e B+  y+f+2+j+2+d+d+d+2+f+d+d+f+d+f+i+m 6 ~ 5 n A+2+A+A+9+i+c+i+i+c+c+^ ~ 3 / 6 ! ) ^ c ^ [ ( A+A+d d d b e & i a h p l d n n n w n b k G+m+_+c+0+[+I $.O P Q ,.m./.u.2.G+G+G+.+.+ +S.",
"G+G+7 [./.~.,.Q P &.` K q+s+3.^+1+x+G+9 i k B+  . $ :+f+j+j+d+6+6+d+A+d+d+f+f+d+c+- 5 ! ' ! 6 b 2+2+2+f+i+i+i+c+7+/ ! ' ! 1 / 6 ' ) 5 : ( n A+A+d d d p e l e # o & d A+n n w = = m p E+x+j+; b+|+D ` O 6.;.,.!./.u.2.G+G+G+.+.+ +V.",
"G+G+7 [./.!.,.Q P &.N Z }.l+x+^+|+!+G+q h k ^+5+~+(+b+6+d+d+f+6+6+d+A+d+6+f+d+6+: 3 ! ' ' ' ! ^ f+2+2+A+% 9+i+7+: | ' ' ' ' } / ^ ! ~ ^ 9+A+A+d % &+&+% e e E.=+=+y+% 2+n n w = ; n c t w+e+g+e+a+D+` &.6.7.d.!.^._.|..+G+G+.+.+ +V.",
"G+G+7 [./.!.h.;.6.&.N Z {.l+m+%+D+}+G+$+i s , ( ( ( ( ( ( : - j+j+f+6+f+d+6+6+( 3 ! ' ' ' ' ' ! / f+c c A+f+7+- 3 ! ' ' ' ' ' [ ^ 6 6 m % d % 9+- / ^ ^ 6 6 ^ ^ / _ d d+j+j+w ; ; n m $+)+(+; 8+a+$+N %.Y -.d.'.m.s.|..+G+.+.+ + +V.",
"G+.+2.[./.!.>.;.6.&.N (.t+p+{+C+y E+G+r a ~+/ ] ! ' ' ' ' } | 3 6 ^ / : 6+h+( | ! ' ' ' ' ' ' ' 1 : 2+n m 9+d 6 ! ' ' ' ' ' ' ' ! / b % 9+9+: ^ 1 ! ) ! ! ! ) { ) ' 6 ( n 2+w ; ; c m j )+[+b+d+h+~+N %.Y c.e.'.m.s.|.G+G+.+ +`.`.V.",
"G+.+2.[./.!.>.;.6.%.N t+l+G+;+z+;+F+G+r k ~+/ { ' ' ' ' ' ' ' ' ! ! ' | ^ b : [ ' ' ' ' ' ' ' ' ! 3 : A+d 9+6 ! ' ' ' ' ' ' ' ! 5 - 9+9+% / } ! ' ' ' ' ' ' ' ' ' ' ! ! 6 ; j+= ; n d i /+m+0+d+7+}.M X Y c.e.i.m.s.|.G+G+.+ + +`.V.",
"G+.+2.[./.!.>.;.6.%.N a.q+s+D+~+;+G+G+$ k ~+/ { ' ' ' ' ' ! ' ' ' ' ' ' ) 3 - ( [ ' ' ' ' ' ' ' ' ) 6 d % ^ ! ' ' ' ' ' ' ' ! 5 d 7+:+& 6 { ' ' ' ' ' ! ) ! ' ' ' ' ' ' ! 5 ; w ; n d p u w+[+1+A  .W X Y -.e.i.m.s.|..+G+.+.+.+.+`.",
"G+.+2.[./.!.>.;.6.%.#.Z <.l+|+~+{+G+8 k k %+/ { ' ' ' ' } 5 1 ! ' ' ' ' ' { 6 b+/ ! ' ' ' ' ' ' ' ' ! ^ / ! ' ' ' ' ' ' ' ) 5 > a+b+& 6 ! ' ' ' ' ' ' 5 ^ 6 | ! ' ' ' ' ' ! 6 = ; n l p E+G+[+~+F  .Z X Y -.8.'.~.s.v..+G+.+.+.+.+.+",
"G+.+2.[./.!.h.;.6.&.N Z (.l+1+1+{+G+E+a $ (+/ ) ' ' ' ' 1 b b / [ ' ' ' ' ' | - (+/ ) ' ' ' ' ' ' ' ' } [ ' ' ' ' ' ' ' { 6 > 0+^+(+/ { ' ' ' ' ! 5 ( o =+B+, ^ ! ' ' ' ' ' ' / = c o d 0 G+;+~+F  .).(.*.-.8.'.^.s.v. +.+.+.+.+.+.+",
"G+.+2.u./.!.h.;.6.&.N K r+s+$+1+{+G+v a $ (+/ ) ' ' ' ' 1 d 7+h+^ ! ' ' ' ' ! ( (+b+^ ! ' ' ' ' ' ' ' ' ' ' ' ' ' ' ' ) 6 o (+(+(+> 1 ' ' ' ' ' 1 _ ^+B+E.B+^+B+6 ! ' ' ' ' ' 6 ; n p b 0 G+{+~+D+#.).].%.-.8.'.~.s.v. +.+.+.+.+.+.+",
"G+D.I.s./.!.h.;.P &.` t+r+2.1+1+k+G+v a j (+/ ! ' ' ' ' 1 > 7+b+, | ' ' ' ' ! ( 0+(+=+^ { ' ' ' ' ' ' ' ' ' ' ' ' ' { 6 a 5+. (+5+/ ~ ' ' ' ' ! / ^+a i a B+a (+( ' ' ' ' ' ' 1 ; n p m 9 G+{+1+D+` V ].:.Y e.'.^._.v..+.+.+.+.+.+G+",
".+V.L.w.w.!.h.;.P O ` X v+l+1+$+k+G+v a j 5+( ! ' ' ' ' 1 > (+0+, | ' ' ' ' | > 5+(+^+h ^ { ' ' ' ' ' ' ' ' ' ' ' { 6 > (+z+z+C+C+6 ! ' ' ' ' | , B+a a a B+a   , | ' ' ' ' ' [ ( m p m 9 G+{+1+|+` M R :.n.c.,.^.u.v. +.+.+.+.+.+G+",
" +L.L.w.w.m.,.Q P O ` Z  .a.5+$+k+G+v a j (+( ! ' ' ' ' 1 > 5+0+/ ! ' ' ' ) 6 z+5+5+. =+h 6 ! ' ' ' ' ' ' ' ' ' ! 6 k ~+C+1+~+1+> | ' ' ' ' ! 5 i B+a a a k a a o 5 ! ' ' ' ' ' / d l m 9 G+{+1+|+` M %.*.}.r.t.j.u.|.O.O.`.`. +G+.+",
".+L.L.w.w.m.,.Q P O $.V K l+1+$+k+G+v i j (+/ ! ' ' ' ' 1 h |+_ } ' ' ' ' { ( |+|+z+$ a %+, | ' ' ' ' ' ' ' ' ' ! / |+r ~+~+1+[+( ) ' ' ' ' ) ^ $ k a a k k k a a 6 ! ' ' ' ' ! / &+h m 9 G+{+1+$+` M %.Y c.c.x.y.s.L.V.I.L.L.`.G+.+",
".+V.C.w.m.m.h.Q P O $.E q+/+|+$+k+G+v i j ^+/ ! ' ' ' ' 1 _ / [ ' ' ' ' ] ^ |+|+|+~+s $ %+/ ! ' ' ' ' ' ' ' ' ' ' [ _ |+1+~+1+;+( ~ ' ' ' ' ! ^ $ k k k B+k k E.i 6 ! ' ' ' ' ' / E.i b 9 G+{+~+1+` M X Y -.e.t.j._.L.O.O.S.S. +.+G+",
".+V.C.m.m.!.h.Q P *.R :.r+l+|+$+k+G+v a j =+/ ! ' ' ' ' ' | ! ' ' ' ! ~ ^ r |+|+|+~+j %+( ' ' ' ' ' ' ' ' ' ' ' ' ! 3 , [+~+1+;+( ~ ' ' ' ' ! 5 a k k $ k a k j h 3 ' ' ' ' ' } : E.h b 0 G+{+z+1+` M X Y -.G '.^._.|..+G+G+G+G+G+G+",
".+V.C.w.^.m.h.Q c.*.R W Z K |+$+{+G+E+$ s =+/ ! ' ' ' ' ' ' ' ' ' ~ 1 ( 1+[+|+|+|+~+~+/ ' ' ' ' ' ' ' ' ' ' ' ' ' ' ) 3 > [+~+[+, ' ' ' ' ' ' | , . j j k k k $ , } ' ' ' ' ' 5 p a h b 0 G+{+C+~+` W X Y -.G C ^._.|.G+G+G+G+G+G+G+",
".+Z.L.L.w.m.,.e.-.*.X W ).K |+$+{+G+F+$ j =+/ ! ' ' ' ' ' ' ! { 1 ^ > ;+1+|+|+|+|+1+_ | ! ' ' ' ' ' ' ' ' ' ' ' ' ' ' ) 3 h |+|+j 3 ! ' ' ' ' ! ( ~+$ k k k B+(+/ ! ' ' ' ' ) ^ e a i p v G+{+C+z M W X Y -.G C ^._.v. +.+.+G+G+G+G+",
"G+ +S.I._.^.'.8.-.Y X M t+r+;+$+{+G+7 k k B+/ ! ' ' ' ' ' 1 6 ( h [+[+|+1+1+1+1+|+_ [ ! ' ' ' ' ' ' ! ' ' ' ' ' ' ' ' ' { 5 a 1+z+^ { ' ' ' ' ! 5 > ^+k   $ %+_ | ' ' ' ' ' [ : E.k h o 3.G+;+~+F ).W X Y -.G C ^._.v. +.+G+G+G+G+G+",
"G+.+ +|.[./.C d.-.Y %.M   r+|+(+|+k+G+j i E./ ! ' ' ' ' | , 1+|+1+1+1+1+1+~+z+5+_ 1 ! ' ' ' ' ' ' ) 6 ( 1 ' ' ' ' ' ' ' ' { 6 o (+, 3 ! ' ' ' ' ! 5 ( o h , / 3 ! ' ' ' ' { / #+a k o a 7 u+x+{+{+N M X Y -.G C ^._.|..+G+G+G+G+G+G+",
"G+G+G+2.[./.!.>.7.6.%.N ` 0+6+6+0+m+G+r i =+/ ! ' ' ' ' 1 h 1+z+1+|+|+|+1+C+|+_ 3 ! ' ' ' ' ' ' ! 3 > [+( ) ' ' ' ' ' ' ' ' ) 6 a 5+( ! ' ' ' ' ' ! ! 5 5 1 ) ' ' ' ' ' ~ 6 o h i k l j G+/+x+m+[+y N %.Y -.G C ^._.|.G+G+G+G+G+G+G+",
"G+G+G+2.[./.!.h.;.6.&.#.(.|+a+e+i+m+G+z i ^+/ ) ' ' ' ' 1 h 1+z+1+$+|+|+~+%+, 3 ! ' ' ' ' ' ' ! | _ ~+C+r ^ ! ' ' ' ' ' ' ' ' { ^ * E./ | ! ' ' ' ' ' ! ! ' ' ' ' ' ' ! 6 > i o o a l z G+x+|+|+5+~+N %.Y 7.G C ^._.|.G+G+G+G+G+G+G+",
"G+G+G+7 [./.~.,.Q 6.:.g.(.[+i+8+e+5+G+D+h ^+/ { ' ' ' ! 1 > 1+~+r ~+1+~+~+, 3 ! ' ' ' ' ' ' ' ) / =+a a k i 6 { ' ' ' ' ' ' ' ' { ^ % &+( 5 ! ! ' ' ' ' ' ' ' ' ' ) | / s k i i i a l y G+D+d+i+a+z ` %.Y ;.>.C /._.|.G+G+G+G+G+G+G+",
"G+G+G+7 [._.~.h.7.n.k.g.g.y 5+j+8+a+G+t o %+/ ! | | | } 1 > ~+~+s C+1+5+> ( | ' ' ' ' ' ' ' ) ^ e o e e e E., 5 ! ' ' ' ' ' ' ! | / A+A+A+c / 6 | ' ' ! ) ! ' } 3 ^ : =+j a h a a k o 9 G+[+; 8+c+F ` &.6.;.>.!./._.|.2..+.+.+G+G+G+",
"G+G+.+7 |./.q.t.r.p.l.f.9.D [+0+6+6+}+E+k k , : : : : - , k 1+~+$ C+~+, 3 6 ( 1 ! ' ' ' ' ! 6 p l p & & l l :+: | ! ' ' ' ' ! 1 ( A+b A+m 2+A+m : ( / / / / / : c 2+2+l a i a k k a i E+/+m+7+4+h+a.` O P ;.>.!./._.|.2.G+G+G+G+G+G+",
"G+G+`.S.N.F.G.t.r.p.l.f.0.S m+|+a+c+}+G+z a e A+A+d % #+E.. 1+C+$ ~+5+^ ] ) ^ ( 3 ! ' ' ' 3 - % b b d p p l l #+/ [ ' ' ' ! 3 ( 9+2+m m m c c m 2+2+A+A+A+A+2+2+w 8+8+m a a a a a l k G+}+[+a+4+h+S $.O P Q ,.!.^._.[.|.2.7 7 G+G+G+",
"G+O.J.U.M.K.A.t.x.r.n.k.g.g.m+m+$+y @ G+y i a d b b d & # C+~+C+$ > _ o 6 { ! ^ ( 1 ' ' [ ( &+b b d b d p d p % &+^ ) ' ! 3 : &+A+m m m b m c c c m m m m m c w g+g g c i i l e i p D+G+E+[+y+a.:.` X *.P Q ,.C ^./.[.[.|.|.2.7 G+G+",
"J.T.R.R.M.M.A.G.x.r.p.l.f.9.b.T |+$+x+G+v i i p b d d & # . z+C+5+_ { / p ^ ) ! 6 / 3 { ^ f+d b m A+A+d d d d % % b 6 ~ 5 : % b b b m m m m c c n m 2+c m b c 8+g f g+b o o p o k h 0 G+x+$+9+}.Z M %.Y -.Q >.C ~./._.[.[.|.|.2.7 G+",
"R.R.R.R.R.M.K.A.t.x.p.n.k.g.b.+.[+$+q G+G+z i i p d l h a C+~+a / j _ { ^ p ^ { ) 6 / / b b b m m m b b % d d d % d - ^ - A+m c m m m c m b m m n m b c c m w 8+g g ; h o l d h h r G+G+k+B+& W V N &.Y -.Q >.'.!.^./._.[.[.|.|.7 G+",
"R.R.R.R.R.M.K.A.t.x.r.n.l.f.9.4.l+$+|+v G+0 a j i e i a k z+1+s ^ ^ j _ [ ^ p ^ ! ~ ^ % % b b b b A+b d d d d A+d b % % m m c m m m m m m m m m c m m m m m c ; ; c o h p d d i p t G+/+;+A+E ).V ` &.Y -.Q >.B C ~././._.u.[.|.2.7 ",
"U.R.R.R.R.M.F.A.G.t.r.p.n.k.g.b.:.|+1+k+G+G+z i k k k s s r 1+r ~+/ 6 ~+, | 6 E.^ 5 - d b b d b b b b d d d d d d b b m m m m m 2+A+b m m b b m 2+A+m b b b p l o h h p b b l h s G+G+x+~+2+<.).M $.&.Y -.;.8.,.'.!.~././.s.L.I.I.2.",
"U.U.R.R.R.R.F.K.A.t.x.r.p.l.f.0.0.[+$+D+v G+E+j a j j r s r r . $ z+( 6 a > 3 6 > > a e l p d d p % d d d l % % % A+m m m m b 2+A+d b b b d d b A+d d & & l a k k a l b b d e k v G+E+{+2+4.).Z #.X O Y -.;.Q >.,.!.!.^.w.s.s.L.V.O.",
"U.U.U.U.R.R.M.M.K.G.t.x.p.n.k.g.0.a.|+$+{+@ G+0 i a k k j C+r $ * E.=+( 6 , > 6 > ~+s $ k k a a B+B+a o * * & :+i+& e * & p p l & & & & e * # e # a a k a i j s j h b m d o j 9 G+8 k+=+j+` ).V N %.O 6.P ;.Q >.J.W.!.~.^./.s.u.v.O.",
"T.U.U.U.R.R.R.F.K.A.t.x.r.p.l.k.g.9.1.|+D+k++ G+{+i a e l a $ k i & l :+( 6 _ E.E.a j k k s j C+C+r C+s s o+^+. (+. . $ k a B+B+k $ $ $ C+$   i   $ i a i a k k i l % p o k 9 G+G+9 $+; K  .Z M ` %.*.6.P 7.>.'+'+j.'.!.^./.s.u.|.D.",
"U.T.T.U.R.R.U.F.F.K.A.t.x.r.n.l.f.0.0.F $+D+k++ G+9 j i % % % l e i i o &+: ( % b d l A+d y+a   . j . C+C+s . . 1+z+C+~+. $ . . $ . #   $ i i d & * l h i e i # e & e a s 0 G+G+9 D+w 4.Z ).V #.X &.*.6.P y.]+M.'.^.'.!.^./._.[.|.D.",
"T.U.U.T.U.U.R.R.M.K.A.G.t.r.p.n.l.f.0.f.y $+D+k+8 G+u y a * e d b p l h o & l b b d % % b % l e * #     k k B+  . B+E.B+# # y+# e e % % d b d d e # i B+k a a $   a j q 8 G+@ t D+w p M  .Z W ` %.O Y -.-+,+y.t p+!+'.!.~.w.s.[.|.2.",
"U.T.U.U.U.T.U.U.R.F.K.A.G.x.r.p.n.k.f.9.].y |+|+{+0 G+G+0 D+r i & p p p d p l p p p l & o o & e o * :+# B+B+# * :+* & l & & * & & % e * * a a B+. $ j $ . s $ j z {+E+G+G+}+{+. = 4.V  .).V #.$.%.Y B.,+-+[+r+l+o.,.'.!.~.w.s.u.|.2.",
"T.U.T.T.T.U.T.U.U.R.F.K.A.t.x.r.p.n.k.f.0.{.1.D+$+y 9 8 G+G+0 q r x j 6+_+h o o o o l l l o * * h * E.a a B+y+* * * * # * * e # $ E.B+$ k k $ $ r $ k $ C+z D+9 + G+7 E+@ k+=+n K  . .).V #.$.5.x.-+,+<+l+q+<+G >.,.C ~.^.w.s.[.|.7 ",
"T.T.U.T.T.T.U.R.U.R.R.F.K.A.t.x.r.p.n.k.f.#.V S [+$+$+q 9 7 G+G++ 0 9 -+,+F s k k j j k a a # a a   B+k k     k i a E.a B+B+a B+B+B+a k a k k B+C+r $+{+E+G+G+G+E+9 q D+{+5+b+<. . .).V $.p.B.,+,+]+r+q+v+H Q G >.B !.~.w.w.u.|.|.2.",
"T.T.T.T.T.T.T.T.T.T.R.F.F.K.A.t.x.r.p.Y *.%.` W ` D [+$+$+D+{+0 8 G+ +l+l+2.v 9 t q y D+D+D+$+$+z 1+1+z r r r r $ C+r x r r z z $+$+y y q {+x+v @ G+G+G+@ 0 9 q D+C+* & 1+a+6+<+l+<+<+<+]+3+3+3+q+r+|+H ;.Q G >.B C ~.^./.w.u.|.2.`.",
"T.T.T.T.T.T.T.T.T.U.T.R.F.F.A.G.t.t.;.;.P Y %.$.#.V %.L [+$+z z $+y {+m+k+u 7 G+G+G+G+G+G+G+G+G+G+G+G++ + + + F+F++ + E+!++ G+G+G+G+G+7 8 u v 0 9 t {+q D+z =+#+E.r y >+]+v+a.J 4.h+v+v+n+0+1+a.7.-.;.Q Q G >.,.C !.^./.s.s.u.|.2.Z.",
"T.T.T.T.T.T.T.T.T.U.U.T.R.F.F.q.j.i.d.d.Q c.Y 5.%.` M W &.I L y $+$+z $+D+D+y q t t t t t t t t t t 9 t t 9 9 t t t v !+m+t t {+q q y y D+D+$+z z r C+. $ . z t v '+,+3+q+J Z V N $.%.5.*.6.c.-.;.Q Q G >.,.B '.!.^./._.s.L.v.2.2.`.",
"T.T.T.T.T.T.T.T.T.T.T.U.T.N.s.s.^.i.i.i.>.;.-.6.*.&.X $.N V Z N ..1.y [+D+$+$+D+D+$+$+$+$+$+$+$+$+$+$+$+$+$+$+$+$+$+q k+5+z z z z z r r r r ~+1+$+q t 0 7 G+/+>+,+,+3+q+(.V M $.%.5.*.6.c.-.;.Q 8.G >.,.B '.!.~.^././._.u.I.v.2..+.+",
"T.T.T.T.T.T.T.T.T.T.N.C.S.D.v.u.w.m.m.~.'.h.e.;.c.6.Y O %.$.N W Z ).).T r+'+-+]+<+;+k+9 9 9 9 t t t t t t {+;+;+|+<+m+k+6+v+<+-+-+>+;+x+}+E+w+G+G+*+}+'+>+]+,+]+l+q+h+{.W N X &.*.6.c.7.;.e.8.>.,.,.B '.!.!.~.^./._._.[.[.I.D..+.+.+",
"T.T.T.T.T.T.T.T.N.W.D..+ +D.D.D.L.w.s./.^.!.'.,.8.Q 7.P Y O %.R N M V Z v+q+r+>+-+]+,+]+>+>+>+>+>+>+>+>+>+]+l+r+q+v+K A 7+E.n+q+3+]+]+,+,+,+,+,+,+,+,+]+>+>+l+r+t+J W N $.%.*.6.P 7.Q 8.>.,.,.'.C !.!.~.~.^././._.[.[.|.|.O..+.+.+G+",
"T.T.T.T.T.T.N.I. +.+G+.+ + + +D.S.L.L._._.^.~.!.B >.8.Q 7.P Y *.&.X ` M M K t+q+r+l+l+]+]+]+]+]+]+3+3+3+q+r+v+c++.). .X F ]. .(.E.t+r+l+l+l+l+'+'+'+p+p+l+r+t+K W N $.%.O Y P 7.Q 8.>.,.'.'.!.!.~.~.^./././._.u.[.|.|.2.2..+.+.+G+G+",
"T.T.T.N.J.S..+G+G+.+.+.+ +.+ + + +O.|.|.u._./.^.~.!.B h.8.Q 7.-.6.Y &.%.$.N M :.4.7+n+v+v+v+v+v+v+h+e E +.Z Z Z Z V V V V V V Z Z Z +.y+h+v+v+t+r+t+v+h+e +.M N R %.O Y P 7.Q 8.>.,.i.j.m.m.^././././._._.[.[.|.|.2.7 .+.+.+G+G+G+G+",
"T.N.W.O.G+G+G+G+.+.+.+.+ +.+.+ +.+.+2.2.v.[.[._./.^.~.!.'.,.>.Q ;.-.P Y O &.X $.N N M W W V V V W W M M #.#.N N ` $.$.$.$.$.` ` N #.M M W W V V V W M #.N $.X &.O Y P -.;.8.>.,.j.j.m.m.w.w.s._._.u.[.[.|.|.|.2.7 G+G+.+.+G+G+G+G+G+",
"X.Z.Z.`. +G+G+G+.+.+.+ + +.+.+.+.+.+.+.+2.D.|.[.[._.s./.^.!.'.,.>.8.;.-.P 6.*.O &.%.X X X $.$.$.$.X X X %.%.%.%.&.5.5.5.5.5.5.&.%.%.X X X $.$.$.$.$.X %.&.5.*.6.c.-.;.8.>.,.j.m.m.w.w.w.w.C.s.u.|.|.|.|.2.7 .+.+.+G+G+G+G+G+G+G+G+G+",
"Z.Z.Z.Z..+G+G+G+.+.+.+ +.+.+.+.+.+.+G+.+ +.+2.2.|.v.u.u._./.^.~.C B >.8.;.7.c.6.6.Y Y *.*.*.5.5.5.5.*.*.*.*.Y Y Y 6.6.6.6.6.6.6.6.*.*.*.5.5.5.5.5.5.*.Y 6.c.-.7.;.e.d.,.j.j.m.w.w.s.C.L.L.L.V.S.2.7 G+G+G+G+.+.+G+G+G+G+G+G+G+G+G+G+",
"Z.Z.Z.`..+G+G+G+.+.+.+ + + + + + +.+.+.+.+ +.+.+.+2.2.v.u.u._./.^.~.!.i.,.d.e.;.;.7.-.-.-.c.c.c.c.c.c.c.-.-.7.;.7.7.;.;.;.7.7.7.7.-.-.c.c.c.6.P c.c.-.7.;.Q 8.>.,.'.j.m.^./.s.L.I.I.S.S.Z.Z.`. +.+G+G+G+G+G+G+G+G+G+G+G+G+G+G+G+G+G+",
" +.+.+G+G+G+G+G+.+.+.+ + + + + + +.+.+.+ +.+.+.+ + +G+2.O.v.|.[._././.~.!.j.'.,.,.>.G 8.8.8.8.e.e.8.8.d.d.d.d.,.,.,.h.,.h.h.h.h.d.d.8.8.e.e.e.e.e.e.8.>.>.,.'.C !.~././._.[.|.v.D..+.+.+.+.+G+.+G+G+G+G+G+G+G+G+G+G+G+G+G+G+G+G+G+G+",
"G+G+G+G+G+G+G+G+.+.+.+.+ + +.+ + +.+.+.+.+.+.+.+.+.+G+.+.+D.2.|.|.[._._./.^.^.~.!.!.'.C '.'.'.B B '.'.C C !.!.m.m.~.m.m.m.m.!.!.!.j.'.i.'.'.i.i.i.'.'.C !.~.~.^./._._.[.[.|.2.7 .+G+G+G+G+G+G+G+G+G+G+G+G+G+G+G+G+G+G+G+G+G+G+G+G+G+",
"G+G+G+G+G+G+G+G+.+.+.+.+ + +.+.+.+.+.+.+.+s.>.;.;.;.;.Q '.u..+7 _.B d.!._._._.!.;.P P P 6.c.e.C ^.^.^.!.8.Q ,././.s.!.8.d.~.s.s././.w.i.;.e.j.^.^.^.^.^./.m.>.8.C _.|.|./.>.d./.7 |.~.,.~.|.G+G+G+G+G+G+G+G+G+G+G+G+G+G+G+G+G+G+G+G+",
"G+ +`. +.+ + + +.+.+.+.+.+.+.+.+.+.+.+.+.+;.R 0.{.].{.].` >..+2.8.N (.X '.|.[.-.(.9.{.{.0.0.].;._._._.;.].].X '.v.v.-.:.%.,.v.u.u.u.u.-.:.X >._._._._.u.u.;.].(.X C 7 G+B }.R $.'.>.X <.-._.G+G+G+G+G+G+G+G+G+G+G+G+G+G+G+G+G+G+G+G+",
" + +`.Z.Z.Z.Z. +.+.+.+.+.+.+.+.+.+G+G+G+.+X A I ......I D &.G+/.N I A (.5._.2.$.L I <.<.<.I D %.|.|.~.N I L (.5.u..+$.A {.Q .+2.2.D.D.$.L {.;.|.|.|.|.|.~.#.I A (.O [.G+!.$.D S  . .I <.7.|.G+G+G+G+G+G+G+G+G+G+G+G+G+G+G+G+G+G+G+G+",
"Z. + +Z.Z.Z.Z. +.+.+.+.+.+.+.+.+.+G+G+G+G+#.A ).@.=.@.).A N .+7.{.I ).A Z >..+#.A ).@.=.@.).A N G+7 -.{.I ).A Z h. +#.A 9.;..+ + + + +#.A 9.;..+.+.+.+2.-.{.I ).A Z ,.G+|.Q ).D S S ..$./.G+G+G+G+G+G+G+G+G+G+.+G+G+G+G+.+G+G+G+.+.+",
"Z.Z. + +`.Z.Z..+.+.+.+.+.+.+.+.+.+.+G+G+.+#.A I ......I D &.~.V D  .@.I ..X u.#.A I ......I D &.G+^.V D  .@.I ..X _.#.A 9.;..+ +S.O.O.#.A 9.7.O.O.`.`.m.Z D  .@.I ..X u..+|.6.=.A A @.;. + +.+.+.+G+G+G+G+G+G+G+G+G+G+G+G+G+G+G+G+G+",
" +`.`..+.+ +`..+G+.+.+.+.+.+.+.+.+.+G+G+.+#.A ..9.].{.].` e.6.(.A ).)...A ).8.#.A ..).D D ).V 8.2.6.(.A ).)...A ).e.#.A ).*.i.i.i.w.V.#.A ).5.h.h.i.m.*.(.A ).)...A ).e.`.w.$.(.S D S V i.Z.Z. +G+G+G+G+G+G+G+G+G+G+G+G+G+G+G+G+G+G+",
".+.+.+ +.+G+.+.+.+.+.+.+ + + +.+.+.+.+.+.+#.A ).X ;.;.e.'.,.Z A S ......I I #.V A ).V  .D S  .Q ,.Z A S ......I I #.V A (.=.).).#.c.w.#.A (.=.).).].%. .A S ......I I #.i.%.(.D  .=.D S V i.`. +G+G+G+G+G+G+G+G+G+G+G+G+G+G+G+G+G+G+",
".+.+ + + +G+G+G+.+ +.+.+ + + + +.+.+.+.+.+5.A R >..+.+.+.+e.S }.).&.5.$.).A <.N A R 8.Q V S 1.6.-.S }.).5.5.` b.A <.#.A A A A A A 5.m.&.A A A A A A ].S }.).5.5.$.).A <.-.}.A Z 7.7.Z D I 7.D..+.+G+G+G+G+G+G+G+G+G+G+G+G+G+G+G+G+G+",
".+.+.+.+ + +.+G+ + +.+ + + + + + +.+.+.+.+'.6.;.s..+.+.+.+~.c.c.m. + +u.8.*.;.d.6.;._.|.B Y *.>.'.c.c.m.`.O.s.e.5.-.d.5.#.#.#.#.X e.s.h.%.#.#.#.#.X 6.6.c.~..+.+u.8.*.;.'.-.*.>.|.|.,.*.Y j. +G+.+.+G+.+.+.+G+G+G+G+G+G+G+G+.+G+G+G+",
".+.+G+G+.+ + +.+.+ + + + + + + +.+.+.+.+.+.+.+.+.+.+.+.+.+.+.+.+ +`. + +.+G+.+.+.+.+G+.+.+G+.+.+ + + +D.D.O.O.S.S.O. +.+.+`.S.I.I.I.I.O.I.V.I.I.u.I.S.O. +.+.+.+.+.+.+.+G+G+.+.+.+G+.+.+`.`.`.`..+.+.+.+ +.+.+.+.+.+.+.+.+.+.+.+.+.+",
" +.+.+G+G+.+ +.+.+.+ + + + + +.+.+.+.+.+.+.+.+ +Z.Z.Z.Z.Z.`. +`.S.I.S.S.S.O. +`.S.`.`.`.`.`.O.S.S.`.`.D.D.O.O.S.S.O. +.+.+`.O.S.S.S.S.D. +O.S.S.S.O.O.O. +G+.+.+.+.+G+G+G+G+.+.+.+.+.+ +S.Z.Z.V.I.O. + +D.`. + + + + + + + + + +.+ +",
" +.+G+G+G+G+.+ + +.+G+ +`. +D. +.+.+.+.+.+.+.+O.S.S.S.S.S.S.C.i.7.c.c.c.c.7.i.L.`.w.h.j.L.V.V.w.h.i.s. +w.h.i.s.S.O..+G+.+w.h.i.s.w.,.j.I. +O.s.i.i.w.D.s.>.;.;.;.;.Q ,._.G+G+.+.+.+ +S.S.S.S.L.s.L.`..+O.O.D.`.D.O.O.D.`.`.D. + + +",
".+G+G+G+G+G+G+.+ + +.+G+ +D.`. +.+.+.+.+.+.+.+`.S.S.S.S.S.S.e.` {.{.{.{.{.{.` e.`.7.:.{.c.w.L.h.&.<.8.D.7.<.%.i.`. +G+G+G+;.<.&.i.7.:.{.-.s. +i.5...e. +;.R 0.{.].].(.<.>.G+.+.+ +`.O.I.V.S.S.L.s.s.S. +`.O.D.D.D.O.O.D.`.`.`. +.+ +",
"G+G+G+G+G+G+G+.+.+ +.+G+.+ + + +.+.+.+.+.+.+.+.+ + + + + + +%.D I ........I D &..+X A D 9.*.w.7.(.}.*.D.$.A {.e..+.+G+G+G+X A {.e.X A D 9.*.s.e.(.}.*. +X A I ......}.}.>.G+G+ +`.`.O.I.V.S.S.I.L.I.S.`.D.`.D. + +D.D. + + + +.+.+.+",
"G+G+G+G+G+G+G+G+.+.+ +.+.+.+.+ +.+.+.+.+.+G+G+.+.+.+.+.+.+.+N A ).V 5.5.V ).A N G+#.A I A 9.%.*.{...5.D.#.A 9.;..+.+G+G+G+#.A 9.;.#.A I A 9.%.Y ]...5. +#.A ).@.=.).%.;./.G+.+ + + + +`.O.`.`.O.S.O. + +O. +.+ +.+.+ +.+.+.+.+.+.+.+",
"G+G+G+G+G+G+G+.+.+ +.+ + +.+.+.+.+.+.+.+.+G+G+.+.+.+.+.+.+.+#.A 9.;..+.+;.9.A #.G+#.A =.(.A :.=.)...5. +#.A 9.;..+.+G+G+G+#.A 9.;.#.A =.(.A :.=.)...5.D.#.A A A A ..'..+G+G+.+ +.+.+.+.+ +.+.+ +O. +.+.+ +D. + + + + + +.+.+ + + +`.",
"G+G+G+G+G+G+G+G+.+ +.+.+ + +.+G+.+G+G+G+.+.+G+.+.+.+.+.+.+.+#.A ).*.i.i.*.).A #.G+#.A  .#.9.A S :...5. +#.A ).*.i.i.!._..+#.A 9.;.#.A  .#.Z A S :...5..+#.A (.=.).$.Q ^.|.G+.+.+.+.+.+.+ +.+.+ + + +.+.+ + + +.+ + + + +.+ + +`. +`.",
"G+G+G+G+G+G+G+G+.+ +.+.+ + + +.+G+G+G+G+.+.+G+G+G+G+G+G+G+G+$.A (.=.).).=.(.A $.G+#.A ).d.-. .D A ..5. +#.A (.=.).).#.c._.#.A 9.;.#.A ).>.-.).D A ..5.G+#.A (.=. . .Z %.'.G+.+.+.+.+.+.+.+.+.+ + +.+.+.+ + + + +.+ +D. +.+.+ +`. +`.",
"G+G+G+G+G+G+G+.+.+ +.+.+ + +.+.+G+G+G+.+.+.+.+G+G+G+G+G+G+G+P <.A A A A A A <.c.G+5.A $.m.|.8.Z S }.c.O.&.A A A A A A *./.5.A (.d.5.A R ~.|.8.Z S }.-.G+5.A A A A A A S Q G+.+`.`. +.+.+.+.+.+ + +.+.+.+ + + +.+ +.+ + +.+.+ + + + +",
".+.+G+G+G+G+G+.+.+ + +.+ + + +.+.+G+G+.+.+.+.+G+G+G+G+G+G+G+^.c.$.#.#.#.#.$.c.^.G+C c.8.u.`.D.'.6.c.m.I.h.%.W #.#.#.%.8.[.'.6.7.w.'.c.8.[.G+2.'.6.c.^..+C 5.#.W {.#.` 6.^.G+.+ +`.`. +.+.+.+.+ + + +.+.+ + + + + +D. + +.+.+ +`. + +",
"G+G+G+G+G+G+G+.+.+ +.+.+.+.+.+.+.+.+G+G+.+.+.+.+.+G+G+G+G+G+G+G+.+.+.+.+.+.+.+.+G+G+.+`.S.O. +.+.+ +O.L.C.C.L.V.S.V.O. +.+.+.+.+ + +.+G+G+G+G+G+G+.+.+.+.+G+G+C.J.O.G+G+G+G+G+.+.+.+.+.+.+.+.+ + +.+.+.+ + + + + +O.O. +.+ +D. + +`.",
"G+G+G+G+G+G+G+G+.+.+.+.+ + +.+.+.+G+G+G+G+.+.+G+.+.+G+G+G+G+G+G+.+.+.+ +`.D.`. +.+ +Z.V.V.S..+ + +.+D.s.C.C.L.V.S.S.S.Z.`..+.+.+D.O.`..+G+.+ + +O.I.I.I.`. + +L.J.S.G+G+G+G+G+.+ +.+.+.+.+.+.+ +O.O. +.+ +D. + + +D.O.`..+ +O.`. + +",
"G+G+G+G+G+G+G+G+.+ +.+.+ +D. +.+.+G+G+.+G+G+G+.+.+.+G+G+G+G+G+G+ + + +`.I.I.S. + +S.S.V.V.O..+.+.+ + +I.s.C.L.V.S.S.O.`.`..+.+O.L.L.V.O. +`.S.L.C.J.J.w.L.Z.S.L.L.O..+G+G+G+G+`.S. +.+ +.+.+.+ +I.C.I..+ +D. + + +`.D. +.+ +O.S. +`.",
"G+G+.+G+G+G+G+.+.+ + + +D.D.`. +.+G+G+.+.+G+G+.+.+.+.+.+.+.+.+.+ +`.O.S.I.I.O. +.+O.S.O.O.`..+.+.+.+S.O.I.C.I.S.S.O.`. +`. + +O.L.L.V.S.Z.Z.I.C.J.J.J.J.s.S.S.C.L..+.+.+G+G+ +S.V.O.`.S.O. + +O.I.s.I..+ + +.+.+.+ + + +.+D.D.`. + +"};
