/* XPM */
static const char * fs2_btn_setup_click_xpm[] = {
"131 58 256 2",
"  	c #555254",
". 	c #BEDEF6",
"+ 	c #8F9DA5",
"@ 	c #757E83",
"# 	c #A4BCC8",
"$ 	c #62686A",
"% 	c #D8F4F7",
"& 	c #DFFEFF",
"* 	c #010303",
"= 	c #D9FFFF",
"- 	c #E3FFFF",
"; 	c #E6FFFF",
"> 	c #EBFFFF",
", 	c #F6FFFF",
"' 	c #E5FBF9",
") 	c #CFE8E5",
"! 	c #D0D8D6",
"~ 	c #B6D0C9",
"{ 	c #9CB1A7",
"] 	c #A8BBB2",
"^ 	c #020E08",
"/ 	c #010503",
"( 	c #030705",
"_ 	c #04110A",
": 	c #5DB285",
"< 	c #5A9978",
"[ 	c #578D71",
"} 	c #1A492F",
"| 	c #1B4B31",
"1 	c #19452D",
"2 	c #0A2214",
"3 	c #06140C",
"4 	c #173E28",
"5 	c #4E8264",
"6 	c #121E17",
"7 	c #6B947C",
"8 	c #0F301C",
"9 	c #0A1E12",
"0 	c #17261D",
"a 	c #76AC8C",
"b 	c #879B8F",
"c 	c #0C2616",
"d 	c #11341E",
"e 	c #345641",
"f 	c #49765A",
"g 	c #68A37F",
"h 	c #5A7966",
"i 	c #0D2B18",
"j 	c #0E2D19",
"k 	c #08190E",
"l 	c #539C6D",
"m 	c #94C8A7",
"n 	c #010703",
"o 	c #52745D",
"p 	c #111713",
"q 	c #4C9061",
"r 	c #2D5339",
"s 	c #243E2C",
"t 	c #416B4E",
"u 	c #233629",
"v 	c #354239",
"w 	c #030A05",
"x 	c #060D08",
"y 	c #6A8A73",
"z 	c #8EAA96",
"A 	c #182E1E",
"B 	c #3C6446",
"C 	c #53835E",
"D 	c #3E5844",
"E 	c #4D6B54",
"F 	c #435D49",
"G 	c #010A03",
"H 	c #1D3522",
"I 	c #2D4933",
"J 	c #5D8566",
"K 	c #345D3C",
"L 	c #45654B",
"M 	c #364C3A",
"N 	c #3F6E47",
"O 	c #567C5C",
"P 	c #48764F",
"Q 	c #2F3D31",
"R 	c #77997C",
"S 	c #68936C",
"T 	c #527955",
"U 	c #3C653E",
"V 	c #4B6D4D",
"W 	c #537154",
"X 	c #688669",
"Y 	c #010701",
"Z 	c #010501",
"` 	c #010301",
" .	c #030803",
"..	c #345C34",
"+.	c #060A06",
"@.	c #030503",
"#.	c #192819",
"$.	c #456445",
"%.	c #1F2C1F",
"&.	c #0C110C",
"*.	c #0A0E0A",
"=.	c #3C533C",
"-.	c #4C644C",
";.	c #435443",
">.	c #758A75",
",.	c #0E100E",
"'.	c #5D745C",
").	c #5A6E59",
"!.	c #687B67",
"~.	c #3F593D",
"{.	c #617A5F",
"].	c #2B3D29",
"^.	c #455B43",
"/.	c #385235",
"(.	c #354D32",
"_.	c #364734",
":.	c #4C6847",
"<.	c #3B4F37",
"[.	c #10150F",
"}.	c #394A36",
"|.	c #2D4328",
"1.	c #3D5937",
"2.	c #66855F",
"3.	c #526A4D",
"4.	c #74916D",
"5.	c #33462E",
"6.	c #253122",
"7.	c #586B53",
"8.	c #4F5F4A",
"9.	c #55714C",
"0.	c #5F7B56",
"a.	c #2C3529",
"b.	c #4E574B",
"c.	c #2A3F22",
"d.	c #283A21",
"e.	c #182314",
"f.	c #3A4E32",
"g.	c #455C3C",
"h.	c #4C6244",
"i.	c #404F3A",
"j.	c #5C7254",
"k.	c #3E5435",
"l.	c #394932",
"m.	c #192016",
"n.	c #1D241A",
"o.	c #45553E",
"p.	c #030701",
"q.	c #050903",
"r.	c #161E12",
"s.	c #3E4F36",
"t.	c #4A5B42",
"u.	c #4D5D45",
"v.	c #36492C",
"w.	c #73846A",
"x.	c #3B502F",
"y.	c #435837",
"z.	c #54624C",
"A.	c #4C643D",
"B.	c #44543A",
"C.	c #3E4738",
"D.	c #324226",
"E.	c #232E1B",
"F.	c #3E4F32",
"G.	c #333E2B",
"H.	c #354429",
"I.	c #202919",
"J.	c #3B4B2E",
"K.	c #48593A",
"L.	c #4B5C3E",
"M.	c #566848",
"N.	c #5B6C4E",
"O.	c #141A0F",
"P.	c #2E3B23",
"Q.	c #1C2316",
"R.	c #435236",
"S.	c #404B36",
"T.	c #4C5643",
"U.	c #425332",
"V.	c #536245",
"W.	c #030501",
"X.	c #29341E",
"Y.	c #2C3721",
"Z.	c #313D25",
"`.	c #060705",
" +	c #3B4432",
".+	c #667458",
"++	c #282D23",
"@+	c #0A0B09",
"#+	c #191F12",
"$+	c #3A452D",
"%+	c #3F4A32",
"&+	c #4A553D",
"*+	c #5A644F",
"=+	c #374129",
"-+	c #535C47",
";+	c #191B16",
">+	c #495534",
",+	c #363F25",
"'+	c #414B2F",
")+	c #050603",
"!+	c #3A402D",
"~+	c #464C39",
"{+	c #22241E",
"]+	c #383A34",
"^+	c #10120B",
"/+	c #1F201C",
"(+	c #C3C5BD",
"_+	c #535641",
":+	c #030301",
"<+	c #0A0A07",
"[+	c #1A1A13",
"}+	c #28281E",
"|+	c #33332B",
"1+	c #8B8B79",
"2+	c #ADACA1",
"3+	c #1E1D17",
"4+	c #0F0E0A",
"5+	c #2E2B21",
"6+	c #2A261B",
"7+	c #9E9888",
"8+	c #171510",
"9+	c #13110D",
"0+	c #1E1A13",
"a+	c #332E26",
"b+	c #251F17",
"c+	c #272119",
"d+	c #221D16",
"e+	c #3A342C",
"f+	c #5B5246",
"g+	c #2D251B",
"h+	c #191510",
"i+	c #201B15",
"j+	c #433F3A",
"k+	c #382E23",
"l+	c #332A20",
"m+	c #574837",
"n+	c #4C3F30",
"o+	c #3E3327",
"p+	c #2E261D",
"q+	c #705D47",
"r+	c #45392C",
"s+	c #7B6955",
"t+	c #2A221A",
"u+	c #62503D",
"v+	c #16120E",
"w+	c #1C1712",
"x+	c #120F0C",
"y+	c #0D0B09",
"z+	c #28231E",
"A+	c #090706",
"B+	c #4A4644",
"C+	c #030101",
"D+	c #050303",
"E+	c #5B5959",
"F+	c #030303",
"G+	c #010101",
"3 d d 8 d d 8 ^ G+` ` Z Z Z Z Z Z ` ` ` G+G+G+^ j j j j w G+` Y Z G+G+` G G Z Z n n n n ` G+` G+` Z ` G+Z Y Y ` Z G Y ` G+G+` G+G+` G+G+G+` ` Z Y Z ` G+G+G+G+G+G+G+` ` ` ` Z k d d d i Z G+G+G+9 1 | } | | | | | 4 8 8 8 8 8 d } | | | | | | | | | | | c ^ ^ ^ ^ _ 3 ",
"_ 8 8 8 8 d 8 _ G+` ` ` ` ` ` ` ` G+G+G+G+G+G+w c j j j _ G+` n n ` G+` Y G G Z n Y ` G+G+G+G+G+G+` G+G+` Y Y ` Z n Z G+` ` Z ` G+G+G+G+G+G+Z Z Z ` G+G+G+G+G+G+G+G+G+G+G+G+G+9 d d d 2 G+G+G+G+G+2 } | } | | | } d 8 8 8 8 8 d | } | | | | | | | | | | 1 k Y n n w w ",
"w 8 8 8 8 8 d k G+` G+` ` ` ` ` G+G+G+G+G+G+G+* 2 j i j k G+` n G Z ` G+` G G n Z ` G+G+G+G+G+G+G+G+G+G+G+Z Y Z ` Z ` G+G+` ` ` G+G+G+` G+` ` ` ` G+G+G+G+G+G+G+G+G+G+G+G+G+/ c d 8 d k G+` G+G+G+G+2 } | } } | } d 8 8 8 8 8 4 | | | } | | | } | | | } | 4 w G+` Z / ",
"* i 8 8 8 8 d 9 G+G+` ` ` ` ` ` G+G+G+G+G+G+G+G+k j i j 2 * G+Z G Z G+G+` Y G / ` ` G+G+G+G+G+G+G+G+G+G+G+` Z Z ` ` G+G+G+G+G+G+G+G+G+G+` ` ` ` ` G+G+G+G+G+G+G+G+G+G+G+G+G+x j d 8 8 x G+G+G+G+G+G+` i } | } | 1 8 8 8 8 8 8 4 | | } | } | } | | | } | | | 8 n Z Z Z ",
"G+2 8 8 8 8 d 2 * G+G+` G+` ` ` G+G+G+G+G+G+G+G+_ i i i c w G+Z Y Z G+G+Z Y Y Z ` G+G+G+G+G+G+G+G+G+G+G+G+G+Z ` G+G+G+G+G+G+G+G+G+G+G+G+G+` ` ` G+G+G+G+G+G+G+G+G+G+G+G+G+G+k d 8 8 i Z G+` v+k+k+p+5+k+!+%+_+!._+f+*+*+!.$ ).z.;.i.C.C.l.B.!.7.Q ].u u s | } 2 G ^ ^ ",
"G+9 8 8 8 8 8 i ( G+G+G+` ` ` ` G+G+G+G+G+G+G+G+/ c i i i 3 G+` Z Z G+G+Z Y Z ` ` ` G+G+G+G+G+G+G+G+G+G+G+G+` ` G+G+` ` G+G+G+G+G+G+G+G+G+` Z ` ` G+G+G+G+G+G+G+G+` ` G+G+G+2 8 8 8 9 ` G+d+l+l+k+k+n+f+s+1+7+2+(+(+(+! ! ! ! ! (+(+] 2+7+1+7+7+u+u+n+o+l+6.} 1 k ^ _ ",
"G+3 8 8 j 8 8 8 x G+` ` G+` ` ` G+G+G+G+G+G+G+G+G+k i c i 2 * G+Z Z ` G+Y G n ` G+G+G+` ` ` ` G+G+G+G+G+G+G+G+G+G+G+` ` G+G+G+G+G+G+` Y ` G+` ` ` G+G+G+G+G+G+G+G+` ` G+G+w j 8 8 8 ^ G+G+t+l+r+s+2+(+) ' - & & & ; ; > , , , , , , , , > - % ! (+2+s+r+r+n+I | 4 _ ^ ",
"G+w i 8 j j j 8 k G+` ` ` G+Y Y q.h+8+8+b+t+h+v+8+[+n.%.#.O.*.A+<+y+<+A+*.[+b+b+w+t+4+8+c+6+6+l+g+t+p+p+o+d+i+i+t+l+o+k+k+l+l+l+l+l+k+k+l+l+l+l+l+l+p+g+g+p+p+g+g+p+c+a+g+5+P.a.I.r.8+3+w+l+k+B++ ; = = & = = = = = & ; , , , > & = = = = = - = & % w.o+o+r+s } | i G ",
"G+* c 8 j j j 8 9 G+` ` ` G+` 3+k+k+l+o+u+r+l+p+g+p+n+o+i+v+9+9+4+4+v+h+0+r+m+n+m+m+p+s+1+m+o+r+r+r+m+u+u+m+m+o+m+s+s+s+q+q+u+u+u+m+m+u+u+u+m+m+m+m+m+n+o+r+n+r+r+o+k+f+o+l+p+k+l+d+t+e+m+o+k+b+a+$ + # . % & & ; - - ; > , , > & = = % % . . # b E+n+r+k+6+1 } | } k ",
"G+G+k 8 j j j j c / G+G+G+4+k+n+k+l+l+r+m+m+n+k+t+o+r+t+c+d+0+w+h+w+c+l+n+u+n+m+u+m+r+m+s+u+m+m+m+u+u+f+s+u+u+m+s+s+q+q+q+q+u+u+u+u+m+u+u+u+u+u+u+u+m+n+n+r+m+n+o+o+o+o+o+o+k+c+t+t+g+p+r+m+k+k+5+0+t+e+B+$ @ @ b + { # # # ~ # { + + @ $   B+r+k+m+u+n+k+p+1 } } | 4 ",
"G+G+_ i i i i i i ^ G+<+o+m+o+f+k+p+r+k+c+c+}+d+v+i+h+9+v+0+0+[+9+[+0+0+t+b+w+6+6+0+0+w+d+a+t+w+d+6+l+a+r+c+b+p+o+l+c+d+b+t+b+b+t+p+g+c+t+t+t+t+6+t+c+0+w+i+b+0+[+w+0+0+0+w+h+w+w+8+8+v+h+t+i+t+5+z+z+c+t+z+p+k+a+e+B+  E+$ $ E+B+j+e+a+a+a+e+e+o+o+m+m+r+k+1 } } } | ",
"* w k i i i i i i 9 5+n+q+u+r+m+k+t+0+*.* ` ` * +.x *.@+<+*.^+[.[.&.&.&.+.+.+.( / / ( x +.+.x *.*.w n / / +.+. ./ / w w w  .+.)++.+.+. .` ` ` @.( @.Z @.`.@./ q.+.x +. . . ./ `.+.+.+.x @+y+4+^+^+8+[+/+{+++a+|+e+e+]+j+j+B+  B+]+]+|+5+}+z+/+/+;+9+8+k+l+c+1 } } } | ",
"2 i j i i c i i A m+m+m+s+n+o+k+d+^+<++.+.*.<+*.^+O.#+#+#+#+%.H 6.I.#+r.O.[.r.r.r.e.e.#.0 u %.A #.e.#.r.e.e.r.#+r.m.%.I.A #.#+#+Q.#+O.O.^+9+r.r.e.I.I.#+#+#+e.Q.e.Q.m.O.r.e.e.Q.E.Q.#.6.6.].I.I.E.X.,+=+G.G. +!+!+C.~+~+~+~+b.;.i.C.G.|+++5+a.u n.8+x+4+b+d+4 } } } } ",
"j i i 2 2 c j G.o+o+m+u+u+r+6+x++.<+<+*.^+[.[.#+Q.I.I.Q.E.Y.].].d.6.e.#.X.].d.d.c.5.Q I I I I I ].].5.d.X.6.d.E.e.e.6.6.].d.Z.X.E.X.X.X.X.E.Y.E.E.E.,+P.X.v.5.E.X.6.E.X.X.X.X.E.P.H.v.5.1.~.Z.X.D.D.H.H.H.H.J. +!+~+_+-+T.&+*+-+T.-+&+~+~+ +G.a.{+[+x+^+b+i+4 } } } } ",
"c 9 _ w 2 i ~+u+k+k+r+m+o+9+( )++.^+O.O.Q.E.E.X.Z.P.P.Z.H.l.G.].d.d.I Q |.v.|.d.c.(.I _.F $.L =.|.I 5.d.d.|.5.].I ].d.P.5.5.f.v.$+,+=+$+D.D.J.Z.D.Z.P.P.P.D.P.P.X.E.P.Z.Z.H.Y.X.x.y.k.k.^.^.J.Z.H.d.P.D.D.H.v.=+=+G.%+$+=+G.S.~+S.S. +!+$+G.P.}+3+[+x+9+d+w+4 } } } } ",
"^ / G+G+k i q+u+u+r+k+^+/ )+<+O.I.I.#+I.Y.X.E.X.P.G.Z.Z.D.H.(.(.H.r e e /.k.1./.l.5.r r f 5 5 B I r 5.}.=.1.f.=.e e I H.(.v.H.D.Z.D.Z.Y.Y.X.P.Z.X.Y.F.g.D.Z.Y.Y.E.X.X.P.'+Z.Y.,+'+F.D.5.k.k.B.J.v.D./.k.D.x.$.$.^.k.F.$+F.$.R.%+%+U.J.J.h.!+Y.6.I.[+4+9+0+v+4 } } } } ",
"G+G+G+G+w c r+f+s+t+* Z `.*.e.].|.P.P.X.D.P.Y.P.P.P.D.X.v.k.N t /.t '.W /.N $.-.E o.D t B P N B L =.;.E -.L N ~.'.o B /.N B s.Z.P.].P.P.P.Y.Z.Z.X.Z.v.g.g.P.P.I.Y.D.Z.f.J.,+>+>+L.L.v.D.D.v.Z.D.H.v.1.k.H.v.k.T O $.1.F.A.l 9.&+B.>+y.h.L.L.<.(.6.[+4+^+h+9+4 } } } } ",
"G+G+G+G+G+k u+1+s+i+( <+^+Q.X.=+%+J.=+=+l.=+$+l.f.$.^.5.g.V f V D L s.s./.:.B.^.{.z.F C C ~.N C o ;.'.7.o.g.:.(.S.<.L ~.P P :.f.f.$.$.v.s.=+l.J.=+,+J.$+v.D.X.E.v.h.v.H.R.L.K.g.A.A.k.F./.1.D.d.c.c.c.c.|.g.t.h.W T 9.y.k.9.L.L.t.K.F.R.y.9.3.G.I.r.<+<+x+9+4 } } } } ",
"G+G+G+G+G+^ q+s+s+t+x r.I.X.,+Z.X.P.P.Y.E.X.Z.=+%+t.k.l.s.f 5 -.V 5 t F j..+R.}.B.V.u.O C ~.L J E u.V.i.S.&+2.3.D P 5 $.E 5 V l.l.B.t.$+=+Z.E.E.Y.P.Y.Y.,+,+X.Y.U.y.H.Z.$+R.J.1.y.H.v.v./.~.Z.Y.d.d.c.c.|.|.f.y.^.C 3.x.N :.g.$+J.y.U.F.R.h.t.P.#+O.+.*.v+v+1 } } } } ",
"G+G+G+G+G+` q+s+q+5+r.E.Y.P.'+R.H.=+%+v.D.=+P.$+B.B.i._.Z.L E B.V C O 3.A.F.G.s.s.}.B.3.7.D $.j.h.s.}.s.S.G.U.:.W O O $.^.o D a.<.o.B.B.G.Z.H.H.v.$+Z.v.R.$+X.P.H.A.M.F.,+J.>+'+H.x.v.v.R.y.D.P.c.d.E.Y.d.X.Y.Z.K.W T ..K P T J.D.D.c.|.c.|.x.R.Y.m.*.<+v+9+1 } } } } ",
"G+G+G+G+G+G+q+q+q+a+Q.X.J.$+'+R.f.J.$+F.k.v.!+$+$+S. +!+$+B.o.$.3.P s.f.|._.~.s.B.W -.~.g.:.h.~.D E 3.s.=.;.5.5.f.~.T :.^.o.S.$+ +%+%+$+J.$+v.k.%+J.x.f.R.J.D.H.X.L.V.H.U.h.K.F.1.x.F.H.%+F.D.d.d.d.d.X.X.D.Z.P.U.y.g.q q L O g.g.x.U N ..c.Z.y.l.%.*.<+w+h+%.u Q }.=.",
"G+G+G+G+G+G+u+q+s+5+Q.,+k.Z.,+y.g.y.R.B.J.D.P.Z.F. +G.s.J.].l.<.f.$.~.B._.<.=.=.<.h.F =.=.}.=.=.;.-.^.=.=.~.}._.^.^.:.5.~.G.].F.s.G.%+%+P.Z.H.J.y.s.y.t.R.Z.H.U.=+=+P.D.J.y.y.g.V g.~.J.P.D.D./.v.K U Y.d.D.d.H.y.U.P.D.U 5.A.y.P 1.N l P J.].|.d.#+*.3+r+l+[+/+e+f+m+",
"G+G+G+G+G+G+m+q+q+6+Q.K.B.F.=+g.L.K.S.g.F.H.,+$+%+$+J.R.^.e (.L F { ~ ~ ~ ~ ~ ~ ~ ~ ] ).=.F D <.%+~ ~ ~ ~ ~ ~ ~ ~ ~ ~ ~ $.(.~ ~ ~ ~ ~ ~ ~ ~ ~ ~ ~ ~ b L.F.~ ~ b L.,+H.g.R.K.b ~ ~ $.~.R.H.y.K.~ ~ ~ ~ ~ ~ ~ ~ ~ ~ z s.N 1.v.U.k.P q q l f 1.(.(.s e.*.8+n+o+8+{+a+j+m+",
"G+G+G+G+G+G+m+u+u+6+r.$+'+h.B.K.&+U.R.B.%+=+%+'+F.R.s.&+B.=.=.$.{ - - - - - - - - - - ! D F F =.<.- - - - - - - - - - - $.=.- - - - - - - - - - - - b L.R.- - b J.=+F.s.o.R.b - - g.h.M.L.f.Z.- - - - - - - - - - - ] l g.J.F.y.9.P q l q $.(.].s u &.h+o+l+v+;+5+j+f+",
"G+` G+G+G+G+m+m+u+5+%.$+M.:.g.%+s.y.K.l.H.$+%+K.^.B.i.o.t.L V $.~ - ] !.!.!.!.y y z - - $.D D ^.v.- - ] y !.!.!.!.7 y y $.L >.>.w.!.>.- - { !.{.!.w.7.B.%+- - z  +T.3.$.-.R.b - - P.F.h.K.D.E.- - ] X '.'.!.'.X ) - ~ x.v.J.R.J.U.g.g.$.:.f.(.s H 0 *.8+m+o+8+[+|+j+f+",
"` ` ` G+G+G+n+m+u+5+%.$+'+H.&+t.h.j.9.8.S.R.&+V.h.B.R.R.h.8.<.=.~ - b 5.}.}.=.<.^.E >.F F E t D M - - z <.=._.}.5.}.i.^.=.=.z.o.%+B.o.- - z s.R.3.9.9.o.u.- - b l.i.t.u.-+~+b - - D.y.g.J.H.X.- - R D.v.5.v.D.x.~ - ~ P U.F.F.H.F.y.y.h.h.l.5.6.H 6 +.x+p+o+v+{+5+f+s+",
"` ` ` ` ` G+r+m+u+6+6.L.!.w.>.] z R X N.t.R.R.i.k.l.o.o.o.i.i.^.~ - ~ z b b b z b b z E L ^.$.F D - - ) ~ ~ ~ ~ b t.o.t.;.i.i.t.g.B.v.- - b K.h.j.4.R { { - - { L.B.%+$+$+%+b - - '+V.V.h.K.F.- - { y !.'.{.!.{.) - ~ A.U.x.H.H.U.g.g.L.^.B._.%.%.[.( ++j+p+v+3+r+q+s+",
"G+G+G+` G+G+r+m+m+5+ +j..+!.).8.j.2.V (.g.R.'+L.:.g.j.-.:.g.o.o.{ - - - - - - - - - - ~ P f P E D - - - - - - - b i.E 8.o.&+g.3.3.3.~.- - b R.~./.0.0.W 8.- - { .+.+t.~+V.t.z - - <.L.V.9.h.L.- - - - - - - - - - - { /.L U.F.U.F.U.U.k.F.5.l.I.r.&.`.3+n+k+v+z+j+f+f+",
"G+G+G+` ` ` o+n+n+5+a.s.l.v.1.L T 9.A.T T z.L.W E ^.M.&+8.t.u.3.3.R z b z z z z z ] - - < [ < [ o - - ] y y y y -.=.t.3.3.V.t.t.u.M.F - - z 3.P P A.9.T ~.- - b B.u.T.-+.+j.{ - - V L.t.9.N $.- - ) ~ ~ ~ ~ ~ ~ ~ { B.g.T R.M.g.T A.J.F.P.X.G.I.[.&.`.8+o+o+y+z+j+j+f+",
"G+G+G+G+` ` l+r+r+d+E.^.3.j.X y J 2.9.V S C W O C E K.R.u.'.7.E i.7.-.;.L t B k.t a - - < < g J $.- - z ~.B L F ;.^.B.o.3.7.).&+&+L.o - - { J S $.0.2.J X - - z h.J.P.=+z.N.z - - '.z.B.h.T t.- - b k.v.5.$.k.$+g.y.U.V.V.R.g.v.A.K.J.J.J.6.I.I.#+&.@+9+o+o+/+;+{+a+~+",
"G+G+G+G+G+G+o+n+n+}+Q {.{.X -.J J 4.S V S < C O 5 h B.$+u.'.t.^.% - y L T C B f.t R - - V l q h.^.- - z /.t O T F F M ;.^.u.'.B.%+t.[ - - m g 2.V R 2.J J - - { {.3.B.3.M.R.b - - z.L.M.2.L.o.- - b x.F.=.C ~.%+v.F.>+R.J.J.v.H.J.y.k.g.v.Q.*.[.O.O.@+9+k+k+{+a+/+e+f+",
"G+G+G+G+G+( o+m+n+5+G.z.!.{.'.y X X a S 2.g [ '.).{.z.7.y ).;.-.% - - - - - - - - - - % O C C W V - - - - - - - - - - - u.t.J X 8.z.'.- - m < 2.g a {.y y % - - - - - - - - - - % =+V.N.M.M.o.- - z y.B.L < L s.h.U J.F.J.J.B.K.>+v.R.s.n.[.H 0 6 m.*.[+r+l+3+]+]+B+B+",
"G+G+G+G+^ 9 o+n+n+}+a.^.u.z.7.).z.2.S 2.S S S 7.!.z.7.X 7 '.{.a m % - - - - - - - - % z L t B V T - - - - - - - - - - - R ).!.R {.-+*+- - m S 2.2.S 0.z.'.z ) - - - - - - - - ) b y.V.%+f q f.- - z g.u.'.l T l.u.C T 9.O g.K.L.K.J.y.s.I.A K ].H 6.*.3+n+l+;+]+]+$ 1+",
"G+G+` _ 2 2 l+r+r+b+++8.-+*+W 8.z.-+'.{.2.0.N.o.B.~+z.j.'.'.*+h < m m O B.E ^.L [ 5 9.:.=.'.L ~.3.W [ [ F -.-.i.< m a [ {.*+'.'.'.T.&+R.t.N.2.j.O 7.-+-+E 3.z.-+z.%+B.M.M.o '.u.i.j.L.u.[ 7 3.&+g.j.j.z.b { R h.g.l g w.g 9.B.R.K.K.k.f.%+P V D r s 6 ^+l+g+9+/+|+j+E+",
"G+* 3 2 2 _ l+o+r+}+6.S.o.7.7.7.T.*+7.J {.8.-+.+-+-+u.0.N.h y ).S a a J 3.y E t.[ : C B K E F K P [ : O t.J X 8.g a : J ).y ).N.9.t.-+V..+_+3.j.J -+z.u.7.7.8.B.S.R.z.z.o.'.{.B.S.-.3.N.X S M.z.b ] >.z.).b { !.g.l 2..+{.j.&+&+L.V.x.v.M.y '.W D Q p [.l+p+@+y+9+;+/+",
"( k 2 9 ^ G+o+o+k+i+a.S.S.z.8.8.T.&+-+X u.&+7.>.!.8.z.0.!.>.R X y S y '.'.X h J : l $.t 5 f f f L V : l {.!.X '.{.7 7 y X R !.2.j.z.z.w.w.*+S.7.{.&+T.u.^.V.t.i.t.&+_+*+T.z.V.V.R.W {.N.w.4.4..+T.S.}.o.u.$+E.G.^.: S 1+4.N.u.k.y.F.1.U V.{.'.D G.6.@+8+r+o+A c j A A ",
"9 2 k w G+G+k+k+r+w+n.o.8.W W W u.&+z.-+!.!.!.4.{.t.T..+>.X R R 7 7 7 X ).7.7.'.l 5 &+D l 5 l 5 S.h.q 5 '.W 7.'.y 7 7 R R 7 X w.N.T.u.y 4.'.X '.u.z.&+z.W X 3.u.M.~+_+-+&+-+.+M.&+3.0.V.*+>..+L.J.D.D.D.H.X.P.J.K.C O .+X 0.B.T 2.K.V B l.X !.v n.;+&.v+o+r+1 1 1 1 1 ",
"2 k / G+G+G+k+r+r+w+{+t.{.j.X W T.u.u._+u.t.-.3.!.'.).u.!.y 7 a y !.{.7 >.y 7.L l [ V.E : 5 < < u.7.l 5 8.{.>.R y {.!.7 a 7 y ).8.).{.'.-.h.o.V.T.8.u.t.J X '.{.{.*+*+&+~+.+.+0.0.J [ 0.1+b N.K.L.N.M.L.Z.=+K.L.L.0.0.N.4.2.N.t.N.L.q N G.j.{.;.6 ;+p 9+n+n+1 1 1 1 1 ",
"3 ` G+G+G+G+l+k+l+[+n.3.X {.R 3.8.V.~+-+u.E ).t.u.'.'.^.7.X a 7 y {.j.2.!.b.~+z.< J 3.C : [ < : V W < < b.i.z.!.{.{.!.y g g !.8.^.X 3.t.8.'.-.8.T.~+*+u.'.X {.X 0._+*+{.>.w.j.j.0.S a .+j..+>..+V.A.j.K.x.F.L.F.F.N.V.j.V :.i.}.t.h.g l $+R.{.b.u 0 p x+r+!+1 1 1 1 1 ",
"` G+G+G+G+G+b+t+d+8+n.g.j.R R J :.&+~+V.-+!.'.3.;.t.^.o {.>.a J h X J W s.-.o.7.[ 5 W o < [ < [ E T [ [ 8.^.^.<.O J X h 7 a X J E t.;.u.7.{.{.z.V.%+u.:.J R 4.T 9.~+N.X R .+X j.0.2.g X z { { R >.{ >.M.M.N.N.y.g.L.h.t...N c.E.y..+O V G.l.{.T.u H p 4+l+++1 1 1 1 1 ",
"G+G+G+G+G+G+w+d+i+{+{+l.:.7.w.J 3.z.&+N.7.*+N.7.z.T.E h '.X R y 0.O O u.-+7.&+W < [ E 5 l [ [ < f W g [ -.t.*+T.3.O T 0.7 7 2.'.h -.b.z.'.*+'.7.V.C.z.V 7 {.j.:.&+w.4.w.*+!.4.4.R g : m R j.B.z.z.{.!.(+7+M.L.M.0.u.V k.g.N |.E.~.~.|.~.a.l.u.o.Q 6.[.y+t+++1 1 1 1 1 ",
"G+G+G+G+G+G+8+w+0+Q.++=+9.j.w.R J N.)..+N.z.T.&+b.w.{.h h X y !.2.O h ).z.o.i.E [ h W [ [ f 5 < C W h 5 -.S.T.z.'.h O 2.X y J h h !.!.;.T.T.7.*+T.8.z.O 4.N.:.K.'+.+.+w.).4.R z m m ] z V.$+J.v.X.d.D.'+'+B.J.:.9.M.P U y.f.E.6.(.|.d.X.r.m.6.G.Q %.@+y+d+Q.} 1 1 1 1 ",
"G+G+G+G+G+G+0+i+0+{+++i.w.w.2.R J j.X S R h z.{.y X 7 a a g J E E h h o ^.^.3.W f '.o < < f 5 g J ).{.f j.L o.8.h h o E W J g g R X {.y 8.T.h J ^.u.o.E X N.z.*+t.*+*+).h .+R m z z ] z R !.h.R.u.N.y.H.1.g.g.j.j.:.: U D.N (.E.Y.X.d.I.[.&.r.6.%.;+@+<+i+[+1 1 1 1 1 ",
"` ` G+G+G+G+g+d+i+}+++C.1+!.V.!.X S S 2.g 7 .+X a 7 y m a a O L f 7 J 5 L ~.h.-+f W {.o f L t f o z.V E -+$.^.f [ 7 [ e _.D f [ h =.D E ;.;.E F _._._.;. +++C.*+C.~+!+;.$ w.>.X w.w.w.z ] R '.*+!.!.9.9.{.'.s.R.h.g.9.d.I.B ~.X.E.e.E.A r.[.*.&.[.p *.<+h+8+4 1 1 1 1 ",
"Y Y Y Y Y ` g+k+r+c+m.++ +h.R.N.*+{.{.u.z.).T.).X 4.S g a a J C < h ).h E F =.i.o.}.i.v e t t F ;.C._.i.}.;.^.E J h f e ].Q I I Q a.6.a.Q  +v ++a.Q a.++n.O.m.n.++m.m.++b.~+ +e }.l.^.8.'.'.>.R { z b (+] 8.E.d.D.5.d.E.|.U 5.d.I.Q.H H #.Q.[.x &.p +.<+i+w+2 } 1 1 1 ",
"G G G G G Y o+n+m+}+&.O.e.6.6.6.G.D F !+|+]+|+ +o.D D D E E e F ;.v Q a.a.a.Q a.a.6.n.;+u I e M ++++a.6.++Q |+]+Q a.a.u %.0 %.%.u u %.n./+{+/+;+n.0 p &.&.&.<+<+[.&.*.[.{+%.%.Q ;.!.@ b b b + b X j.t.b.b.{+#.H E.E.e.O.#.H #.n.n.e.O.m.&.&.&.[.[.*.* x+g+i+w 4 1 1 1 ",
"G G G G G Y o+r+n+}+* G+* (  .q.+.[.p @+@+&.,.,.[.[.6 6 m.6 6 p ,.[.p [.,.p p &.@+@+@+*.p &.6 6 ,.@++.+.+.[.;+;+&.@+@+<+*.&.*.&.[.p ,.@+`.`.`.( <+*.)+* G+G+` * @.@.` @.)+* * G+`.,.,.;+{+/+++m.^+^+q.Z Z @.( w `.+.+.@.( `.`.<+&.*.+.+.+.@+@++.`.)+x+0+d+w+G+i } 1 1 ",
"G G G G Y Z r+r+r+k+i+h+i+i+i+w+v+x+4+4+x+4+4+4+4+4+4+x+x+x+v+v+w+h+9+9+x+9+x+x+x+x+x+4+y+y+y+<+<+y+<+<+<+A+A+A+`.)+`.A+A+A+A+A+A+x+`.y+A+G+G+D+D+`.A+` A+@.@.A+`.)+`.A+<+y+y+y+<+`.A+D+:+D+:+)+`.<+4+4+<+<+y+y+y+4+x+9+w+h+9+v+x+9+4+x+9+9+9+9+x+h+l+g+w+b+`._ 4 1 1 ",
"G G G Y Y ` r+n+n+n+n+o+r+r+r+k+l+l+p+c+g+b+b+d+d+d+d+d+d+b+c+t+t+d+i+i+0+i+i+d+d+0+0+w+w+w+h+h+v+9+v+v+v+9+9+9+4+<+y+4+x+x+4+9+x+w+x+v+w+A+G+A+<+y+x+`.9+y+A+<+A+y+y+y+x+8+h+h+0+h+v+9+x+8+x+y+v+w+b+i+v+9+v+v+v+w+0+z+t+g+c+t+0+d+0+w+w+w+v+v+w+i+l+t+b+|+h+` 8 1 1 ",
"Y G G Y Z ` o+r+r+m+n+o+r+k+r+o+l+t+t+c+c+d+c+d+i+b+b+g+d+i+w+w+w+h+w+w+h+w+i+0+w+h+v+v+8+v+v+9+v+9+x+x+x+x+9+x+9+x+y+y+y+4+x+x+x+v+4+y+v+x+D+A+y+y+y+y+y+y+<+<+A+<+<+4+y+9+8+h+0+i+0+0+0+0+h+v+w+b+t+p+d+v+d+g+8+0+v+f+n+g+p+t+b+0+b+l+b+b+b+w+0+h+w+b+a+e+e+G+k 1 1 ",
"G G Y Y Z ` p+o+o+o+k+l+o+o+l+p+c+c+t+t+b+0+w+0+w+b+d+b+w+w+v+v+h+v+8+8+8+h+h+h+v+9+9+9+9+9+x+4+9+9+4+4+^+x+9+4+9+v+4+y+y+y+4+4+4+y+9+4+y+y+y+y+<+A+<+y+<+<+y+y+y+4+y+d+[+9+8+h+0+0+0+0+0+c+c+0+x+c+d+b+d+0+b+p+w+p+l+p+n+k+r+n+l+c+c+p+g+p+c+d+t+v+h+5+r+f+s+9+/ d 1 ",
"Z G Y Z G+G+:+:+@.:+:+:+@.@.:+Z Y * :+:+` ` C+` C+C+` C+` ` ` ` C+( 9 9 x G+` ` ` ` ` Z Z Z / n n  .G w w w w w w w  . .n / / Z ` G+G+` ` ` ` G+` ` Z n n Z / ^ 3 ^ _ k 9 2 3 ` ` ` ` ` ` ` ` ` ` @.@.` ` ` n w Y @.q. .q.q.q.q.p.p.G G @.@.Z Z G+A+x+z+B+f+f+3+A+6 4 ",
"` Z Y ` G+G+G+G+G+G+G+G+G+G+G+` Z G+G+G+G+G+G+G+G+G+G+G+G+` ` G+G+3 2 k ` G+G+G+G+G+` Z Z n n Y ` ` ` ` ` ` ` ` ` ` G+G+G+G+G+G+G+G+G+G+G+` G+G+G+` / n Y Z ` w ^ Z n _ 3 2 k / G+G+G+G+G+G+G+G+G+G+G+G+G+G+` Z ` ` ` ` ` Z Y n n G G G G Y ` ` G+G+@.9+[+c+e+j+|+[+5+",
"` G+G+G+G+G+G+G+G+G+G+` G+G+G+` Z ` G+G+` ` G+G+G+G+G+G+G+G+G+G+( 9 2 w G+G+G+G+G+` Y Y Z Z Z ` G+G+G+G+G+G+` ` ` ` ` G+` ` G+G+G+G+G+G+G+G+G+G+` Z Z Z ` G+G+Z Z G+` n / ^ G Z G+G+G+G+` ` ` G+G+G+G+G+G+G+` ` G+` ` ` ` Z Z Y Y Y n Y n Z G+` ` G+G+* ` ` x+p+z+x+8+",
"` G+G+G+G+G+G+G+G+G+G+` ` G+G+` ` ` ` G+G+G+G+G+G+G+G+G+G+G+G+G+* _ 3 ` G+G+G+G+` Y Y Z ` ` ` G+G+G+G+G+G+G+G+` ` G+G+G+G+G+G+G+G+G+G+G+G+G+G+G+` Z ` ` G+G+G+G+G+G+G+G+G+G+` Z ` G+G+Y Y Y ` ` ` G+G+G+G+G+G+G+G+` ` ` ` ` ` ` ` ` ` ` G+` G+G+` G+G+G+G+G+G+A+v+@+p ",
"G+G+G+G+G+G+G+G+G+G+G+` ` G+G+` ` ` G+G+G+G+G+G+G+G+G+G+G+G+G+G+G+G+G+G+G+G+G+` Z Y n Z ` ` Z ` G+G+G+G+G+G+` ` G+G+G+G+G+G+G+G+` Z ` G+G+G+G+` ` ` ` G+G+G+G+G+G+G+G+G+G+G+` Z Z ` ` Y G Y ` ` Y G+G+G+G+G+G+G+G+G+` ` ` ` ` ` G+G+G+G+G+G+G+G+G+G+G+G+G+G+G+G+G+G k ",
"G+G+G+G+G+G+G+G+G+G+G+G+G+G+G+` ` G+G+G+G+G+G+G+G+G+G+G+G+G+` G+G+G+G+G+G+G+G+` Z Z Z ` G+` Z Z G+G+G+G+G+G+` Z G+G+G+G+G+G+G+G+Z G Y G+G+G+G+` ` ` G+G+G+G+G+G+G+G+G+G+G+G+G+` ` ` Z Z Z Z G+G+Z G+G+G+G+G+G+G+G+` ` ` ` Z ` ` G+G+G+G+G+G+G+G+G+G+G+G+G+G+G+G+G+G ^ ",
"G+G+G+G+G+G+G+G+G+G+G+` Z ` ` Z ` G+G+G+G+G+G+G+G+G+G+G+G+` ` G+` G+G+G+G+G+G+` Z ` G+G+G+G+` ` G+G+G+G+G+G+G+G+G+G+G+G+G+G+G+G+Z Y Y G+G+G+` ` ` G+G+G+G+G+G+G+G+G+G+G+G+G+G+G+G+G+` ` G+G+G+G+G+G+G+G+G+G+G+G+G+` Z Z Z Z Z ` G+G+G+G+G+G+G+G+G+G+G+G+G+G+G+G+G+G ^ "};
