/* XPM */
static const char * fs2_btn_update_xpm[] = {
"131 58 256 2",
"  	c #151B21",
". 	c #121619",
"+ 	c #212B32",
"@ 	c #30444E",
"# 	c #2C4D57",
"$ 	c #47686E",
"% 	c #336165",
"& 	c #677E7F",
"* 	c #010303",
"= 	c #577772",
"- 	c #5E9C82",
"; 	c #67BC97",
"> 	c #4B5651",
", 	c #010503",
"' 	c #5B9377",
") 	c #031009",
"! 	c #568C70",
"~ 	c #6EA488",
"{ 	c #5DB183",
"] 	c #56A077",
"^ 	c #719682",
"/ 	c #010D06",
"( 	c #4F8265",
"_ 	c #82C09C",
": 	c #010B05",
"< 	c #030805",
"[ 	c #49775B",
"} 	c #0F1712",
"| 	c #75AE8B",
"1 	c #52745F",
"2 	c #52996C",
"3 	c #355641",
"4 	c #223629",
"5 	c #131E17",
"6 	c #2D3B32",
"7 	c #010703",
"8 	c #406B4E",
"9 	c #77B78D",
"0 	c #79B78D",
"a 	c #698E75",
"b 	c #121513",
"c 	c #112116",
"d 	c #4B9160",
"e 	c #2D5339",
"f 	c #6BAB7F",
"g 	c #263C2D",
"h 	c #74A784",
"i 	c #354239",
"j 	c #699E78",
"k 	c #1F2E23",
"l 	c #77AF86",
"m 	c #010903",
"n 	c #192A1D",
"o 	c #52835E",
"p 	c #679A73",
"q 	c #4C6C54",
"r 	c #335D3C",
"s 	c #2D4933",
"t 	c #3F5B45",
"u 	c #70A17B",
"v 	c #010B03",
"w 	c #64906C",
"x 	c #19241B",
"y 	c #A3B9A7",
"z 	c #010D03",
"A 	c #487650",
"B 	c #5E8665",
"C 	c #455C49",
"D 	c #BACCBD",
"E 	c #3F6E46",
"F 	c #45654A",
"G 	c #577C5C",
"H 	c #374A39",
"I 	c #5F7C62",
"J 	c #90A592",
"K 	c #3D6540",
"L 	c #537255",
"M 	c #537954",
"N 	c #688669",
"O 	c #779778",
"P 	c #010B01",
"Q 	c #010901",
"R 	c #010701",
"S 	c #010501",
"T 	c #030903",
"U 	c #010301",
"V 	c #030703",
"W 	c #060A06",
"X 	c #030503",
"Y 	c #0B120B",
"Z 	c #446344",
"` 	c #3E5A3E",
" .	c #0A0E0A",
"..	c #0C0F0C",
"+.	c #355B34",
"@.	c #4C6C4B",
"#.	c #1F351E",
"$.	c #3D553C",
"%.	c #3B503A",
"&.	c #4C644B",
"*.	c #425441",
"=.	c #172816",
"-.	c #162415",
";.	c #385335",
">.	c #2C3E2A",
",.	c #30422E",
"'.	c #364C33",
").	c #455B42",
"!.	c #364734",
"~.	c #2E4B29",
"{.	c #283D25",
"].	c #32472F",
"^.	c #5F745C",
"/.	c #687B65",
"(.	c #3A4E36",
"_.	c #73906D",
":.	c #2B3629",
"<.	c #375430",
"[.	c #3D5937",
"}.	c #4B6944",
"|.	c #536A4E",
"1.	c #596C55",
"2.	c #798A75",
"3.	c #2D4427",
"4.	c #56714F",
"5.	c #66845E",
"6.	c #3D5336",
"7.	c #4D6446",
"8.	c #5C7255",
"9.	c #1F2B1B",
"0.	c #273323",
"a.	c #617B58",
"b.	c #3B4A36",
"c.	c #0E110D",
"d.	c #181B17",
"e.	c #455C3C",
"f.	c #192116",
"g.	c #172511",
"h.	c #273A1F",
"i.	c #324629",
"j.	c #3A4F31",
"k.	c #050903",
"l.	c #1D2B16",
"m.	c #2B4021",
"n.	c #090D07",
"o.	c #364A2C",
"p.	c #161E12",
"q.	c #36462E",
"r.	c #394931",
"s.	c #3E4F36",
"t.	c #4F5E48",
"u.	c #728469",
"v.	c #435838",
"w.	c #212F19",
"x.	c #324229",
"y.	c #44543B",
"z.	c #4D5C44",
"A.	c #24321B",
"B.	c #314127",
"C.	c #4C643D",
"D.	c #141A10",
"E.	c #566F46",
"F.	c #1D2518",
"G.	c #4A5C3E",
"H.	c #36422E",
"I.	c #54624B",
"J.	c #4B5743",
"K.	c #272D23",
"L.	c #36462A",
"M.	c #3E4F32",
"N.	c #11150E",
"O.	c #425237",
"P.	c #414C39",
"Q.	c #373B34",
"R.	c #1B2414",
"S.	c #3B4B2E",
"T.	c #5C6C4F",
"U.	c #28341E",
"V.	c #2E3B23",
"W.	c #192013",
"X.	c #415232",
"Y.	c #242D1C",
"Z.	c #333E29",
"`.	c #3B4433",
" +	c #2B3720",
".+	c #536245",
"++	c #030501",
"@+	c #313D25",
"#+	c #36422A",
"$+	c #3E4A31",
"%+	c #4F5E40",
"&+	c #060705",
"*+	c #49553D",
"=+	c #0A0B09",
"-+	c #1E1F1D",
";+	c #5A644F",
">+	c #3B452E",
",+	c #364127",
"'+	c #464E38",
")+	c #050603",
"!+	c #363E25",
"~+	c #4A5534",
"{+	c #21231D",
"]+	c #8A907E",
"^+	c #424A30",
"/+	c #10120B",
"(+	c #393F2A",
"_+	c #64655F",
":+	c #030301",
"<+	c #232318",
"[+	c #0A0A07",
"}+	c #1F1F17",
"|+	c #16150F",
"1+	c #1A1914",
"2+	c #262520",
"3+	c #29271E",
"4+	c #34322B",
"5+	c #6E6B60",
"6+	c #2E2B21",
"7+	c #322E25",
"8+	c #2A251B",
"9+	c #13110D",
"0+	c #1E1A13",
"a+	c #454038",
"b+	c #0F0D0A",
"c+	c #3B352C",
"d+	c #585044",
"e+	c #4E473D",
"f+	c #5F574B",
"g+	c #251F17",
"h+	c #16130F",
"i+	c #332A1F",
"j+	c #2F271D",
"k+	c #3F3427",
"l+	c #191510",
"m+	c #201B15",
"n+	c #372D22",
"o+	c #2D251C",
"p+	c #4E4031",
"q+	c #231D16",
"r+	c #6E5C48",
"s+	c #7E6A54",
"t+	c #090705",
"u+	c #2A221A",
"v+	c #15110D",
"w+	c #62503D",
"x+	c #584837",
"y+	c #46392C",
"z+	c #272019",
"A+	c #1C1712",
"B+	c #120F0C",
"C+	c #0D0B09",
"D+	c #060302",
"E+	c #030101",
"F+	c #030303",
"G+	c #010101",
"G+G+G+G+G+G+G+G+G+G+G+G+G+G+G+G+G+G+G+G+G+G+G+G+G+G+U R m U U U Q m 7 U U U U U G+G+G+G+G+G+G+G+G+G+U U G+G+U U G+G+U U S 7 7 R , , S S U S S , 7 7 R R m 7 G+G+U G+G+G+G+U U U R Q Q Q Q S U G+G+G+U G+U U U S R S U U G+G+G+G+G+U U U U S S S S U U G+G+G+U U U U U ",
"U G+G+G+G+G+G+G+G+G+G+G+G+U G+G+U G+G+G+U U G+G+G+G+G+S m S U 7 v / m U U U R 7 7 S G+G+G+G+G+G+G+G+G+U G+G+U U G+U R , R 7 / : m m S U U S S 7 7 7 , R 7 S U U G+U G+G+G+U U U S R R S S U G+G+G+U R R R U U S R S U G+G+G+G+U U U U U U U S S S U U U U U U S U U U ",
"Q S U G+G+G+G+S R R R R R R R R S U G+G+S U G+G+G+G+G+R m S U 7 : / m U U U m m m Q S G+U U U U U U U U U U S S U S 7 7 S 7 : : R R U U U U U S S , , , S U G+U U U G+G+G+G+G+U G+G+G+G+G+G+G+G+U U S S U U U S R R S G+G+U G+U U U U U U S S R S S U U U U S S U U U ",
"m m S G+G+G+U R m m Q R R R R R R S G+G+U G+G+G+G+G+U 7 : S U 7 : / m U U U Q m m m m S S S , 7 7 , , S S S Q m R R 7 7 S R m R U U G+G+U R S U U S , , U G+G+G+U U G+G+G+G+G+G+G+G+G+G+b+u+8+0+0+z+q+g+n+f+i+n+j+8+m+A+i+z+v+l+l+l+l+8+f+a+l+v+/+b+[+U U S S U U G+G+",
"m 7 U G+G+G+G+U U U U U U U U U U G+G+G+U G+G+G+G+G+S m : , G+7 v : 7 U U U R m : : m m 7 7 , 7 m : / ) / : m v z : : 7 S U U G+G+G+G+U Q m Q S U S , , U G+G+G+U U U G+G+G+G+G+G+G+G+A+g+q+u+o+i+y+e+d+f+5+_+_+5+_+_+_+5+5+_+_+5+_+d+f+s+]+p+p+k+o+g+l+&+R R U U U U ",
"U U U G+G+G+G+G+G+G+G+G+G+G+G+G+G+G+G+G+S U G+G+G+G+S : : R G+R v : R U U G+U S 7 m m : 7 7 S S 7 : ) ) ) ) m Q : / : 7 S G+G+G+G+G+G+U Q Q Q S U R 7 7 U G+G+U U U U G+G+U U G+G+G+G+m+g+4+d+5+5+/.& & = $ $ $ $ $ $ $ $ = & & & ^ & = = & 2.]+r+n+n+k+l+S S U U U U ",
"G+G+G+G+G+G+G+G+G+G+G+G+G+G+&+l+h+l+g+u+l+|+l+l+h+A+9+n.n.[+t+C+n.n.C+l+q+g+A+8+..|+u+8+o+i+o+8+j+6+c+<+<+<+8+7+k+n+n+n+i+i+i+i+i+i+i+i+i+i+n+i+j+j+j+j+j+o+o+o+u+7+o+u+z+z+v+b+9+0+h+z+o+e+> $ $ $ = $ $ % % % % % % % % % % % % $ $ $ = $ $ _+d+n+i+n+[+U U U U G+G+",
"U G+U G+G+G+G+G+G+G+G+G+G+0+n+n+j+k+w+y+i+j+8+j+y+k+m+h+9+9+b+b+v+l+0+y+x+p+x+x+j+s+]+x+k+y+y+y+x+w+w+x+x+k+x+s+s+s+r+r+w+w+r+x+p+w+w+w+x+x+x+x+p+y+k+y+p+y+k+k+n+d+k+i+j+n+i+m+g+n+p+i+u+l+9+-++ + @ > $ $ $ $ % # # # # # # # # @ @ @ 6 + + 6+n+n+u+A+X G+U U G+G+G+",
"G+U U G+G+G+G+G+G+G+G+b+n+y+n+i+i+y+x+x+p+n+u+k+k+u+z+q+0+A+l+A+z+i+p+w+p+x+w+x+k+x+s+w+p+x+x+w+w+d+s+r+w+x+s+s+r+r+r+r+w+w+w+w+x+w+w+w+w+w+w+w+x+p+y+y+p+p+k+k+k+k+k+k+n+z+z+z+u+u+k+p+j+u+q+B+v+l+h+b b b .                   . b c.B+A+q+z+y+x+k+o+m+)+U U U U G+G+",
"G+G+G+G+G+G+G+G+G+t+k+x+k+f+n+j+k+n+z+z+3+q+v+m+l+9+h+0+0+1+9+1+0+0+u+g+A+8+8+0+0+A+q+7+u+A+q+8+j+7+y+z+g+o+k+i+z+q+g+u+q+z+u+j+o+z+u+u+u+u+8+u+z+0+A+m+g+0+1+A+0+0+0+A+l+A+l+|+v+B+B+0+v+A+m+v+B+[+C+C+[+[+D+D+t+[+t+[+9+D+D+t+t+C+b+v+A+q+g+z+y+p+n+u+&+U U U G+G+G+",
"U G+G+G+G+G+G+)+6+p+r+w+k+x+n+u+0+n.* U U * W n.n.n.n. ./+} N.Y Y Y W W W < , , V W W W W Y  .< 7 , , W W V , , < < < < W )+W W W < U U U X V X S V &+V , k.W n.W < < V , &+W W < < < , X , U , T W n.n. .n.W X , U U )+, W X < < * * U , : , G+&+u+g+A+)+U U G+G+G+G+",
"G+U G+G+G+G+b+x+x+x+s+p+k+n+q+/+n.W W n.n. ./+|+p.W.p.W.9.#.0.9.W.p.N.N.p.p.p.f.-.=.n 4 k n n -.x p.-.f.p.W.p.f.9.9.k x W.W.R.p.D.N./+N.p.p.W.9.9.W.W.W.f.R.R.R.W.D.p.g.R.R.9.R.l.9.9.0.p.p.g.g.w.w.F.R.l.R.p.W.R.p.D.p.D.c -.c N.Y n.Y } c Y )+G+X l+v+V U G+G+G+G+U ",
"G+G+U G+:+o+k+k+x+w+w+y+8+B+W n.[+n./+N.N.p.R.F.F.F.Y. +{.{.{.#.-.l.U.{.{.{.{.].>.s s s s s >.>.].{.U.0.{.w.-.-.#.A.{.{.@+U.Y.U.U.U.U.Y. +w.w.Y.,+V.U.L.].A.U.A.A.U.U.U.U.Y.V.i.o.i.6.6.h.l.A.A.U.A.w.l.A.l.R.A.V.@+ +A.Z.0.:.,.0.:.0.Y.F.x /+=+* )+l+9+V G+G+G+U U U ",
"G+G+G+U p+w+n+n+y+x+k+9+V )+W /+D.D.R.9.Y.U.Z.V.V.@+L.r.,.>.h.h.s ,.3.o.3.h.{.s s !.t Z F %.,.s ].h.h.3.i.>.,.>.h.V.,.q.j.L.q.!+#+>+,+,+S.@+B.@+V.V.V.B.V.V.U.A.V.@+@+L. +U.S.v.6.6.e.v.x.A.m.l.w.A.w.w.#.l.g.g.w.g.g.D.9.A.w.A.9.9.w.l.F.D.Y n.X &+l+9+X G+G+G+U U U ",
"G+G+G+G+r+w+w+y+n+/+, )+[+D.9.F.W.9. +U.A. +V.Z.Z.@+B.x.'.'.i.e 3 3 ;.6.[.;.r.].e e [ ( ( t s e ,.(.;.[.'.%.3 3 s L.'.q.L.Z.B.,+@+ + +U.V.@+U. +M.e.B.@+ + +A.A.U.V.^+@+ +!+$+M.i.o.6.6.6.B.m.h.3.~.A.m.+.r s {.h.w.#.~.h.A.U.h.h.h.;.U.R.-.D. .X W 9+b+* G+G+G+U U U ",
"G+G+G+G+k+d+s+u+* S &+ .R.{.B.V.V.U.B.V. +V.V.V.B.U.q.6.E 8 ;.8 ^.L ;.E F &.|.*.t 8 K A 8 8 F $.).q &.F E $.^.1 K ;.8 K s.@+V.B.V.V.V. +@+@+ +@+o.e.e.V.V.l. +x.@+j.S.,+~+~+G.G.o.B.B.o.@+B.m.m.<.o.h.{.i.E A ;.~.m.<.d K q.x.i.i.;.;.j.3.g x Y X n.v+B+:+G+G+G+G+U U ",
"G+G+G+G+x+]+s+m+< n./+R.U.Z.$+S.,+(+r.H.>+r.j.F Z q.e.@.[ @.t F s.s.;.&.y.).I |.C o o ` E o 1 *.^.1.y.e.F '.^+6.F $.A A }.j.'.Z Z o.s.#+r.r.(+,+S.>+o.B.U.Y.L.7.L.i.O.G.G.e.C.}.[.M.;.[.B.V.m.m.h.h.m.[.$.` F E K ~.~.K j.S.(.o.3.i.o.7.F 0.p.} &+W B+B+:+G+U G+G+U S ",
"G+G+G+G+w+s+s+u+n.p.l.U.!+@+U.V.V. +Y.U.@+#+b.).O.r.s.[ ( &.q [ 8 t 8.a.'+b.y..+z.G o $.F B q z..+s.b.*+5.|.t A ( Z q ( @.r.r.v.).>+Z.@+Y.Y. +V. + +!+!+U. +X.v.i.@+S.O.S.[.v.i.o.o.6.` @+ +h.h.m.m.3.3.j.O.` o }.i.K K <. +B.o.o.L.j.e.e. +W.D.W  .h+9+S U G+U U U U ",
"G+G+G+G+r+s+r+6+p.Y. +V.^+O.i.,+$+o.x.x.V.q.y.y.%.!.@+F q y.@.o G |.C.M.H.s.s.b.y.|.1.t F 8.7.s.b.s.s.x.X.}.L G 1 Z ).1 *.:.%.e.y.y.x.@+#+#+o.>+B.o.O.>+U.V.L.C.7.M.,+S.~+S.L.j.o.i.O.v.B.V.V.h.w. +{.A. +B.e.L M +.r A A q.B.3.m.3.m.B.j.O. +f. .[+v+B+U G+G+G+U U U ",
"G+G+G+G+w+r+r+7+F.U.S.S.M.O.j.S.>+M.6.L.H.>+>+$+>+H.>+y.y.Z |.A s.j.i.!.$.s.y.L &.` e.7.G.[.t q @.s.6.*.].i.j.$.M @.).*.s.>+`.$+$+>+r.>+o.6.$+S.M.j.O.S.B.L. +G..+L.X.7.G.M.[.M.M.L.$+M.x.h.h.h.h.U.U.B.@+V.X.v.e.d d F G e.Z <.K E +.m.B.v.r.9. .[+A+l+B+h+q+3+7+6+4+",
"G+G+G+G+w+s+s+6+F.!+M.B.!+v.e.v.O.y.o.,+V.@+M.>+(+O.S.@+r.(.(.Z ` y.q.%.$.$.%.7.C $.$.H %.$.*.&.).%.$.` b.!.).).}.q.` x.@+M.s.Z.$+$+V.@+L.S.v.s.O.G.O.@+L.X.,+#+V.Z.S.v.v.e.@.e.` S.V.,+B.<.o.r K  +{.3. +i.v.X.V.3.K i.C.v.A [.E 2 A S.B.B.0.W.n.}+y+i+1+{+c+d+e+f+r+",
"U G+G+G+x+r+r+8+F.*+y.M.#+G.G.G.s.e.M.L.,+>+$+q.r.O.).3 '.F $.6.$.).,.>.].%.'.e.v.b.$.C t (.$+).e.!.'.,.,.'.Z %.6.$.F '.t y.$+r.r.$+L.!+B.O.y.X.G.G.M.,+O.G.G.,+#+e.'+*+v.O.G.Z e.O.L.v.G.j.S.[.+.B.B.S.@+i.C.S.i.E [.L.X.6.A d d 2 [ [.'.'.{.-. .l+p+k+|+{+7+a+e+f+r+",
"G+G+G+G+x+w+w+8+p.>+^+7.y.*+*+X.X.y.$+#+$+^+M.O.s.*+y.%.$.F s.F q %.].!.!.%.$.$.6.(.*.F t %.s.6.` $.H !.H ,.*.[ $.6.F $.$.*+y.O.O.$+X.$+Z.s.y.X.O.G.X.G.G.^+S.,+M.s.e.O.$+@+S.e.7.I.G.j.B.i.X.j.<.x.B.o.B.x.$+S.K 2 e.S.M.v.E.A d 2 d Z r.{.g 4 Y l+k+i+h+1+6+a+d+r+5+",
"U G+G+G+x+x+w+6+Y.>+E.7.e.$+s.v.e.r.q.>+^+e.j j G *+G.F q Z e.B j p H !.H $.t j p p j j j j p p j w t H !.'.(.j j j j j j j j w G 7.G.>+q.q.(.G.v.y.$+z.u j I J.|.7.&.'+Z.p w w p j j p w p p p p @.x.j.p p j p p p p p p p p e.e.Z 7.j.'.{.k x  .|+x+k+|+1+4+a+f+f+f+",
"G+G+G+G+p+x+w+6+9.>+$+#+*+z.z.8.4.t.s.O.*+.+9 9 G O.7.7.%.%.).G 9 9 '.H $.%.t 9 9 9 9 9 9 9 9 9 9 9 w %.!.b.].9 9 9 9 9 9 9 9 9 9 l a.y.s.O.|.4.4.*.z.w 9 9 9 |.G.t.t.'+'+9 9 9 9 9 9 9 9 9 9 9 9 M q.o.9 9 9 9 9 9 9 9 9 9 9 v.v.7.7.r.].0.k 5 W B+j+k+h+2+7+d+5+f+d+",
"G+G+G+G+y+x+w+3+0.G./.u.2.y J O N |.G.O.O.O.9 9 B ).y.P.P.C ).B 9 9 (.H (.$.'.9 9 w [ M M [ q q f 9 p q.H $.y.9 9 w L |.@.L L B l 9 9 7.*+7.8.O O y J 9 9 u 9 h $+q.>+$+^+|.4.|.a.a.9 9 w @.7.F M v.3.o.9 9 w 4.@.M @.@.Z Z |.e.e.G.).y.!.9.9.N.V K.a+j+h+}+y+r+5+d+f+",
"G+U U G+y+x+x+7+`.8.5+/.1.t.M 5.@.'.e.'+^+G.9 9 w 7.&.e.*+*+|.B 9 9 (.,.,.'.` 9 9 B A [ A q t Z j 9 p >.].r.q.9 9 B *+*+e.@.|.|.F l 9 w O.` ;.a.a.L j 9 u a.9 9 B '+.+J.%+^+#+s.G..+9 9 B v.i.x.[.L.>.e.9 9 p C.L.;.F X.M.X.M.X.X.6.M.q.r.9.p...&+}+p+n+h+2+a+f+d+e+e+",
"U U U G+k+p+p+6+:.s.r.o.[.F M E.C.M M I.%+L 9 9 w *+t.G.%+|.|.B 9 9 *.t e.Z 8 9 9 j - ' - ' B B h 9 j $.` *.H 9 9 w |..+G.z.z.I.C p 9 l |.A A C.E.B 9 l 6.b.w 9 l ;+8.8.T.*+s.@.G.z.9 9 B O.S.x.e.S.q.v.9 9 l j p j u G |.e.M C.S.M.V.0.Z.9.N...&+|+k+k+C+2+a+a+d+f+d+",
"U U G+G+i+y+y+}+Y.).|.8.N w B 5.4.A w o L G 9 9 B '+%+^.1.q P.I 9 9 F 8 Z 6.8 9 9 9 9 9 9 9 9 9 9 9 w F F C *.9 9 B |.1.8.*+*+G.L p 9 9 B w Z a.5.l 9 u I.&.@.9 9 G I.T.I.*+z.^.I.y.9 9 B $+L.L.6.o.i.Z 9 9 9 9 9 9 9 G v.o.C.e.S.S.r.0.F.F.W.c.=+9+k+k+-+1+{+7+e+f+5+",
"U U G+U k+p+y+3+,.^.I N &.I B _.w @.w ] o G 9 9 I >+%+8.).).$.( 9 9 M o K '.8 9 9 h u f f j j j f w $.8 G M C 9 9 B ).t.^.y.$+z.! j 9 | j 5.@.u u 9 9 B w N N j 9 9 4.O.(+>+e.I.G.I.9 9 B t.q.r.j.M.$.( 9 9 B @.4.|.}.v.o.L.S.v.O.e.q.F. .N.D.D.n.9+n+n+{+7+-+c+f+5+f+",
"U U G+S k+p+p+6+>.I././.1 a N N l w 5.f w G 9 9 N |.a 8.J.&.q j 9 9 L q q $.8 9 9 w G o o L @.A ( Z ` q &.1 [ 9 9 B C J.I N t.|.^.| 9 l p 5.u l | 9 9 9 9 9 9 9 9 9 u L *+^+M.(+.+T.9 9 B y.s.v.v.y.F ] 9 9 B Z S.M.S.S.v.G.~+o.O.s.F.N.#.=.c f. .1+y+i+d.Q.Q.e+e+f+u.",
"G+G+S m k+p+p+3+:.).z.I.|.1.I.5.w 5.p w w ;+9 9 w N ^ ^./.| - | 9 9 *.*.&.q [ 9 9 w F 8 Z @.M B ( [ q 7.*.` [ 9 9 ~ ^ ^./.u N I h 9 9 p w w 5.u 9 l u u u j u j u 9 9 B .+*+O.v.%+$+9 9 G O.v.}.e.z.^.2 9 9 B o A 4.G e.v.G.~+S.v.X.9.n r >.#.k Y 0+p+i+d.Q.Q.5+]+_+5+",
"G+U R : i+y+y+<+0.t.t.;+L &.I..+8.I 5.a.T.*+l 9 9 9 9 9 9 9 9 9 9 | y.q ).F ! 9 9 B $.G F ` |.4.! ! C &.&.O.p 9 9 9 9 9 9 9 9 9 9 9 I T.5.8.B 9 9 I |.|.I.t.I.$+*+h 9 l ^.%+'+8.G.z.9 9 w *+e.8.8.I.J y 9 9 9 9 9 9 9 9 9 9 9 e.X.j.$+A @.` e g 5 /+i+o+9+-+4+a+;+5+_+",
"G+U m / n+k+y+3+0.P.*+1.1.|.J.;+1.B a.t.I.^.I h 9 9 9 9 9 9 9 9 9 p |.a q G.! 9 9 B 3 |.Z r A ! { [ G.I N t.u 9 9 9 9 9 9 9 9 h a a.^.J.|.8.h 9 u t.1.1.t.'+P.O.I.B 9 9 p y.P.&.|.T.9 9 w I.J y 2.I.1.]+9 9 9 9 9 9 9 9 9 9 9 .+j.o.E.a ^.L t 6 b N.i+o+=+..9+d.{+2+4+",
"G+U m / k+k+n+m+0.b.s.I.t.&.J.*+t.N z.*+1.O /.t.I.a./.2.^ N a w a ^.^.N I B { 2 F 8 [ [ [ [ F @.{ ] I I N ^.I a a a N h /./.8.I.I.u.u.;+P.4.I *+J.z.)..+z.O.G.*+d+;+J.I..+.+'+L a.T.u._._.^.J.P.b.y.z.q.Y.Z.).{ p ]+_.T.%+6.v.X.[.K .+^.^.t ,.0.=+l+k+n+D.< V [+=+n.} ",
"U S m : n+n+y+A+{+y.t.|.L L z.*+I..+/././.O I J.J.^._.N ^ ^ ^ a ^ N 1.1.1.^.2 o *+t ] ( 2 ( P.7.d ( ^.L 1.^.a ^ ^ ^ ^ a N u.T.J.z._._.^.N ^.z.I.*+I.L N |.t.|.'+e+t.*+d+^.;+*+|.a..+;+2.5.%+S.B.i.B.#+A.V.S.G.o G 8.N a.y.M 5.G.@.E r.N /.i x d...h+k+y+} ) S G+U S : ",
"S 7 7 R n+y+y+A+2+J.I 8.N L J.z.t.z.z.G.&.|./.^.1.t./.a ^ h a /.^.a 2.u.1.F 2 2 .+q { ( ] ] z.4.] ( t.I u.O a ^./.^ | a a 1.&.1.^.^.&.7.y.t.z.t.z.J.I N G ^.^.f+;+*+e+5+^.a.a.B w a.]+]+T.G.%+E.E.G.@+#+G.G.G.8.a.T.a 5.T.).T.%+d E Z.8./.*.5 d.} 9+p+y+) : U G+G+U U ",
"S 7 7 S i+n+i+1+F.|.N ^.O |.I..+'+t.t.q 8.z.z.^.^.).1.N ~ a a I 8.5./.t.P.I.- ( |.o ; ! ] { A 4.' ' J.P.I./.I a./.a ~ ~ /.&.).N |.z.t.^.&.t.J.'+;+z.^.N a.N a.z.;+I a u.8.8.a.w | ^.8.^.2.a..+C.8.v.S.M.G.M.M.T..+8.@.7.O.b.%+%+f 2 >+O.^.> 4 n } B+y+i+7 S U G+G+G+G+",
"U , m 7 g+u+q+l+F.e.4.O u B @.*+'+.+t.I ^.|.*.J.).1 I _.| N I N I L s.&.*.1.' ( 4.1 - ! ' ' q M ' ! t.).).(.G B w 1 a | N B q z.*.z.1.I I I..+^+t.F B u _.M E.'+T.N O a.N 8.a.5.p N J y y ]+2.y 2.I.E.T.T.v.e.%+7.G.+.E {.Y.v.8.G @.Z.r.a.J.g k } b+j+m+7 S U U G+G+G+",
", U 7 / 0+q+m+{+{+$+7.1.u.B |.I.*+T.1.;+T.1.I.J.q 1 ^.N ^ a a.G G t.t.|.*+L - ' q ( 2 ! ! ' [ L - ' &.J.;+J.|.G M a.a O N I I &.J.;+^.;+^.T..+P.I.@.O a.8.@.*+u._.u.;+/.O _.O f { _ ]+8.y.I.I.^./.D J |.%+E.a.%+@.6.e.E 3.Y.$.` i.v.:.r.z.*+6 k } C+u+m+7 , S U U U U ",
") : : / l+A+0+}+K.(+4.8.u.h B T.^.^.T.I.J.*+t.u.^.I I N a /.B G I 8.I.*+P.q ! 1 L ! ! [ ( ' o L = ( &.P.J.I.^.1 G 5.N a B I I u./.*.J.J.1.;+J.t.I.G _.T.7.v.^+a.8.u.^.2.O J y _ D J %+>+S.o.U.h.x.^+^+y.S.}.E..+A K v.j.A.0.'.3. +U.p.f.K.H.,.9.=+C+q+|+7 7 R S S S S ",
"/ ) / : 0+m+0+{+K.P.u.u.5.O B 8.N _.u ^.I.I N N ^ ~ | u B q q ( I 1 ).).@.L [ ^.L ' - [ ( - ( 8.I [ 8.F *.t.G = 1 q L B j ~ ^ N ^.N &.J.I B ).t.*.q N |.;+;+J.;+;+1 I ^.O y J J y J ]+/.7.O.z.T.v.i.[.e.e.8.8.7.{ K B.E '.Y. +U.h.9.N.c.p.k k d.=+[+m+|+: : m m m m m ",
": : : m o+q+m+3+K.`.2./..+/.N N w 5.~ a ^.N l O a _ ; ~ G F [ - B ( F ` 7.z.[ 4.^.1 [ F 8 [ 1 I.q q .+Z ).[ ! a ! 3 !.t [ ! = %.*.q *.J.q t !.!.!.*.`.K.P.;+`.'+>+*.^.u.O N u.u.u.J y O ^.;+/./.4.4.I ^.s.O.%+e.4.h.l.K ` U.w.g.w.9.p.N.Y Y N.b  .[+l+|+/ / / : : : : ",
"m m 7 R o+n+y+<+W.K.`.7.O.|.;+I I t.I.L J.1.N _.w h 9 ~ B o ' ( 1.1 q C *.P.*.b.P.i 3 8 8 t J.b.!.%.b.*.C q B I [ 3 g 6 s s 6 :.0.:.Q.`.i K.:.,.:.0.F.D.f.{+K.f.f.0.C '+`.3 `.b.).t.^.^.2.]+y J ]+D y t.w.h.B.i.h.A.3.K ]. +9.R.#.#.n f.N.n.c.b W [+m+1+/ / / : : : : ",
"7 : 7 S k+p+x+6+..D.W.A.U.0.Z.*.C H.4+Q.4+`.y.*.3 t q q 3 t C i 6 6 :.:.6 :.:.K.F.d.4 s 3 H K.K.:.k 0.6 4+Q.6 :.:.4 n n k k 4 4 k {+{+2+{+1+x x } ..c.c.n.[+N.c. .N.{+k k 6 *./.^ ]+J J J J N 8.J.t.J.Y.=.#.Y.9.-.D.l.4 F.F.F.W.D.f.....Y N.N. .* B+o+m+7 7 7 7 7 7 7 ",
": / m S k+k+p+3+* G+* V V k.W c.} =+=+..c.c.N.} 5 5 x 5 5 } c.N.b c.c.b b ..=+=+=+ .} c.5 5 c.=+W W W N.d.d...=+=+[+ .Y ....} } c.=+&+&+&+< [+ .)+* G+G+U * X X U X )+* * G+&+..b -+{+-+K.f./+/+k.S S X V < &+W W X V &+&+n.Y  .W W W =+=+W &+)+B+0+q+A+S S S S R S S ",
"m : m S y+y+y+n+m+l+m+m+m+A+v+B+b+b+B+b+b+b+b+b+b+B+B+B+v+v+A+l+9+9+B+9+B+B+B+B+B+b+C+C+C+[+[+C+[+[+[+t+[+[+&+)+&+t+t+t+t+t+[+B+&+C+t+G+G+)+D+&+t+U t+X X t+&+)+&+t+[+C+C+C+[+&+t+D+:+D+:+)+&+[+b+b+[+[+C+C+C+b+B+9+A+l+9+v+B+9+b+B+9+9+9+9+B+l+i+o+A+g+W U S S S S S ",
"7 : 7 S y+y+y+p+p+k+y+k+y+n+i+i+j+z+o+g+g+q+q+q+q+q+q+g+z+u+u+q+m+m+0+m+m+q+q+0+0+A+A+A+l+l+v+9+h+h+v+9+9+9+b+[+C+b+B+B+b+9+B+A+B+v+A+t+G+t+[+C+B+&+9+C+t+[+t+C+C+C+B+l+l+l+0+l+h+9+B+l+B+C+v+A+g+m+h+9+h+v+v+A+0+8+u+o+z+u+0+q+0+A+A+A+v+h+A+m+i+u+g+4+1+U U U U U U ",
"m : 7 R k+y+y+x+y+k+y+n+y+k+i+u+u+z+z+q+z+q+m+g+g+o+q+m+A+A+A+l+A+A+l+A+m+0+A+l+v+h+l+h+v+9+v+9+B+B+B+B+9+B+9+B+C+C+C+b+B+B+B+v+b+C+h+B+F+t+C+C+C+C+C+C+[+[+[+[+[+b+C+9+l+l+0+m+0+0+0+0+l+h+A+g+u+j+q+v+q+o+l+0+h+f+p+o+j+u+g+0+g+j+g+g+q+A+0+l+A+g+7+c+c+U U U U U U ",
": / : 7 j+k+k+k+n+i+k+k+i+j+z+z+u+u+g+0+A+0+A+g+q+g+A+A+v+h+l+h+h+|+h+l+A+l+h+9+9+9+9+9+B+b+B+B+b+C+b+B+B+b+9+9+C+[+[+C+b+b+b+C+9+b+b+C+C+C+[+[+[+C+[+[+b+C+C+C+[+m+A+B+|+l+0+0+0+0+0+z+z+0+B+z+q+g+q+0+g+j+A+o+i+j+y+n+y+p+i+z+z+j+o+j+z+q+u+h+l+6+y+d+5+9+U U U U U ",
"/ / : : / ) ) Y ) ) ) ) ) ) ) ) / / / / / m U S S U E+E+E+U E+U S 7 m m m m m m m 7 S S , 7 , U U U R R U U U U U , : ) ) ) m R R R R S R S S R Q R S S S U S S , , S S S U U S S U U U S S S X X S U U S X U X )+X X X )+)+X X U * X X U U G+t+B+2+e+d+f+}+n. .W )+ .",
"/ / : m : / ) ) ) ) ) ) / : / / / / / / : 7 U U U G+G+G+G+G+G+G+U Q m m Q m m v 7 U U U U U U U G+S Q R U G+G+G+U 7 : : / : 7 U U U U U S R U U R R U U S U U S S S S S U G+G+U U U U U U U U U G+G+U G+G+G+U U G+G+G+G+G+G+G+G+G+G+G+G+U U U U X 9+1+z+c+a+4+1+6+c+7+",
"/ / : m m : / / ) / / : : : v : : m m m m S U U U G+G+G+G+G+G+G+U R m m Q Q m v m G+G+G+G+G+G+G+G+U Q Q U G+G+G+S 7 7 7 : m R U U U U U U U U U U S U U S U U R , R S S U U U U G+U U U U G+G+G+U U U G+G+G+G+U U G+G+G+G+G+G+G+G+G+G+G+G+G+G+G+U * S S B+3+2+B+l+2+2+",
"m : m 7 7 7 m : : m 7 R R 7 R U , m m m 7 S U U U G+G+G+G+G+G+G+U R m m Q Q v v m S G+G+G+G+G+G+G+G+S S G+G+G+G+U U , m / : 7 S S S U U U S S S G+G+U S S U S S , R S S S S U U U G+U U U G+G+G+G+G+U U U G+G+G+U G+G+G+G+G+G+G+G+G+G+G+G+G+U U U S S S U t+|+[+....c.",
", 7 7 R R R 7 7 7 , S S S S S U U , m m m R S U U G+G+G+G+G+G+G+U R m m R R v : 7 U G+G+G+G+G+G+G+G+U U G+G+G+G+U U , : / : 7 S S U U U U U U S S G+G+S S U U S , R R R R S S U U U G+G+U U U U U G+G+U U U G+G+G+G+G+G+G+G+G+G+G+G+G+U U U U U , 7 7 R S S S S 7 m : ",
"U S S S U S S S S U U U U U S R S G+, : v m R U U G+G+G+G+G+G+G+G+U Q 7 R R m m R U G+G+G+G+G+G+G+G+U U G+G+G+G+U S 7 : : 7 S U U U U U G+G+G+U S S G+U S U U S S S S S S S S S U U G+U G+U U U G+U U G+G+G+G+G+G+G+U G+G+G+G+G+G+G+G+U U U U U S S , S U U U U S S R ",
"U U U U U U U S S U U S U S R m m S G+, : : R S U G+G+G+G+G+G+G+G+U S S S S R R S G+G+G+G+G+G+G+G+G+U U G+G+G+G+U U 7 : / : R U S R R S U U G+G+U S U U U U U S S S S S S S S S S S S R R S S R R R S S S S S Q R S S Q R S S S R R R R U G+U U U U S U U U U U U U S ",
"U U U G+G+G+U U U U U U S S m m m m S G+7 : R Q R G+G+G+G+G+G+G+G+G+G+G+G+U U U U G+G+G+G+G+U G+G+U U G+G+G+G+G+G+U S m / / m S R m Q R U G+G+G+G+U U S U U U S S S R S S S S S U S m : : P Q Q m m v Q Q Q Q m v P R Q m m m m m v v v S G+G+U U S S S S S S S S U U "};
