/* XPM */
static const char * volition_img_xpm[] = {
"299 309 33 1",
" 	g None",
".	g #000000",
"+	g #080808",
"@	g #101010",
"#	g #414141",
"$	g #A4A4A4",
"%	g #ACACAC",
"&	g #B4B4B4",
"*	g #838383",
"=	g #BDBDBD",
"-	g #5A5A5A",
";	g #F6F6F6",
">	g #FFFFFF",
",	g #181818",
"'	g #626262",
")	g #EEEEEE",
"!	g #D5D5D5",
"~	g #313131",
"{	g #949494",
"]	g #4A4A4A",
"^	g #292929",
"/	g #CDCDCD",
"(	g #DEDEDE",
"_	g #202020",
":	g #E6E6E6",
"<	g #C5C5C5",
"[	g #737373",
"}	g #393939",
"|	g #9C9C9C",
"1	g #7B7B7B",
"2	g #8B8B8B",
"3	g #6A6A6A",
"4	g #525252",
"...........................................................................................................................................................................................................................................................................................................",
"...........................................................................................................................................................................................................................................................................................................",
"...........................................................................................................................................................................................................................................................................................................",
"...........................................................................................................................................................................................................................................................................................................",
"...........................................................................................................................................................................................................................................................................................................",
"...........................................................................................................................................................................................................................................................................................................",
"...........................................................................................................................................................................................................................................................................................................",
"...........................................................................................................................................................................................................................................................................................................",
"...........................................................................................................................................................................................................................................................................................................",
"...........................................................................................................................................................................................................................................................................................................",
"...........................................................................................................................................................................................................................................................................................................",
"...........................................................................................................................................................................................................................................................................................................",
"...........................................................................................................................................................................................................................................................................................................",
"...........................................................................................................................................................................................................................................................................................................",
"...........................................................................................................................................................................................................................................................................................................",
"...........................................................................................................................................................................................................................................................................................................",
"...........................................................................................................................................................................................................................................................................................................",
"...........................................................................................................................................................................................................................................................................................................",
"...........................................................................................................................................................................................................................................................................................................",
"...........................................................................................................................................................................................................................................................................................................",
"...........................................................................................................................................................................................................................................................................................................",
"...........................................................................................................................................................................................................................................................................................................",
"...........................................................................................................................................................................................................................................................................................................",
"...........................................................................................................................................................................................................................................................................................................",
"...........................................................................................................................................................................................................................................................................................................",
"...........................................................................................................................................................................................................................................................................................................",
"...........................................................................................................................................................................................................................................................................................................",
"...........................................................................................................................................................................................................................................................................................................",
"...........................................................................................................................................................................................................................................................................................................",
"...........................................................................................................................................................................................................................................................................................................",
"...........................................................................................................................................................................................................................................................................................................",
"...........................................................................................................................................................................................................................................................................................................",
"...........................................................................................................................................................................................................................................................................................................",
"...........................................................................................................................................................................................................................................................................................................",
"...........................................................................................................................................................................................................................................................................................................",
"...........................................................................................................................................................................................................................................................................................................",
"...........................................................................................................................................................................................................................................................................................................",
"...........................................................................................................................................................................................................................................................................................................",
".....................................................+@@@@@@@@@@@@@@@@@@@@@@@@@@@@@@@@@@@@@@@@@@@@@@@@@@@@@@@@.........................................................................+@@@@@@@@@@@@@@@@@@@@@@@@@@@@@@@@@@@@@@@@@@@@@@@@@@@@@@@@+..........................................................",
"....................................................#$%%%%%%%%%%%%%%%%%%%%%%%%%%%%%%%%%%%%%%%%%%%%%%%%%%%%%%&%#.......................................................................+*%%%%%%%%%%%%%%%%%%%%%%%%%%%%%%%%%%%%%%%%%%%%%%%%%%%%%%%=*+.........................................................",
"....................................................-;>>>>>>>>>>>>>>>>>>>>>>>>>>>>>>>>>>>>>>>>>>>>>>>>>>>>>>>>&,......................................................................')>>>>>>>>>>>>>>>>>>>>>>>>>>>>>>>>>>>>>>>>>>>>>>>>>>>>>>>>=@.........................................................",
"....................................................@$>>>>>>>>>>>>>>>>>>>>>>>>>>>>>>>>>>>>>>>>>>>>>>>>>>>>>>>>!~......................................................................{>>>>>>>>>>>>>>>>>>>>>>>>>>>>>>>>>>>>>>>>>>>>>>>>>>>>>>>>)]..........................................................",
".....................................................*>>>>>>>>>>>>>>>>>>>>>>>>>>>>>>>>>>>>>>>>>>>>>>>>>>>>>>>>;*+....................................................................^/>>>>>>>>>>>>>>>>>>>>>>>>>>>>>>>>>>>>>>>>>>>>>>>>>>>>>>>>(_..........................................................",
".....................................................~!>>>>>))))))))::::::::::::::((((((((!!!!!!!!!!!!!!/!)>>>><,....................................................................[>>>>>(!!!!!!!!((((((((::::::::::::::))))))));;;;;;;>>>>>>*+..........................................................",
".....................................................+%>>>>[}}~~~~~~~~~~~~~~~~~~~~^^^^^^^^^^^^^^^^_______^#&>>>(#...................................................................+|>>>;1~_^^^^^^^^^^^^^^^~~~~~~~~~~~~~~~~~~~~~~}}}}}}}#!>>>;#...........................................................",
"......................................................')>>>2..,,_________________________________________@.->>>>{+..................................................................#:>>>/.._________________________________________,_+.~(>>>=_...........................................................",
"......................................................^!>>>>_,(::::::::::::::::::::::::::::::::::::::::::!.})>>>=_..................................................................3>>>>$.':::::::::::::::::::::::::::::::::::::::::::{.|>>>>[............................................................",
"......................................................@$>>>>4+;>|333333[[[[[[[[[[[[[111111111111********<;#+|>>>>'................................................................._&>>>:~.$>|11111111111111[[[[[[[3[[[[3333333'''''[/>*.<>>>:]............................................................",
".......................................................])>>>/@1)-......................................._;&.3>>>>2.................................................................#:>>>!.}>{.......................................+%(_->>>>$@............................................................",
".......................................................~!>>>>@^>|......................................../!+^/>>>!~................................................................*;>>>1.3>'......................................._>%.{>>>>*.............................................................",
".......................................................+*>>>>[,//,.......................................4>1.|>>>>-...............................................................,/>>>)^,!<@.......................................';',/>>>!}.............................................................",
"........................................................4;>>>(.'>3......................................._;&.-)>>>|@..............................................................#:>>>&+}>2.......................................@:!.'>>>>%..............................................................",
"........................................................_&>>>;^};{.......................................+{:~,/>>>>~..............................................................|>>>>-+{:#.......................................^>$.{>>>;3..............................................................",
".........................................................1>>>>$+|:}.......................................#>[.{>>>>4.............................................................@<>>>:~,>=........................................{)~~)>>>!,..............................................................",
".........................................................4:>>>!.'>-......................................._/&@}(>>>/,............................................................3)>>>2.4;1.......................................+((.->>>>$+..............................................................",
".........................................................+$>>>;'^!&,.......................................[;#@<>>>>^............................................................$>>>>'+<!@.......................................4)1,=>>>:#...............................................................",
"..........................................................2>>>>&.{;}.......................................];1.';>>>2...........................................................^/>>><,@:&........................................&)@}>>>>(,...............................................................",
"..........................................................^/>>>!^-;3.......................................+$(^~:>>>)+..........................................................1>>>>*.2:#.......................................@!/+1>>>>1................................................................",
"...........................................................%>>>>{+=!_.......................................1;].$>>>>#..........................................................|>>>)4+<!@.......................................1;4_;>>>;}................................................................",
"...........................................................3;>>>%.{)}.......................................^!%.->>>><.........................................................#)>>>&@#:*........................................$)_}>>>><_................................................................",
"............................................................(>>>:]}){.......................................+$:^~!>>>:@................@~]'3333333333333333-#^+................3>>>>*.|)~.......................................~!|,%>>>>-.................................................................",
"............................................................%>>>>1+<!,.......................................':[.2>>>>1..........+@}1**$<)>>>>>>>>>>>>>>>>>>:={**4@+..........,=>>>(}@<=,.......................................[>#,)>>>)#.................................................................",
"............................................................};>>>&,1:4.......................................,!<.';>>>/........@}{$!>>>>>>>>>>>>>>>>>>>>>>>>>>>>>)&|-,........}>>>>=@4;'.......................................+$!^-;>>>|@.................................................................",
".............................................................(>>>;#_)|.......................................+|:},<>>>:}....._'&(>>>>>>>>>>>>>>>>>>>>>>>>>>>>>>>>>>>)=1^......1>>>;3.{:}.......................................#)2+=>>>>3..................................................................",
".............................................................*>>>>*@=<_.......................................];{.{>>>>$...,3<;>>>>>>>>>>>>>>>>>>>>>>>>>>>>>>>>>>>>>>>>!1~..._:>>>:^_($+.......................................[;4^(>>>!^..................................................................",
".............................................................,>>>>!_-;3.......................................,/=@}(>>>/..]&;>>>>>>>>>>>>>>>>>>>>>>>>>>>>>>>>>>>>>>>>>>>>/[@.}>>>>$+4>3.......................................,<<,*>>>>{...................................................................",
".............................................................+<>>>;}^;{........................................3)'.<>>;],|:>>>>>>>>>>>>>>>>>>>>>>>>>>>>>>>>>>>>>>>>>>>>>>>>%]+&>>>4+&<^.......................................}){.&>>>;3...................................................................",
"..............................................................4>>>>$,{:}.......................................};{.*>;]^/>>>>>>>>>>>>>>>>>>>>>>>>>>>>>>>>>>>>>>>>>>>>>>>>>>>)1@$>:^_:|........................................2:#]:>>>=@...................................................................",
"..............................................................^>>>>!,->'.......................................+$!~@<#4(>>>>>>>>>>>>>>>>>>>>>>>>>>>>>>>>>>>>>>>>>>>>>>>>>>>>>>{,{*.1:4.......................................,!<+*>>>>$....................................................................",
"..............................................................+{>>>;-^($@.......................................->3.,*;>>>>>>>>>>>>>>>>>>>>>>>>>>>>>>>>>>>>>>>>>>>>>>>>>>>>>>>>&}.,(=@.......................................])2@&>>>:}....................................................................",
"...............................................................]>>>>&+*>}.......................................^/-+{>>>>>>>>>>>>>>>>>>>>>>>>>>>>>>>>>>>>>>>>>>>>>>>>>>>>>>>>>>><^,=2.......................................+%:_-;>>>=.....................................................................",
"...............................................................^/>>>/_-;-........................................++{>>>>>>>>>>>>>>>>>>>>>>>>>>>>>>>>>>>>>>>>>>>>>>>>>>>>>>>>>>>>>/~.+.......................................,/<@1>>>>*.....................................................................",
"................................................................3>>>>1@=/@........................................[;>>>>>>>>>>>>>>>>>>>>>>>>>>>>>>>>>>>>>>>>>>>>>>>>>>>>>>>>>>>>>>&@........................................3;'_/>>>(@.....................................................................",
"................................................................];>>>%+{;^.......................................#:>>>>>>>>>>>>>>>>>>>>>>>>>>>>>>>>>>>>>>>>>>>>>>>>>>>>>>>>>>>>>>>>*+.......................................$;_4;>>>=......................................................................",
"................................................................@$>>>:##:1......................................,<>>>>>>>>>>>>>>>>>>>>>>>>>>>>>>>>>>>>>>>>>>>>>>>>>>>>>>>>>>>>>>>>>;4......................................~!$,{>>>;4......................................................................",
".................................................................[>>>>1.!:......................................3>>>>>>>>>>>>>>>>>>>>>>>>>>>>>>>>>>>>>>>>>>>>>>>>>>>>>>>>>>>>>>>>>>>%@.....................................3>],(>>>:@......................................................................",
".................................................................}!>>>&,2)}....................................,=>>>>>>>>>>>>>>>>>>>>>>>>>>>>>>>>>>>>>>>>>>>>>>>>>>>>>>>>>>>>>>>>>>>:4....................................+$:^-;>>>{+......................................................................",
".................................................................+$>>>>],;%....................................#:>>>>>>>>>>>>>>>>>>>>>>>>>>>>>>>>>>>>>>>>>>>>>>>>>>>>>>>>>>>>>>>>>>>>2....................................#)*+&>>>;}.......................................................................",
"..................................................................[;>>>[.!(....................................#)>>>>>>>>>>>>>>>>>>>>>>>>>>>>>>>>>>>>>>>>>>>>>>>>>>>>>>>>>>>>>>>>>>>>2....................................'>4,(>>>/_.......................................................................",
"..................................................................^/>>>(_-;3...................................-;>>>>>>>>>>>>>>>>>>>>>>>>>>>>>>>>>>>>>>>>>>>>>>>>>>>>>>>>>>>>>>>>>>>>$@..................................,/=@1>>>>3........................................................................",
"..................................................................+%>>>>~,>=...................................*>>>>>>>>>>>>>>>>>>>>>>>>>>>>>>>>>>>>>>>>>>>>>>>>>>>>>>>>>>>>>>>>>>>>>=_..................................~>*.&>>>;#........................................................................",
"...................................................................4)>>>{@%(^.................................+{>>>>>>>>>>>>>>>>>>>>>>>>>>>>>>>>>>>>>>>>>>>>>>>>>>>>>>>>>>>>>>>>>>>>><^..................................[)#~:>>>$@........................................................................",
"...................................................................^!>>>)+}>{.................................+{>>>>>>>>>>>>>>>>>>>>>>>>>>>>>>>>>>>>>>>>>>>>>>>>>>>>>>>>>>>>>>>>>>>>>/~.................................@>&.2>>>>[.........................................................................",
"...................................................................+2>>>;]_)&+................................@{>>>>>>>>>>>>>>>>>>>>>>>>>>>>>>>>>>>>>>>>>>>>>>>>>>>>>>>>>>>>>>>>>>>>>/~.................................~>2+&>>>(}.........................................................................",
"....................................................................])>>><.1;4................................+{>>>>>>>>>>>>>>>>>>>>>>>>>>>>>>>>>>>>>>>>>>>>>>>>>>>>>>>>>>>>>>>>>>>>>/^.................................&(,4>>>>{..........................................................................",
"....................................................................^<>>>)+}>2................................+*>>>>>>>>>>>>>>>>>>>>>>>>>>>>>>>>>>>>>>>>>>>>>>>>>>>>>>>>>>>>>>>>>>>>>=_................................+><.*>>>;[..........................................................................",
".....................................................................[>>>>2,<<_................................1>>>>>>>>>>>>>>>>>>>>>>>>>>>>>>>>>>>>>>>>>>>>>>>>>>>>>>>>>>>>>>>>>>>>>&,................................';'^!>>><_..........................................................................",
".....................................................................4)>>>(.->'................................1>>>>>>>>>>>>>>>>>>>>>>>>>>>>>>>>>>>>>>>>>>>>>>>>>>>>>>>>>>>>>>>>>>>>>&,................................().4>>>>$+..........................................................................",
".....................................................................@$>>>)}~)2................................1>>>>>>>>>>>>>>>>>>>>>>>>>>>>>>>>>>>>>>>>>>>>>>>>>>>>>>>>>>>>>>>>>>>>>%,..............................._)%+|>>>:4...........................................................................",
"......................................................................1>>>>%.|)~...............................*>>>>>>>>>>>>>>>>>>>>>>>>>>>>>>>>>>>>>>>>>>>>>>>>>>>>>>>>>>>>>>>>>>>>>&,...............................{;_^;>>><,...........................................................................",
"......................................................................}(>>>/.'>-..............................@|>>>>>>>>>>>>>>>>>>>>>>>>>>>>>>>>>>>>>>>>>>>>>>>>>>>>>>>>>>>>>>>>>>>>>!~...............................!).4>>>>{+...........................................................................",
".......................................................................%>>>>3@/&@.............................^<>>>>>>>>>>>>>>>>>>>>>>>>>>>>>>>>>>>>>>>>>>>>>>>>>>>>>>>>>>>>>>>>>>>>>;-..............................])[@/>>>)#............................................................................",
".......................................................................[;>>>%.|>~.............................^!>>>>>>>>>>>>>>>>>>>>>>>>>>>>>>>>>>>>>>>>>>>>>>>>>>>>>>>>>>>>>>>>>>>>>>3..............................|>,,>>>><_............................................................................",
".......................................................................@!>>>!^4)[.............................~!>>>>>>>>>>>>>>>>>>>>>>>>>>>>>>>>>>>>>>>>>>>>>>>>>>>>>>>>>>>>>>>>>>>>>>3.............................@/=@1>>>>3.............................................................................",
"........................................................................=>>>>[.//@............................[;>>>>>>>>>>>>>>>>>>>>>>>>>>>>>>>>>>>>>>>>>>>>>>>>>>>>>>>>>>>>>>>>>>>>>>%,............................[>].:>>>)].............................................................................",
"........................................................................])>>>|+{:~...........................,=>>>>>>>>>>>>>>>>>>>>>>>>>>>>>>>>>>>>>>>>>>>>>>>>>>>>>>>>>>>>>>>>>>>>>>>;#............................{;^^>>>>$@.............................................................................",
"........................................................................+)>>>;#^:{...........................,<>>>>>>>>>>>>>>>>>>>>>>>>>>>>>>>>>>>>>>>>>>>>>>>>>>>>>>>>>>>>>>>>>>>>>>>>]...........................~(|+%>>>>[..............................................................................",
".........................................................................{>>>>'.!/+..........................-)>>>>>>>>>>>>>>>>>>>>>>>>>>>>>>>>>>>>>>>>>>>>>>>>>>>>>>>>>>>>>>>>>>>>>>>>{+..........................'>-.(>>>(#..............................................................................",
"........................................................................._>>>><_[:4.........................+$>>>>>>>>>>>>>>>>>>>>>>>>>>>>>>>>>>>>>>>>>>>>>>>>>>>>>>>>>>>>>>>>>>>>>>>>>:^.........................@%!^3;>>>{...............................................................................",
".........................................................................@!>>>>#,)|.........................,&>>>>>>>>>>>>>>>>>>>>>>>>>>>>>>>>>>>>>>>>>>>>>>>>>>>>>>>>>>>>>>>>>>>>>>>>>;#.........................#;2.<>>>>[...............................................................................",
"..........................................................................->>>>1@=<,........................';>>>>>>>>>>>>>>>>>>>>>>>>>>>>>>>>>>>>>>>>>>>>>>>>>>>>>>>>>>>>>>>>>>>>>>>>>>$+........................3>-_(>>><@...............................................................................",
"..........................................................................^>>>>(^4)3........................2>>>>>>>>>>>>>>>>>>>>>>>>>>>>>>>>>>>>>>>>>>>>>>>>>>>>>>>>>>>>>>>>>>>>>>>>>>>(,......................._/=+{>>>>|................................................................................",
"..........................................................................+$>>>;#^:{......................._=>>>>>>>>>>>>>>>>>>>>>>>>>>>>>>>>>>>>>>>>>>>>>>>>>>>>>>>>>>>>>>>>>>>>>>>>>>>)4.......................}){.%>>>)4................................................................................",
"...........................................................................#>>>>$@{!~......................->>>>>>>>>>>>>>>>>>>>>>>>>>>>>>>>>>>>>>>>>>>>>>>>>>>>>>>>>>>>>>>>>>>>>>>>>>>>>=.......................2:}#:>>>/.................................................................................",
"...........................................................................^(>>>!_-;-......................->>>>>>>>>>>>>>;)):((:)));;>>>>>>>>>>>>>>>>>>>>>>>>>>;);))((()))>>>>>>>>>>>>>>&......................,/<.*>>>>{.................................................................................",
"............................................................................[>>>;'_<|@.....................,%>>>>>>>>>>):%-4]}}}#4---[=(:;>>>>>>>>>>>>>>>>>>::<{----]}}}]4-1(:>>>>>>>>>>(}......................](1,&>>>),.................................................................................",
"............................................................................]>>>>%.{)^......................^&>>>>)!//$-}@............,}#[<////)>>>>>>!////|]}^+............~#*//!:>>>>('.......................|)_];>>>!..................................................................................",
"............................................................................,&>>>!~-:-......................._*&&{'~^^@..................._^^^_1;>>>>&^^^^^+..................._^^4*%&|#......................._<=@1>>>>'..................................................................................",
".............................................................................1>>>>1@/<+........................++..............................#)>>>>1..............................+++........................')-_!>>>>+..................................................................................",
".............................................................................](>>>$+$:,........................................................4>>>>>&.........................................................{)_};>>>%...................................................................................",
"..............................................................................$>>>)]}:2.......................................................^=>>>>>)-.......................................................~!{,|>>>>~...................................................................................",
"..............................................................................1>>>>[@(/.......................................................]>>>>>>>$.......................................................'>4,!>>>:,...................................................................................",
".............................................................................._/>>>&,2:}.....................................................+*>>>>>>><_.....................................................+|(_4;>>>3....................................................................................",
"...............................................................................%>>>;}_>$....................................................._/>>>>>>>;'.....................................................#>*+&>>>>~....................................................................................",
"...............................................................................-)>>>3,(<+....................................................^:>>>>>>>>*.....................................................->-_!>>>&,....................................................................................",
"...............................................................................,/>>>(@4>3....................................................4)>>>>>>>>$+...................................................,<=+1>>>>'.....................................................................................",
"...............................................................................+|>>>;}^>$..................................................+'!>>>>>>>>>;{_............................+.....................~>2+&>>>:#.....................................................................................",
"................................................................................}:>>>$+$!^..................+#{{#....................@@,#1{|;>>>>>>>>>>>><{2-_@@+...................,1{',...................1:}#:>>>{+.....................................................................................",
"................................................................................_/>>>:.]>[.................~$(>>:*~..............._~[%&=(>>>>>>>>>>>>>>>>>>>)<&&2#^@..............,3=>>;&'.................+(<.1>>>>3......................................................................................",
".................................................................................1>>>;4_(%+...............,&>>>>>>!'^.........+~}[<!>>>>>>>>>>>>>>>>>>>>>>>>>>>>>(<$#~,.........@]$;>>>>>:4................~)*,=>>>/^......................................................................................",
".................................................................................#)>>>=.1;#...............#>>>>>>>>;/']~~#444-|!(;>>>>>>>>>>>>>>>>>>>>>>>>>>>>>>>>>>:(&3444#~~}-|)>>>>>>>>%................$),]>>>>|.......................................................................................",
".................................................................................,%>>>(@]>3...............#>>>>>>>>>>;)!/()));>>>>>>>>>>>>>>>>>>>>>>>>>>>>>>>>>>>>>>>>>;))):!!()>>>>>>>>>>&................(/.1>>>)-.......................................................................................",
"..................................................................................[>>>>*+&!_..............#>>>>>>>>>>>>>>>>>>>>>>>>>>>>>>>>>>>>>>>>>>>>>>>>>>>>>>>>>>>>>>>>>>>>>>>>>>>>>>>%...............3)]^(>>><_.......................................................................................",
"..................................................................................#(>>>&.1>#..............#>>>>>>>>>>>>>>>>>>>>>>>>>>>>>>>>>>>>>>>>>>>>>>>>>>>>>>>>>>>>>>>>>>>>>>>>>>>>>>>%...............<>@#>>>>{+.......................................................................................",
"..................................................................................+|>>>:#~:*..............#>>>>>>>>>>>>>>>>>>>>>>>>>>>>>>>>>>>>>>>>>>>>>>>>>>>>>>>>>>>>>>>>>>>>>>>>>>>>>>>&..............,($@{>>>(#........................................................................................",
"...................................................................................*>>>>{.%>^.............#>>>>>>>>>>>>>>>>>>>>>>>>>>>>>>>>>>>>>>>>>>>>>>>>>>>>>>>>>>>>>>>>>>>>>>>>>>>>>>>%..............{>~,)>>>/_........................................................................................",
"..................................................................................._/>>>=+1>#.............,&>>>>>>>>>>>>>>>>>>>>>>>>>>>>>>>>>>>>>>>>>>>>>>>>>>>>>>>>>>>>>>>>>>>>>>>>>>>>>)]..............&)_]>>>;[.........................................................................................",
"....................................................................................%>>>>'.!=+.............4>>>>>>>>>>>>>>>>>>>>>>>>>>>>>>>>>>>>>>>>>>>>>>>>>>>>>>>>>>>>>>>>>>>>>>>>>>>>>&..............])'./>>>:#.........................................................................................",
"....................................................................................';>>>{.%>,............._=>>>>>>>>>>>>>>>>>>>>>>>>>>>>>>>>>>>>>>>>>>>>>>>>>>>>>>>>>>>>>>>>>>>>>>>>>>>)]..............{>^@)>>>&_.........................................................................................",
"....................................................................................+/>>>(~#:3..............-;>>>>>>>>>>>>>>>>>>>>>>>>>>>>>>>>>>>>>>>>>>>>>>>>>>>>>>>>>>>>>>>>>>>>>>>>>>$..............,<=@2>>>;'..........................................................................................",
"....................................................................................+|>>>>3.!!+.............,%>>>>>>>>>>>>>>>>>>>>>>>>>>>>>>>>>>>>>>>>>>>>>>>>>>>>>>>>>>>>>>>>>>>>>>>>>)}..............'>4.(>>>(#..........................................................................................",
".....................................................................................};>>>$@{:^..............])>>>>>>>>>>>>>>>>>>>>>>>>>>>>>>>>>>>>>>>>>>>>>>>>>>>>>>>>>>>>>>>>>>>>>>>>2...............2)^})>>>|+..........................................................................................",
".....................................................................................,!>>>;#_:2..............+|>>>>>>>>>>>>>>>>>>>>>>>>>>>>>>>>>>>>>>>>>>>>>>>>>>>>>>>>>>>>>>>>>>>>>>>(^..............^:{.&>>>;3...........................................................................................",
"......................................................................................3>>>>'./<...............~!>>>>>>>>>>>>>>>>>>>>>>>>>>>>>>>>>>>>>>>>>>>>>>>>>>>>>>>>>>>>>>>>>>>>>;3...............->'.!>>><_...........................................................................................",
"......................................................................................}>>>>/,':4...............[>>>>>>>>>>>>>>>>>>>>>>>>>>>>>>>>>>>>>>>>>>>>>>>>>>>>>>>>>>>>>>>>>>>>>&,..............@%/,3>>>>$............................................................................................",
"......................................................................................,&>>>>~_){...............,%>>>>>>>>>>>>>>>>>>>>>>>>>>>>>>>>>>>>>>>>>>>>>>>>>>>>>>>>>>>>>>>>>>>:]...............~;|.%>>>)'............................................................................................",
".......................................................................................->>>>*@%<,...............-;>>>>>>>>>>>>>>>>>>>>>>:!>>>>>>>>>>>>>>>>>!!;>>>>>>>>>>>>>>>>>>>>>>|+...............')4_!>>><+............................................................................................",
".......................................................................................})>>>!@-;-................{>>>>>>>>>>>>>>>>>>>>>(3(>>>>>>>>>>>>>>>>>>*$>>>>>>>>>>>>>>>>>>>>>/~...............,/<.[>>>>$.............................................................................................",
"........................................................................................2>>>)}~:*................~(>>>>>>>>>>>>>>>>>>>>&~/>>>>>>>>>>>>>>>>>>43>>>>>>>>>>>>>>>>>>>>>3................~:|+|>>>:~.............................................................................................",
"........................................................................................->>>>%+{(^................[>>>>>>>>>>>>>>>>>>>>&.-;>>>>>>>>>>>>>>>>$.';>>>>>>>>>>>>>>>>>>>&,................2(^#)>>>!..............................................................................................",
"........................................................................................_=>>>/@';4.................{>>>>>>>>>>>>>>>>>>>;3.-2|/>>>>>>>>>)$21@^<>>>>>>>>>>>>>>>>>>>!_................@//.3>>>>3..............................................................................................",
".........................................................................................*>>>;[_/$@................,(>>>>>>>>>>>>>>>>>>>>[...^3&>>>>>:1]...^!>>>>>>>>>>>>>>>>>>>>'.................]:3_<>>>;@..............................................................................................",
".........................................................................................])>>>&+|)^.................4>>>>>>>>>>>>>>>>>>>>;1+...,'*/%'}....#!>>>>>>>>>>>>>>>>>>>>%@.................|),]>>>>&+..............................................................................................",
".........................................................................................+%>>>!~-:'................../>>>>>>>>>>>>>>>>>>>>>$^....._@....+3:>>>>>>>>>>>>>>>>>>>>)].................,<&@1>>>>#...............................................................................................",
"..........................................................................................*>>>>1@/=@.................]>>>>>>>>>>>>>>>>>>>>>>/-+........~$;>>>>>>>>>>>>>>>>>>>>>%+.................')4^(>>>;,...............................................................................................",
"..........................................................................................^!>>>$@$(~.................@;>>>>>>>>>>>>>>>>>>>>>>)$#,...+}3(>>>>>>>>>>>>>>>>>>>>>>>*..................{:_];>>>1................................................................................................",
"...........................................................................................&>>>:}~:*..................2>>>>>>>>>>>>>>>>>>>>>>>>;&'''2)>>>>>>>>>>>>>>>>>>>>>>>>!_.................~!2@|>>>>~................................................................................................",
"...........................................................................................[;>>>3@!=+.................~>>>>>>>>>>>>>>>>>>>>>>>>>>>>>>>>>>>>>>>>>>>>>>>>>>>>>>>&..................-;4_!>>>/,................................................................................................",
"...........................................................................................@!>>>=,1(#.................,<>>>>>>>>>>>>>>>>>>>>>>>>>>>>>>>>>>>>>>>>>>>>>>>>>>>>>;-.................+|<_';>>>'.................................................................................................",
"............................................................................................%>>>)~~>{..................'>>>>>>>>>>>>>>>>>>>>>>>>>>>>>>>>>>>>>>>>>>>>>>>>>>>>>!..................~:2+%>>>;#.................................................................................................",
"............................................................................................#)>>;1,==@.................})>>>>>>>>>>>>>>>>>>>>>>>>>>>>>>>>>>>>>>>>>>>>>>>>>>>>2..................':4^!>>>$@.................................................................................................",
"............................................................................................,!>>>!@->-.................+|>>>>>>>>>>>>>>>>>>>>>>>>>>>>>>>>>>>>>>>>>>>>>>>>>>>)_.................@=<@1>>>>3..................................................................................................",
".............................................................................................1>>>)}^;2..................'>>>>>>>>>>>>>>>>>>>>>>>>>>>>>>>>>>>>>>>>>>>>>>>>>>><..................^){+$>>>/~..................................................................................................",
".............................................................................................};>>>|+{(^................._<>>>>>>>>>>>>>>>>>(13[%>>>>><13[&>>>>>>>>>>>>>>>>>;]..................*(}]:>>>|...................................................................................................",
".............................................................................................,&>>>/+->-..................|>>>>>>>>>>>>>>>%4~...@#4444_...@]*;>>>>>>>>>>>>>>>,.................+!!+1>>>;'...................................................................................................",
"..............................................................................................->>>;',/|+.................4(>>>>>>>>>>>>{}+..................^3(>>>>>>>>>>>>2+.................}:1,&>>>=@...................................................................................................",
"..............................................................................................#;>>>&.*>~.................+%>>>>>>>>>>$^++@,,@+..........@,,@++,3;>>>>>>>>>>~..................%)_];>>>$....................................................................................................",
"..............................................................................................+{>>>!_4>-..................*>>>>>>>>>>1~&)))):|]~^@.+_~}1!))))/3~)>>>>>>>>>=,..................//@1>>>(#....................................................................................................",
"...............................................................................................'>>>>*.=!@.................^/>>>>>>>>>>;>>>>>>>>;:|1*/;;>>>>>>>>;>>>>>>>>>>'..................';],(>>><@....................................................................................................",
"...............................................................................................~!>>>%.2>^.................@$>>>>>>>>>>>>>>>>>>>>>>>>>>>>>>>>>>>>>>>>>>>>>:}..................$;_#;>>>2.....................................................................................................",
"................................................................................................|>>>)#^:1..................]:>>>>>>>>>>>>>>>>>>>>>>>>>>>>>>>>>>>>>>>>>>>>2+................._!{@|>>>:~.....................................................................................................",
"................................................................................................')>>>1.=;+.................@%>>>>>>>>>>>>)={{/()>>>>>)(!|*%(>>>>>>>>>>>>(}..................[>#+:>>>=,.....................................................................................................",
"................................................................................................_/>>>=,3;}..................4:>>>>>>>>>>>!}..^}4*$%${-}~@.@|>>>>>>>>>>>>2+..................$(_-;>>;3......................................................................................................",
"................................................................................................+|>>>>].:&..................+%>>>>>>>>>>>;%4.....@@@+....~2:>>>>>>>>>>>(}..................#)[.<>>>:}......................................................................................................",
".................................................................................................#:>>>*.&)+..................](>>>>>>>>>>>>)|3,........]*!>>>>>>>>>>>>;1...................[>#,:>>>{+......................................................................................................",
"................................................................................................._!>>>:_~)3...................%>>>>>>>>>>>>>>;&223#4*2|:>>>>>>>>>>>>>>(^..................,<&+2>>>>[.......................................................................................................",
".................................................................................................+1;>>>}.)<...................~!>>>>>>>>>>>>>>>>>;(:>>>>>>>>>>>>>>>>>;[...................]>[.<>>>/~.......................................................................................................",
"..................................................................................................})>>>$@*(_...................1>>>>>>>>>>>>>>>>>>>>>>>>>>>>>>>>>>>>>&,...................1:^#)>>>2........................................................................................................",
".................................................................................................._=>>>>__>{...................@<>>>>>>>>>>>>>>>>>>>>>>>>>>>>>>>>>>>;-...................^;$.|>>>>3........................................................................................................",
"...................................................................................................4>>>>-@(&....................~:>>>>>>>>>>>>>>>>>>>>>>>>>>>>>>>>>>1....................#>[+<>>>=@........................................................................................................",
"...................................................................................................}:>>>(+-)]....................2>>>>>>>>>>>>>>>>>>>>>>>>>>>>>>>>>/_...................+%/.3>>>>{.........................................................................................................",
"...................................................................................................+{>>>;_~;*....................@&>>>>>>>>>>>>>>>>>>>>>>>>>>>>>>>)-...................._>$.{>>>:#.........................................................................................................",
"....................................................................................................'>>>>|@$=@....................,&>>>>>>>>>>>>>>>>>>>>>>>>>>>>>)4.....................':#~(>>>=+.........................................................................................................",
"....................................................................................................^/>>>).->4.....................@%>>>>>>>>>>>>>>>>>>>>>>>>>>>:4.....................+//.3>>>;1..........................................................................................................",
".....................................................................................................2>>>)]~(2......................@{;>>>>>>>>>>>>>>>>>>>>>>>;=]......................^:2@$>>>:^..........................................................................................................",
".....................................................................................................-)>>>&.$!^......................+-<>>>>>>>>>>>>>>>>>>>>>:3,.......................*:,#;>>>=@..........................................................................................................",
".....................................................................................................+=>>>!@')4........................^2(>>>>>>>>>>>>>>>>>:$#.........................<<.3>>>;]...........................................................................................................",
"......................................................................................................|>>>;3,<$@........................+]*<>>>>>>>>>>>>>/24@.........................](-,<>>>)_...........................................................................................................",
"......................................................................................................~:>>>|.$(^...........................^''32$%%$$*33'~............................2)_~>>>>2+...........................................................................................................",
".......................................................................................................<>>>!~](3...............................+@,,,@................................@=$@*>>>>]............................................................................................................",
".......................................................................................................1>>>>'@!=@....................................................................';4@(>>>!^............................................................................................................",
".......................................................................................................@:>>>|+|!^....................................................................2:^})>>>3.............................................................................................................",
"........................................................................................................=>>>)#~:*...................................................................^!2+%>>>;4.............................................................................................................",
"........................................................................................................#;>>;'@/&+..................................................................-;-@!>>>%@.............................................................................................................",
".........................................................................................................)>>>=,3:].................................................................+$<_3;>>>[..............................................................................................................",
".........................................................................................................{>>>)}^>2.................................................................~)2+=>>>(}..............................................................................................................",
"........................................................................................................._>>>;1@%&,................................................................3(]^!>>>|...............................................................................................................",
".........................................................................................................@/>>>/@-;-...............................................................@<<@*>>>>[...............................................................................................................",
"..........................................................................................................'>>>)]^:*...............................................................~:{@%>>>/,...............................................................................................................",
"..........................................................................................................~;>>>$.{!^..............................................................*(~#:>>>$................................................................................................................",
"..........................................................................................................@$>>>/@->].............................................................+=<@[>>>)4................................................................................................................",
"...........................................................................................................'>>>>3@/{+............................................................}!3,=>>>/+................................................................................................................",
"...........................................................................................................~(>>>|.|;,............................................................{)^})>>>2.................................................................................................................",
"...........................................................................................................+{>>>!^])]...........................................................+=&@1>>>)~.................................................................................................................",
"............................................................................................................3;>>>[.//...........................................................-;4,!>>><@.................................................................................................................",
"............................................................................................................_=>>>|+|;@..........................................................2;^})>>;'..................................................................................................................",
"............................................................................................................+|>>>)#,:*........................................................._!2+%>>>;~..................................................................................................................",
".............................................................................................................]:>>>3.(:.........................................................'>4@(>>>$@..................................................................................................................",
".............................................................................................................,=>>><,-)~........................................................{/,';>>>4...................................................................................................................",
"..............................................................................................................*>>>>#.;=.......................................................};*.&>>>(~...................................................................................................................",
"..............................................................................................................}(>>>1+&(.......................................................->]_!>>>*....................................................................................................................",
".............................................................................................................._=>>>;,~;'.....................................................@<&.*>>>;-....................................................................................................................",
"...............................................................................................................';>>>}@;=.....................................................~>*.%>>>=_....................................................................................................................",
"...............................................................................................................}:>>>&.1!,....................................................[:_])>>>2.....................................................................................................................",
"...............................................................................................................@$>>>;.~>[...................................................@)=.1>>>:4.....................................................................................................................",
"................................................................................................................'>>>>'@/%...................................................~;'@=>>>&@.....................................................................................................................",
"................................................................................................................~!>>>!.3)}..................................................$(.4>>>;*......................................................................................................................",
".................................................................................................................2>>>),};[..................................................)&.1>>>!~......................................................................................................................",
".................................................................................................................3;>>>{+$<_................................................-:~^:>>>=@......................................................................................................................",
".................................................................................................................@=>>>/.1>]................................................<).#>>>)-.......................................................................................................................",
"..................................................................................................................|>>>)4^!*...............................................,(*@$>>>(^.......................................................................................................................",
"..................................................................................................................]:>>>$.$)~..............................................2;,^>>>>|+.......................................................................................................................",
"...................................................................................................................=>>><+3)]..............................................=!+->>>;]........................................................................................................................",
"...................................................................................................................{>>>>[+<%+............................................#)4@(>>>(~........................................................................................................................",
"...................................................................................................................@:>>>{.|:^............................................{;^_>>>>1.........................................................................................................................",
"....................................................................................................................<>>>(~}(*@++++++++++++++++++++++++++++++++++++++++++~/|@{>>>>-.........................................................................................................................",
"....................................................................................................................4>>>>3.=>=$%%%%%%%%%%%%%%%%%%%%%%%%%%%%%%%%%%%%%%%%$(>]+)>>>=_.........................................................................................................................",
"....................................................................................................................+;>>>$@}2$$$$$$$$$$$$$$$$$$$$$%%%%%%%%%%%%%%%%%%%%%%$[+])>>>1..........................................................................................................................",
".....................................................................................................................|>>>;1^~}~~~~~~~~~~~~~~~~~~~~}}}}}}}}}}}}}}}}}}}}}}}^}/>>>:]..........................................................................................................................",
".....................................................................................................................^>>>>)(!!!!!!!!!!!!!!!!!!!!!!!!!!!!!!!!!!!!!!!!!!!!!((>>>>%...........................................................................................................................",
".....................................................................................................................@(>>>>>>>>>>>>>>>>>>>>>>>>>>>>>>>>>>>>>>>>>>>>>>>>>>>>>>>>*...........................................................................................................................",
"......................................................................................................................3>>>>>>>>>>>>>>>>>>>>>>>>>>>>>>>>>>>>>>>>>>>>>>>>>>>>>>>!,...........................................................................................................................",
"......................................................................................................................~>>>>>>>>>>>>>>>>>>>>>>>>>>>>>>>>>>>>>>>>>>>>>>>>>>>>>>>&............................................................................................................................",
".......................................................................................................................^~~~~~~~~~~~~~~~~~~~~~~~~~~~~~~~~~~~~~~~~~~~~~~~~~~~~~~_............................................................................................................................",
"...........................................................................................................................................................................................................................................................................................................",
"...........................................................................................................................................................................................................................................................................................................",
"...........................................................................................................................................................................................................................................................................................................",
"...........................................................................................................................................................................................................................................................................................................",
"...........................................................................................................................................................................................................................................................................................................",
"...........................................................................................................................................................................................................................................................................................................",
"...........................................................................................................................................................................................................................................................................................................",
"...........................................................................................................................................................................................................................................................................................................",
"...........................................................................................................................................................................................................................................................................................................",
".................................................................................................................................................................................................................+^+.......................................................................................",
"...........................................................................++................+}#@..........+....................................................................................................@*(3.......................................................................................",
".....................................................................+_#4-1$='+.............~&:(-........+1%~.......................,...........................................................................-)>!}......................................................................................",
".....................................................................1()))>>>;{@............$>>>3........~;>{+.....................3)*.........................................................................+$>>>1......................................................................................",
"....................................................................@%>>>>>>>>:}............&>>>3........2>>/^...................+[>>>3........................................................................+{>>>2......................................................................................",
".....................................................................])>>>>>>>;]............'>>>'.......];>>(#...................,(>>>/_........................................................................})>)-....................................................,]]]^}_.^^........................",
"......................................................................42[3<>>>;]............@*<|,......'>>>>)]....................3>>;*@........................................................................+'24.....................................................}(>;{($,!$........................",
"..........................................................................#>>>;].............._@......->>>>>>$4]4]}-2224..........,2%-...................................................................................................................................+1>|4:;|>&........................",
".........................,~^@..........................@}3{$$-............+&>>;]......................&>>>>>>>;)):(;>>>&............@.............@#[{$$2~..................,^#*${_...........................................+}#,..++....@~#@............................];'_(>>>&........................",
".......................@2/(!<<<<'....@3=<<<<<=#.....~{</(;>>>)='+..........1>>;].........+,@..........{>>>>>>>>>>>>>>>>%........................3=/:>>>>>($}......'<<<<<<<<</!:>>>!].........................,,,,,,+.........#&(:/<<<<<<<<<(:<[............+,,,,,,,@......#(-_={=2$........................",
".......................1>>>>>>>>(}...1;>>>>>>>%@.._2(>>>>>>>>>>;&_.........[>>;].......+]%!<1}~^@.....#:>>>>>>>>>>>>>>>&......._~~~_@.........+1;>>>>>>>>>>:2@...^;>>>>>>>>>>>>>>>>(].......................[!!!!!!%]+......](>>>>>>>>>>>>>>>>)#.........+}{!!!!!!!/3~^+..+_@._+,+,........................",
".......................')>>>>>>>>1...4;>>>>>>>(^.}/>>>>>>>;()>>>>/]........'>>;].......])>>>>)::2+.....3=>>>>>:&&&&&=(:*......}!)::!$[_......_|>>>>>>>>>>>>>>$@..~>>>>>>>>>>>;)>>>>>!}.....................+<>>>>>>>)4.....@%>>>>>>>>>>;!:>>>>>*........^|)>>>>>>>>>;::'...................................",
"........................4|(>>>>><@...^(>>>>>)&].~!>>>>>)%{3}-|>>>>/^.......]>>;]......._&>>>>>>>:}......+*>>>;3++++++}}+......2>>>>>>>-.....@%>>>>>><{{%)>>>>>3..,=>>>>>>>:${[-{$)>>>{......................^$:>>>>>;]....._&>>>>>>>({|[~42<>>><,......]<>>>>>>>>>>>>>>*...................................",
"..........................-:>>>>[....@%>>>><-+..$>>>>>/'@....+1(>>>|+......#>>;]........^1*%;>>>)].......,;>>:}...............#&:;>>>>-.....';>>>>%[_..@-2!>>>(,..,&>>>>>)3+....+{>>>2.......................+]2:>>>&_......~%;>>>>)4......^<>>(^.....@/>>>>;=*11*:>>>>[...................................",
"...........................2>>>:~....+|>>>!~...@!>>>>=^........3>>>:}......#>>;]...........@{>>>)]......._;>>:#................,~3;>>>4....+%>>>;{@.......^|>>>3...,%>>>:3.......^/>>2..........................4(>>=_.......@[)>>>3........*>>:~.....{>>>>$],....]<>>>*...................................",
"..........................._/>>;3....+|>>>[....~(>>>/~.........#>>>;[......#>>>4............^:>>;-.......^;>>:#.................._;>>>'....@=>>>$+........._=>>:+...->>>{........+&>>2..........................,=>>(}........~(>>)^........3>>:~...._(>>>$@.......^:>>{...................................",
"............................%>>>$....@%>>/^....}:>>>2.........._=>>>&,.....#>>>-............,(>>;3......._;>>(}..................^;>>>2....}!>>>3...........*>>>^...*>>>'........+=>>2..........................,=>>/~........}(>>;~........-;>:~....$>>><_.........{>>*...................................",
"............................-)>>&....,!>>[.....~(>>>[...........[>>>=,.....#>>>3............_:>>)4.......,<>>:#.................._:>>>1....-)>>!~...........1>>>$...2>>:4........+=>>2..........................,&>>&,........~(>>;~........-;>:~....=>>)-.........._$%4...................................",
"............................+!>>)4...';><~....._!>>;[...........->>>!}.....#>>>*............_:>>)].......+2>>:#..................,<>>>-....1>>>=@...........1>>>)+..2>>:]........+=>>2..........................+2>>:}........^/>>;~........->>:^...~(>>=.............+....................................",
".............................*;>>=+.3)>>*......+/>>>*...........[>>>>*.....#>>>$@..........._:>>)].......@$>>:#..................@%>>>3....1>>>!~...........*>>>)+..*>>:]........+=>>2...........................])>>4........_/>>)^........])>:#...]:>>=..................................................",
"............................._:>>><&;>><^.......<>>>*..........}:>>>>$+....#>>>%@..........._:>>)].......,/>>(}..................@%>>>{+...}(>>>[..........3:>>>)+..*>>(#........+=>>2...........................#:>>-........^!>>:^........];>>1...^(>>=..................................................",
"..............................3>>>>>>>;3........=>>>!#........~:>>>>:4.....#>>>%,..........._:>>)].......,/>>(~..................@&>>>{+...+&>>>)4........#)>>>>:+..2>>/~........+=>>2..........................+{>>>'........}(>>)~........1>>>&+..+/>>/,.................................................",
"..............................,(>>>>>>&@........}:>>>/#@++,,,3:>>>>>%@.....#>>>&,...........,:>>;'.......,<>>)3@+....+,_-{'+.....,!>>>*.....2>>>>;'@,,,,@4(>>>>;]..,&>>;3........@=>>{.......+..................~/>>>)4,@+....}:>>;4.......')>>>!,...%>>>*.................................................",
"...............................]>>>>>>|..........1>>>>;!{|())>>>>>>=^.....@3>>>!4~}}_...@...@(>>>(4~~,...+*>>>;){#~~-%));>)].....^;>>>|_....,%>>>>;)::)));>>>>;[..@2>>>>/4+....._[)>>/}.....-|3^...........@~}~-!>>>>>;)/2~+.,{>>>>)3+....3)>>>>)[,..~:>>=_.........^}_...@~}@.............................",
"...............................,<>>>>)4...........{>>>>>>>>>>>>>>)|^..~44'=>>>>>>>>>(}.4|3]4'(>>>>>>>&}...]>>>>>>>>>>>>>>>>4.#4]][>>>>>/*-4_._=>>>>>>>>>>>>>>(3..@$>>>>>>>-....'(>>>>><-@..->>>/_..........3;>>>>>>>>>>>>>)]@&>>>>>>;[...@/>>>>>>>{...$>>><],..@~441:>%..@$>>{@............................",
"................................};>>><@...........+2;>>>>>>>>>>:|4..._!>>>>>>>>>>>>>>[_(>>>>>>>>>>>>>>%@..}>>>>>>>>>>>>>>>:},:>>>>>>>>>>>>><}.^&;>>>>>>>>>>><#...~>>>>>>>>{+..,=>>>>>>>>-.@&>>>)~..........#;>>>>>>>>>>>>>(##;>>>>>>>=...+$>>>>>>>{..._!>>>;%11|!>>>>>%..*>>>>}............................",
".................................2>;:[..............[!);>>>))%[].....^<>>>>;))/|*|=&*~,&));;;;;;)))))<-+..,{:)>>>>>>>>>>)=-+@$)>>>>>>>>>>>>>2..,'$:)))))))/1,....^:;;))))!-+...[>;)))))/#.4>>>>&@...........[&!::::!=%|21[}._=;))))(|4....^=:/<=%1~....]<>>>>>>>>>>>;/#.@=>>>(^............................",
"................................._[3]................~4'2$14],........}%(!&[4]~+.+_,...,44-3[[3-44444^......#4$(((((/=&*4,...,][{||{2*2{%!!2~....+#4444444~......+#3-4444~.....,[-]4444^..4>>>;].............,~##}}~_,+......}3-444#.......^#~^_@.......^$:>>>;;;):!3~...-():-.............................",
".........................................................@.............@~^,...................................@~}~~~_,,.........+@+++.++,^~+..............................................*>>>%+.........................................................@]*{1[3'-#^......#-#+.............................",
".........................................................................................................................................................................................,<>>(~.............................................................+..............................................",
".........................................................................................................................................................................................}>>!}.............................................................................................................",
".........................................................................................................................................................................................,[[}..............................................................................................................",
"...........................................................................................................................................................................................................................................................................................................",
"...........................................................................................................................................................................................................................................................................................................",
"...........................................................................................................................................................................................................................................................................................................",
"...........................................................................................................................................................................................................................................................................................................",
"...........................................................................................................................................................................................................................................................................................................",
"...........................................................................................................................................................................................................................................................................................................",
"...........................................................................................................................................................................................................................................................................................................",
"...........................................................................................................................................................................................................................................................................................................",
"...........................................................................................................................................................................................................................................................................................................",
"...........................................................................................................................................................................................................................................................................................................",
"...........................................................................................................................................................................................................................................................................................................",
"...........................................................................................................................................................................................................................................................................................................",
"...........................................................................................................................................................................................................................................................................................................",
"...........................................................................................................................................................................................................................................................................................................",
"...........................................................................................................................................................................................................................................................................................................",
"...........................................................................................................................................................................................................................................................................................................",
"...........................................................................................................................................................................................................................................................................................................",
"...........................................................................................................................................................................................................................................................................................................",
"...........................................................................................................................................................................................................................................................................................................",
"...........................................................................................................................................................................................................................................................................................................",
"...........................................................................................................................................................................................................................................................................................................",
"...........................................................................................................................................................................................................................................................................................................",
"...........................................................................................................................................................................................................................................................................................................",
"...........................................................................................................................................................................................................................................................................................................",
"...........................................................................................................................................................................................................................................................................................................",
"...........................................................................................................................................................................................................................................................................................................",
"...........................................................................................................................................................................................................................................................................................................",
"...........................................................................................................................................................................................................................................................................................................",
"...........................................................................................................................................................................................................................................................................................................",
"...........................................................................................................................................................................................................................................................................................................",
"...........................................................................................................................................................................................................................................................................................................",
"...........................................................................................................................................................................................................................................................................................................",
"...........................................................................................................................................................................................................................................................................................................",
"...........................................................................................................................................................................................................................................................................................................",
"...........................................................................................................................................................................................................................................................................................................",
"...........................................................................................................................................................................................................................................................................................................",
"...........................................................................................................................................................................................................................................................................................................",
"...........................................................................................................................................................................................................................................................................................................",
"...........................................................................................................................................................................................................................................................................................................",
"...........................................................................................................................................................................................................................................................................................................",
"...........................................................................................................................................................................................................................................................................................................",
"...........................................................................................................................................................................................................................................................................................................",
"...........................................................................................................................................................................................................................................................................................................",
"..........................................................................................................................................................................................................................................................................................................."};
