/* XPM */
static const char *pofview_ico_xpm[] = {
/* columns rows colors chars-per-pixel */
"32 32 5 1",
"  c #000000",
". c #0000FF",
"X c #00FFFF",
"o c #FFFFFF",
"O c None",
/* pixels */
"OOOOOOOOOOOOOOOOOOOOOOOOOOOOOOOO",
"OOOOOOOOOOOOOOOOOOOOOOOOOOOOOOOO",
"OOOOOOOOOOOOOOOOOOOOOOOOOOOOOOOO",
"OOOOOOOOOOOOOOOOOOOOOOOOOOOOOOOO",
"OOOOOOOOOOOOOO   OOOOOOOOOOOOOOO",
"OOOOOOOOOOOO  ooo   OOOOOOOOOOOO",
"OOOOOOOOO   o   oooo  OOOOOOOOOO",
"OOOOOOO  ooo XXX    oo   OOOOOOO",
"OOOOO  ooooo XXXXXXX  ooo  OOOOO",
"OOO  oooooo  XXXXX  oooo   OOOOO",
"OOO X    oooo  XX oooo  .. OOOOO",
"OOO XXXXX   ooo  ooo  .... OOOOO",
"OOO X XXXXXX    oo  .... . OOOOO",
"OOO XXX XXXXXXXX  ........ OOOOO",
"OOOO XXXXXXXXXXX ..... ... OOOOO",
"OOOO XXXX XXXXXX ......... OOOOO",
"OOOO XXXXXXXXXXX ... ..... OOOOO",
"OOOO  XXXXXX XXX ........  OOOOO",
"OOOOOO  XXXXXXXX . ....  OOOOOOO",
"OOOOOOOO  XXXXX  ....  OOOOOOOOO",
"OXXXXXXXXO   XXX  .  OOOOOOOOOOO",
"OX   XXXXXXXX  X   OOOOOOOOOOOOO",
"OX X XXXX   XOO           OOOOOO",
"OX   XXXX XXXOO  ooo....oo  OOOO",
"OX XX   X   XO oooo..  ..ooo OOO",
"OX XX X X XXX ooooo..  ..oooo OO",
"OX XX X X XXX ooooo..  ..oooo OO",
"OX XX   X XXXO ooooo....oooo OOO",
"OXXXXXXXXXXXXOO    oo..ooo  OOOO",
"OOOOOOOOOOOOOOOOOO        OOOOOO",
"OOOOOOOOOOOOOOOOOOOOOOOOOOOOOOOO",
"OOOOOOOOOOOOOOOOOOOOOOOOOOOOOOOO"
};
